(.../pcb-gcode-3.6.0.4/pcb-gcode.ulp)
(Copyright 2005 - 2012 by John Johnson)
(See readme.txt for licensing terms.)
(This file generated from the board:)
(.../FoamBot Arduino Pololu servo r1.brd)
(Current profile is .../pcb-gcode-3.6.0.4/profiles/Pololu_PCB_mill.pp  )
(This file generated 12/22/2015 3:36:32 PM)
(Settings from pcb-machine.h)
(  Tool Size)
(0.0060 )
(Z Axis Settings)
(  High     Up        Down     Drill)
(0.1500 	0.1000 	-0.0040 	-0.0800 )
(spindle on time = 1.0000)
(milling depth = -0.0050)
(text depth = -0.0050)
(tool change at 0.0000 0.0000 0.1500 )
(feed rate xy = F10.00 )
(feed rate z  = F10.00 )
(Settings from pcb-defaults.h)
(isolate min = 0.0010)
(isolate max = 0.0080)
(isolate step = 0.0070)
(Generated bottom outlines, bottom drill, )
(Unit of measure: inch)
(Inch Mode)
G20
(Absolute Coordinates)
G90
G00 X0.0000 Y0.0000 
M03 S1
G04 P1.000000
G00 Z0.1000 
G00 X-0.2675 Y0.7826 
G01 Z-0.0040 F10.00 
G01 X-0.2675 Y0.7826 F10.00 
G01 X-0.2652 Y0.7803 
G01 X-0.2650 Y0.7801 
G01 X-0.2636 Y0.7768 
G01 X-0.2636 Y0.7732 
G01 X-0.2641 Y0.7719 
G01 X-0.2650 Y0.7699 
G01 X-0.2675 Y0.7674 
G01 X-0.2759 Y0.7590 
G01 X-0.2850 Y0.7369 
G01 X-0.2850 Y0.7131 
G01 X-0.2759 Y0.6910 
G01 X-0.2675 Y0.6826 
G01 X-0.2652 Y0.6803 
G01 X-0.2650 Y0.6801 
G01 X-0.2636 Y0.6768 
G01 X-0.2636 Y0.6732 
G01 X-0.2641 Y0.6719 
G01 X-0.2650 Y0.6699 
G01 X-0.2675 Y0.6674 
G01 X-0.2759 Y0.6590 
G01 X-0.2850 Y0.6369 
G01 X-0.2850 Y0.6131 
G01 X-0.2759 Y0.5910 
G01 X-0.2675 Y0.5826 
G01 X-0.2652 Y0.5803 
G01 X-0.2650 Y0.5801 
G01 X-0.2636 Y0.5768 
G01 X-0.2636 Y0.5732 
G01 X-0.2641 Y0.5719 
G01 X-0.2650 Y0.5699 
G01 X-0.2675 Y0.5674 
G01 X-0.2759 Y0.5590 
G01 X-0.2850 Y0.5369 
G01 X-0.2850 Y0.5131 
G01 X-0.2759 Y0.4910 
G01 X-0.2675 Y0.4826 
G01 X-0.2652 Y0.4803 
G01 X-0.2650 Y0.4801 
G01 X-0.2636 Y0.4768 
G01 X-0.2636 Y0.4732 
G01 X-0.2641 Y0.4719 
G01 X-0.2650 Y0.4699 
G01 X-0.2675 Y0.4674 
G01 X-0.2759 Y0.4590 
G01 X-0.2850 Y0.4369 
G01 X-0.2850 Y0.4131 
G01 X-0.2759 Y0.3910 
G01 X-0.2675 Y0.3826 
G01 X-0.2652 Y0.3803 
G01 X-0.2650 Y0.3801 
G01 X-0.2636 Y0.3768 
G01 X-0.2636 Y0.3732 
G01 X-0.2641 Y0.3719 
G01 X-0.2650 Y0.3699 
G01 X-0.2675 Y0.3674 
G01 X-0.2759 Y0.3590 
G01 X-0.2850 Y0.3369 
G01 X-0.2850 Y0.3131 
G01 X-0.2759 Y0.2910 
G01 X-0.2590 Y0.2741 
G01 X-0.2369 Y0.2650 
G01 X-0.2131 Y0.2650 
G01 X-0.1910 Y0.2741 
G01 X-0.1741 Y0.2910 
G01 X-0.1650 Y0.3131 
G01 X-0.1650 Y0.3369 
G01 X-0.1741 Y0.3590 
G01 X-0.1850 Y0.3699 
G01 X-0.1858 Y0.3718 
G01 X-0.1864 Y0.3732 
G01 X-0.1864 Y0.3768 
G01 X-0.1850 Y0.3801 
G01 X-0.1825 Y0.3826 
G01 X-0.1741 Y0.3910 
G01 X-0.1650 Y0.4131 
G01 X-0.1650 Y0.4369 
G01 X-0.1741 Y0.4590 
G01 X-0.1850 Y0.4699 
G01 X-0.1858 Y0.4718 
G01 X-0.1864 Y0.4732 
G01 X-0.1864 Y0.4768 
G01 X-0.1850 Y0.4801 
G01 X-0.1825 Y0.4826 
G01 X-0.1741 Y0.4910 
G01 X-0.1650 Y0.5131 
G01 X-0.1650 Y0.5369 
G01 X-0.1741 Y0.5590 
G01 X-0.1850 Y0.5699 
G01 X-0.1858 Y0.5718 
G01 X-0.1864 Y0.5732 
G01 X-0.1864 Y0.5768 
G01 X-0.1850 Y0.5801 
G01 X-0.1825 Y0.5826 
G01 X-0.1741 Y0.5910 
G01 X-0.1650 Y0.6131 
G01 X-0.1650 Y0.6369 
G01 X-0.1741 Y0.6590 
G01 X-0.1850 Y0.6699 
G01 X-0.1858 Y0.6718 
G01 X-0.1864 Y0.6732 
G01 X-0.1864 Y0.6768 
G01 X-0.1850 Y0.6801 
G01 X-0.1825 Y0.6826 
G01 X-0.1741 Y0.6910 
G01 X-0.1650 Y0.7131 
G01 X-0.1650 Y0.7369 
G01 X-0.1741 Y0.7590 
G01 X-0.1850 Y0.7699 
G01 X-0.1858 Y0.7718 
G01 X-0.1864 Y0.7732 
G01 X-0.1864 Y0.7768 
G01 X-0.1850 Y0.7801 
G01 X-0.1825 Y0.7826 
G01 X-0.1741 Y0.7910 
G01 X-0.1650 Y0.8131 
G01 X-0.1650 Y0.8369 
G01 X-0.1741 Y0.8590 
G01 X-0.1910 Y0.8759 
G01 X-0.2131 Y0.8850 
G01 X-0.2369 Y0.8850 
G01 X-0.2590 Y0.8759 
G01 X-0.2759 Y0.8590 
G01 X-0.2850 Y0.8369 
G01 X-0.2850 Y0.8131 
G01 X-0.2759 Y0.7910 
G01 X-0.2675 Y0.7826 
G00 Z0.1000 
G00 X-0.2690 Y0.3215 
G01 Z-0.0040 F10.00 
G01 X-0.2690 Y0.3285 F10.00 
G01 X-0.2679 Y0.3353 
G01 X-0.2658 Y0.3419 
G01 X-0.2626 Y0.3481 
G01 X-0.2586 Y0.3537 
G01 X-0.2537 Y0.3586 
G01 X-0.2481 Y0.3626 
G01 X-0.2419 Y0.3658 
G01 X-0.2353 Y0.3679 
G01 X-0.2285 Y0.3690 
G01 X-0.2215 Y0.3690 
G01 X-0.2147 Y0.3679 
G01 X-0.2081 Y0.3658 
G01 X-0.2019 Y0.3626 
G01 X-0.1963 Y0.3586 
G01 X-0.1914 Y0.3537 
G01 X-0.1874 Y0.3481 
G01 X-0.1842 Y0.3419 
G01 X-0.1821 Y0.3353 
G01 X-0.1810 Y0.3285 
G01 X-0.1810 Y0.3215 
G01 X-0.1821 Y0.3147 
G01 X-0.1842 Y0.3081 
G01 X-0.1874 Y0.3019 
G01 X-0.1914 Y0.2963 
G01 X-0.1963 Y0.2914 
G01 X-0.2019 Y0.2874 
G01 X-0.2081 Y0.2842 
G01 X-0.2147 Y0.2821 
G01 X-0.2215 Y0.2810 
G01 X-0.2285 Y0.2810 
G01 X-0.2353 Y0.2821 
G01 X-0.2419 Y0.2842 
G01 X-0.2481 Y0.2874 
G01 X-0.2537 Y0.2914 
G01 X-0.2586 Y0.2963 
G01 X-0.2626 Y0.3019 
G01 X-0.2658 Y0.3081 
G01 X-0.2679 Y0.3147 
G01 X-0.2690 Y0.3215 
G00 Z0.1000 
G00 X-0.2690 Y0.4215 
G01 Z-0.0040 F10.00 
G01 X-0.2690 Y0.4285 F10.00 
G01 X-0.2679 Y0.4353 
G01 X-0.2658 Y0.4419 
G01 X-0.2626 Y0.4481 
G01 X-0.2586 Y0.4537 
G01 X-0.2537 Y0.4586 
G01 X-0.2481 Y0.4626 
G01 X-0.2419 Y0.4658 
G01 X-0.2353 Y0.4679 
G01 X-0.2285 Y0.4690 
G01 X-0.2215 Y0.4690 
G01 X-0.2147 Y0.4679 
G01 X-0.2081 Y0.4658 
G01 X-0.2019 Y0.4626 
G01 X-0.1963 Y0.4586 
G01 X-0.1914 Y0.4537 
G01 X-0.1874 Y0.4481 
G01 X-0.1842 Y0.4419 
G01 X-0.1821 Y0.4353 
G01 X-0.1810 Y0.4285 
G01 X-0.1810 Y0.4215 
G01 X-0.1821 Y0.4147 
G01 X-0.1842 Y0.4081 
G01 X-0.1874 Y0.4019 
G01 X-0.1914 Y0.3963 
G01 X-0.1963 Y0.3914 
G01 X-0.2019 Y0.3874 
G01 X-0.2081 Y0.3842 
G01 X-0.2147 Y0.3821 
G01 X-0.2215 Y0.3810 
G01 X-0.2285 Y0.3810 
G01 X-0.2353 Y0.3821 
G01 X-0.2419 Y0.3842 
G01 X-0.2481 Y0.3874 
G01 X-0.2537 Y0.3914 
G01 X-0.2586 Y0.3963 
G01 X-0.2626 Y0.4019 
G01 X-0.2658 Y0.4081 
G01 X-0.2679 Y0.4147 
G01 X-0.2690 Y0.4215 
G00 Z0.1000 
G00 X-0.2690 Y0.5215 
G01 Z-0.0040 F10.00 
G01 X-0.2690 Y0.5285 F10.00 
G01 X-0.2679 Y0.5353 
G01 X-0.2658 Y0.5419 
G01 X-0.2626 Y0.5481 
G01 X-0.2586 Y0.5537 
G01 X-0.2537 Y0.5586 
G01 X-0.2481 Y0.5626 
G01 X-0.2419 Y0.5658 
G01 X-0.2353 Y0.5679 
G01 X-0.2285 Y0.5690 
G01 X-0.2215 Y0.5690 
G01 X-0.2147 Y0.5679 
G01 X-0.2081 Y0.5658 
G01 X-0.2019 Y0.5626 
G01 X-0.1963 Y0.5586 
G01 X-0.1914 Y0.5537 
G01 X-0.1874 Y0.5481 
G01 X-0.1842 Y0.5419 
G01 X-0.1821 Y0.5353 
G01 X-0.1810 Y0.5285 
G01 X-0.1810 Y0.5215 
G01 X-0.1821 Y0.5147 
G01 X-0.1842 Y0.5081 
G01 X-0.1874 Y0.5019 
G01 X-0.1914 Y0.4963 
G01 X-0.1963 Y0.4914 
G01 X-0.2019 Y0.4874 
G01 X-0.2081 Y0.4842 
G01 X-0.2147 Y0.4821 
G01 X-0.2215 Y0.4810 
G01 X-0.2285 Y0.4810 
G01 X-0.2353 Y0.4821 
G01 X-0.2419 Y0.4842 
G01 X-0.2481 Y0.4874 
G01 X-0.2537 Y0.4914 
G01 X-0.2586 Y0.4963 
G01 X-0.2626 Y0.5019 
G01 X-0.2658 Y0.5081 
G01 X-0.2679 Y0.5147 
G01 X-0.2690 Y0.5215 
G00 Z0.1000 
G00 X-0.2690 Y0.6215 
G01 Z-0.0040 F10.00 
G01 X-0.2690 Y0.6285 F10.00 
G01 X-0.2679 Y0.6353 
G01 X-0.2658 Y0.6419 
G01 X-0.2626 Y0.6481 
G01 X-0.2586 Y0.6537 
G01 X-0.2537 Y0.6586 
G01 X-0.2481 Y0.6626 
G01 X-0.2419 Y0.6658 
G01 X-0.2353 Y0.6679 
G01 X-0.2285 Y0.6690 
G01 X-0.2215 Y0.6690 
G01 X-0.2147 Y0.6679 
G01 X-0.2081 Y0.6658 
G01 X-0.2019 Y0.6626 
G01 X-0.1963 Y0.6586 
G01 X-0.1914 Y0.6537 
G01 X-0.1874 Y0.6481 
G01 X-0.1842 Y0.6419 
G01 X-0.1821 Y0.6353 
G01 X-0.1810 Y0.6285 
G01 X-0.1810 Y0.6215 
G01 X-0.1821 Y0.6147 
G01 X-0.1842 Y0.6081 
G01 X-0.1874 Y0.6019 
G01 X-0.1914 Y0.5963 
G01 X-0.1963 Y0.5914 
G01 X-0.2019 Y0.5874 
G01 X-0.2081 Y0.5842 
G01 X-0.2147 Y0.5821 
G01 X-0.2215 Y0.5810 
G01 X-0.2285 Y0.5810 
G01 X-0.2353 Y0.5821 
G01 X-0.2419 Y0.5842 
G01 X-0.2481 Y0.5874 
G01 X-0.2537 Y0.5914 
G01 X-0.2586 Y0.5963 
G01 X-0.2626 Y0.6019 
G01 X-0.2658 Y0.6081 
G01 X-0.2679 Y0.6147 
G01 X-0.2690 Y0.6215 
G00 Z0.1000 
G00 X-0.2690 Y0.7215 
G01 Z-0.0040 F10.00 
G01 X-0.2690 Y0.7285 F10.00 
G01 X-0.2679 Y0.7353 
G01 X-0.2658 Y0.7419 
G01 X-0.2626 Y0.7481 
G01 X-0.2586 Y0.7537 
G01 X-0.2537 Y0.7586 
G01 X-0.2481 Y0.7626 
G01 X-0.2419 Y0.7658 
G01 X-0.2353 Y0.7679 
G01 X-0.2285 Y0.7690 
G01 X-0.2215 Y0.7690 
G01 X-0.2147 Y0.7679 
G01 X-0.2081 Y0.7658 
G01 X-0.2019 Y0.7626 
G01 X-0.1963 Y0.7586 
G01 X-0.1914 Y0.7537 
G01 X-0.1874 Y0.7481 
G01 X-0.1842 Y0.7419 
G01 X-0.1821 Y0.7353 
G01 X-0.1810 Y0.7285 
G01 X-0.1810 Y0.7215 
G01 X-0.1821 Y0.7147 
G01 X-0.1842 Y0.7081 
G01 X-0.1874 Y0.7019 
G01 X-0.1914 Y0.6963 
G01 X-0.1963 Y0.6914 
G01 X-0.2019 Y0.6874 
G01 X-0.2081 Y0.6842 
G01 X-0.2147 Y0.6821 
G01 X-0.2215 Y0.6810 
G01 X-0.2285 Y0.6810 
G01 X-0.2353 Y0.6821 
G01 X-0.2419 Y0.6842 
G01 X-0.2481 Y0.6874 
G01 X-0.2537 Y0.6914 
G01 X-0.2586 Y0.6963 
G01 X-0.2626 Y0.7019 
G01 X-0.2658 Y0.7081 
G01 X-0.2679 Y0.7147 
G01 X-0.2690 Y0.7215 
G00 Z0.1000 
G00 X-0.2690 Y0.8215 
G01 Z-0.0040 F10.00 
G01 X-0.2690 Y0.8285 F10.00 
G01 X-0.2679 Y0.8353 
G01 X-0.2658 Y0.8419 
G01 X-0.2626 Y0.8481 
G01 X-0.2586 Y0.8537 
G01 X-0.2537 Y0.8586 
G01 X-0.2481 Y0.8626 
G01 X-0.2419 Y0.8658 
G01 X-0.2353 Y0.8679 
G01 X-0.2285 Y0.8690 
G01 X-0.2215 Y0.8690 
G01 X-0.2147 Y0.8679 
G01 X-0.2081 Y0.8658 
G01 X-0.2019 Y0.8626 
G01 X-0.1963 Y0.8586 
G01 X-0.1914 Y0.8537 
G01 X-0.1874 Y0.8481 
G01 X-0.1842 Y0.8419 
G01 X-0.1821 Y0.8353 
G01 X-0.1810 Y0.8285 
G01 X-0.1810 Y0.8215 
G01 X-0.1821 Y0.8147 
G01 X-0.1842 Y0.8081 
G01 X-0.1874 Y0.8019 
G01 X-0.1914 Y0.7963 
G01 X-0.1963 Y0.7914 
G01 X-0.2019 Y0.7874 
G01 X-0.2081 Y0.7842 
G01 X-0.2147 Y0.7821 
G01 X-0.2215 Y0.7810 
G01 X-0.2285 Y0.7810 
G01 X-0.2353 Y0.7821 
G01 X-0.2419 Y0.7842 
G01 X-0.2481 Y0.7874 
G01 X-0.2537 Y0.7914 
G01 X-0.2586 Y0.7963 
G01 X-0.2626 Y0.8019 
G01 X-0.2658 Y0.8081 
G01 X-0.2679 Y0.8147 
G01 X-0.2690 Y0.8215 
G00 Z0.1000 
G00 X-2.2670 Y2.6826 
G01 Z-0.0040 F10.00 
G01 X-2.2424 Y2.6580 F10.00 
G01 X-2.2370 Y2.6580 
G01 X-2.2370 Y2.6600 
G01 X-2.2416 Y2.6600 
G01 X-2.2650 Y2.6834 
G01 X-2.2650 Y2.6880 
G01 X-2.2670 Y2.6880 
G01 X-2.2670 Y2.6826 
G00 Z0.1000 
G00 X-2.1830 Y2.7174 
G01 Z-0.0040 F10.00 
G01 X-2.2076 Y2.7420 F10.00 
G01 X-2.2130 Y2.7420 
G01 X-2.2130 Y2.7400 
G01 X-2.2084 Y2.7400 
G01 X-2.1850 Y2.7166 
G01 X-2.1850 Y2.7120 
G01 X-2.1830 Y2.7120 
G01 X-2.1830 Y2.7174 
G00 Z0.1000 
G00 X-2.1830 Y2.6880 
G01 Z-0.0040 F10.00 
G01 X-2.1850 Y2.6880 F10.00 
G01 X-2.1850 Y2.6834 
G01 X-2.2084 Y2.6600 
G01 X-2.2130 Y2.6600 
G01 X-2.2130 Y2.6580 
G01 X-2.2076 Y2.6580 
G01 X-2.1830 Y2.6826 
G01 X-2.1830 Y2.6880 
G00 Z0.1000 
G00 X-2.2424 Y2.7420 
G01 Z-0.0040 F10.00 
G01 X-2.2670 Y2.7174 F10.00 
G01 X-2.2670 Y2.7120 
G01 X-2.2650 Y2.7120 
G01 X-2.2650 Y2.7166 
G01 X-2.2416 Y2.7400 
G01 X-2.2370 Y2.7400 
G01 X-2.2370 Y2.7420 
G01 X-2.2424 Y2.7420 
G00 Z0.1000 
G00 X-1.3311 Y0.8005 
G01 Z-0.0040 F10.00 
G01 X-1.3255 Y0.8061 F10.00 
G01 X-1.3189 Y0.8104 
G01 X-1.3117 Y0.8135 
G01 X-1.3039 Y0.8150 
G01 X-1.2961 Y0.8150 
G01 X-1.2883 Y0.8135 
G01 X-1.2811 Y0.8104 
G01 X-1.2745 Y0.8061 
G01 X-1.2689 Y0.8005 
G01 X-1.2679 Y0.7990 
G01 X-1.2349 Y0.7990 
G01 X-1.1903 Y0.8436 
G01 X-1.1864 Y0.8463 
G01 X-1.1820 Y0.8481 
G01 X-1.1774 Y0.8490 
G01 X-1.0349 Y0.8490 
G01 X-0.9903 Y0.8936 
G01 X-0.9864 Y0.8963 
G01 X-0.9820 Y0.8981 
G01 X-0.9774 Y0.8990 
G01 X-0.8519 Y0.8990 
G01 X-0.8486 Y0.9037 
G01 X-0.8437 Y0.9086 
G01 X-0.8381 Y0.9126 
G01 X-0.8319 Y0.9158 
G01 X-0.8253 Y0.9179 
G01 X-0.8185 Y0.9190 
G01 X-0.7315 Y0.9190 
G01 X-0.7247 Y0.9179 
G01 X-0.7181 Y0.9158 
G01 X-0.7119 Y0.9126 
G01 X-0.7063 Y0.9086 
G01 X-0.7014 Y0.9037 
G01 X-0.6981 Y0.8990 
G01 X-0.5849 Y0.8990 
G01 X-0.4490 Y1.0349 
G01 X-0.4490 Y1.2774 
G01 X-0.4481 Y1.2820 
G01 X-0.4463 Y1.2864 
G01 X-0.4436 Y1.2903 
G01 X-0.4403 Y1.2936 
G01 X-0.3903 Y1.3436 
G01 X-0.3864 Y1.3463 
G01 X-0.3820 Y1.3481 
G01 X-0.3774 Y1.3490 
G01 X-0.2619 Y1.3490 
G01 X-0.2586 Y1.3537 
G01 X-0.2537 Y1.3586 
G01 X-0.2481 Y1.3626 
G01 X-0.2419 Y1.3658 
G01 X-0.2353 Y1.3679 
G01 X-0.2285 Y1.3690 
G01 X-0.2215 Y1.3690 
G01 X-0.2147 Y1.3679 
G01 X-0.2081 Y1.3658 
G01 X-0.2019 Y1.3626 
G01 X-0.1963 Y1.3586 
G01 X-0.1914 Y1.3537 
G01 X-0.1874 Y1.3481 
G01 X-0.1842 Y1.3419 
G01 X-0.1821 Y1.3353 
G01 X-0.1810 Y1.3285 
G01 X-0.1810 Y1.3215 
G01 X-0.1821 Y1.3147 
G01 X-0.1842 Y1.3081 
G01 X-0.1874 Y1.3019 
G01 X-0.1914 Y1.2963 
G01 X-0.1963 Y1.2914 
G01 X-0.2019 Y1.2874 
G01 X-0.2081 Y1.2842 
G01 X-0.2147 Y1.2821 
G01 X-0.2215 Y1.2810 
G01 X-0.2285 Y1.2810 
G01 X-0.2353 Y1.2821 
G01 X-0.2419 Y1.2842 
G01 X-0.2481 Y1.2874 
G01 X-0.2537 Y1.2914 
G01 X-0.2586 Y1.2963 
G01 X-0.2619 Y1.3010 
G01 X-0.3651 Y1.3010 
G01 X-0.4010 Y1.2651 
G01 X-0.4010 Y1.0226 
G01 X-0.4019 Y1.0180 
G01 X-0.4037 Y1.0136 
G01 X-0.4064 Y1.0097 
G01 X-0.5564 Y0.8597 
G01 X-0.5597 Y0.8564 
G01 X-0.5636 Y0.8537 
G01 X-0.5680 Y0.8519 
G01 X-0.5726 Y0.8510 
G01 X-0.6981 Y0.8510 
G01 X-0.7014 Y0.8463 
G01 X-0.7063 Y0.8414 
G01 X-0.7119 Y0.8374 
G01 X-0.7181 Y0.8342 
G01 X-0.7247 Y0.8321 
G01 X-0.7315 Y0.8310 
G01 X-0.8185 Y0.8310 
G01 X-0.8253 Y0.8321 
G01 X-0.8319 Y0.8342 
G01 X-0.8381 Y0.8374 
G01 X-0.8437 Y0.8414 
G01 X-0.8486 Y0.8463 
G01 X-0.8519 Y0.8510 
G01 X-0.9651 Y0.8510 
G01 X-1.0064 Y0.8097 
G01 X-1.0097 Y0.8064 
G01 X-1.0136 Y0.8037 
G01 X-1.0180 Y0.8019 
G01 X-1.0226 Y0.8010 
G01 X-1.1651 Y0.8010 
G01 X-1.2064 Y0.7597 
G01 X-1.2097 Y0.7564 
G01 X-1.2136 Y0.7537 
G01 X-1.2180 Y0.7519 
G01 X-1.2226 Y0.7510 
G01 X-1.2679 Y0.7510 
G01 X-1.2689 Y0.7495 
G01 X-1.2745 Y0.7439 
G01 X-1.2811 Y0.7396 
G01 X-1.2883 Y0.7365 
G01 X-1.2961 Y0.7350 
G01 X-1.3039 Y0.7350 
G01 X-1.3117 Y0.7365 
G01 X-1.3189 Y0.7396 
G01 X-1.3255 Y0.7439 
G01 X-1.3311 Y0.7495 
G01 X-1.3321 Y0.7510 
G01 X-1.3688 Y0.7510 
G01 X-1.3838 Y0.7360 
G01 X-1.4162 Y0.7360 
G01 X-1.4210 Y0.7408 
G01 X-1.4210 Y0.7200 
G01 X-1.3772 Y0.7200 
G01 X-1.3636 Y0.7336 
G01 X-1.3603 Y0.7350 
G01 X-1.3429 Y0.7350 
G01 X-1.3411 Y0.7350 
G01 X-1.3397 Y0.7344 
G01 X-1.3378 Y0.7336 
G01 X-1.3369 Y0.7327 
G01 X-1.3368 Y0.7326 
G01 X-1.3356 Y0.7314 
G01 X-1.3343 Y0.7301 
G01 X-1.3333 Y0.7276 
G01 X-1.3329 Y0.7268 
G01 X-1.3329 Y0.7243 
G01 X-1.3329 Y0.7232 
G01 X-1.3338 Y0.7212 
G01 X-1.3343 Y0.7199 
G01 X-1.3356 Y0.7186 
G01 X-1.3368 Y0.7174 
G01 X-1.3475 Y0.7067 
G01 X-1.3560 Y0.6861 
G01 X-1.3560 Y0.6639 
G01 X-1.3475 Y0.6433 
G01 X-1.3368 Y0.6326 
G01 X-1.3345 Y0.6303 
G01 X-1.3343 Y0.6301 
G01 X-1.3329 Y0.6268 
G01 X-1.3329 Y0.6232 
G01 X-1.3335 Y0.6219 
G01 X-1.3343 Y0.6199 
G01 X-1.3368 Y0.6174 
G01 X-1.3475 Y0.6067 
G01 X-1.3560 Y0.5861 
G01 X-1.3560 Y0.5639 
G01 X-1.3475 Y0.5433 
G01 X-1.3368 Y0.5326 
G01 X-1.3345 Y0.5303 
G01 X-1.3343 Y0.5301 
G01 X-1.3329 Y0.5268 
G01 X-1.3329 Y0.5232 
G01 X-1.3335 Y0.5219 
G01 X-1.3343 Y0.5199 
G01 X-1.3368 Y0.5174 
G01 X-1.3475 Y0.5067 
G01 X-1.3560 Y0.4861 
G01 X-1.3560 Y0.4639 
G01 X-1.3475 Y0.4433 
G01 X-1.3368 Y0.4326 
G01 X-1.3345 Y0.4303 
G01 X-1.3343 Y0.4301 
G01 X-1.3329 Y0.4268 
G01 X-1.3329 Y0.4232 
G01 X-1.3335 Y0.4219 
G01 X-1.3343 Y0.4199 
G01 X-1.3368 Y0.4174 
G01 X-1.3475 Y0.4067 
G01 X-1.3560 Y0.3861 
G01 X-1.3560 Y0.3639 
G01 X-1.3475 Y0.3433 
G01 X-1.3359 Y0.3317 
G01 X-1.3350 Y0.3310 
G01 X-1.3347 Y0.3305 
G01 X-1.3342 Y0.3300 
G01 X-1.3338 Y0.3289 
G01 X-1.3332 Y0.3279 
G01 X-1.3331 Y0.3273 
G01 X-1.3329 Y0.3267 
G01 X-1.3329 Y0.3255 
G01 X-1.3327 Y0.3243 
G01 X-1.3329 Y0.3238 
G01 X-1.3329 Y0.3231 
G01 X-1.3333 Y0.3220 
G01 X-1.3336 Y0.3209 
G01 X-1.3340 Y0.3204 
G01 X-1.3342 Y0.3198 
G01 X-1.3351 Y0.3190 
G01 X-1.3358 Y0.3180 
G01 X-1.3363 Y0.3177 
G01 X-1.3368 Y0.3173 
G01 X-1.3379 Y0.3168 
G01 X-1.3397 Y0.3158 
G01 X-1.3408 Y0.3147 
G01 X-1.3416 Y0.3133 
G01 X-1.3420 Y0.3118 
G01 X-1.3420 Y0.3040 
G01 X-1.3400 Y0.3040 
G01 X-1.3400 Y0.3118 
G01 X-1.3394 Y0.3133 
G01 X-1.3383 Y0.3144 
G01 X-1.3368 Y0.3150 
G01 X-1.2632 Y0.3150 
G01 X-1.2617 Y0.3144 
G01 X-1.2606 Y0.3133 
G01 X-1.2600 Y0.3118 
G01 X-1.2600 Y0.2870 
G01 X-1.2580 Y0.2870 
G01 X-1.2580 Y0.3118 
G01 X-1.2584 Y0.3133 
G01 X-1.2592 Y0.3147 
G01 X-1.2603 Y0.3158 
G01 X-1.2621 Y0.3168 
G01 X-1.2632 Y0.3173 
G01 X-1.2637 Y0.3177 
G01 X-1.2642 Y0.3180 
G01 X-1.2649 Y0.3190 
G01 X-1.2658 Y0.3198 
G01 X-1.2660 Y0.3204 
G01 X-1.2664 Y0.3209 
G01 X-1.2667 Y0.3220 
G01 X-1.2671 Y0.3231 
G01 X-1.2671 Y0.3238 
G01 X-1.2673 Y0.3243 
G01 X-1.2671 Y0.3255 
G01 X-1.2671 Y0.3267 
G01 X-1.2669 Y0.3273 
G01 X-1.2668 Y0.3279 
G01 X-1.2662 Y0.3289 
G01 X-1.2658 Y0.3300 
G01 X-1.2653 Y0.3305 
G01 X-1.2650 Y0.3310 
G01 X-1.2641 Y0.3317 
G01 X-1.2634 Y0.3325 
G01 X-1.2622 Y0.3336 
G01 X-1.2603 Y0.3344 
G01 X-1.2589 Y0.3350 
G01 X-1.2571 Y0.3350 
G01 X-1.2118 Y0.3350 
G01 X-1.2085 Y0.3336 
G01 X-1.2060 Y0.3311 
G01 X-1.1990 Y0.3241 
G01 X-1.1769 Y0.3150 
G01 X-1.0731 Y0.3150 
G01 X-1.0510 Y0.3241 
G01 X-1.0341 Y0.3410 
G01 X-1.0250 Y0.3631 
G01 X-1.0250 Y0.3869 
G01 X-1.0341 Y0.4090 
G01 X-1.0425 Y0.4174 
G01 X-1.0448 Y0.4197 
G01 X-1.0450 Y0.4199 
G01 X-1.0464 Y0.4232 
G01 X-1.0464 Y0.4268 
G01 X-1.0459 Y0.4281 
G01 X-1.0450 Y0.4301 
G01 X-1.0425 Y0.4326 
G01 X-1.0341 Y0.4410 
G01 X-1.0250 Y0.4631 
G01 X-1.0250 Y0.4869 
G01 X-1.0341 Y0.5090 
G01 X-1.0425 Y0.5174 
G01 X-1.0448 Y0.5197 
G01 X-1.0450 Y0.5199 
G01 X-1.0464 Y0.5232 
G01 X-1.0464 Y0.5268 
G01 X-1.0459 Y0.5281 
G01 X-1.0450 Y0.5301 
G01 X-1.0425 Y0.5326 
G01 X-1.0341 Y0.5410 
G01 X-1.0250 Y0.5631 
G01 X-1.0250 Y0.5869 
G01 X-1.0341 Y0.6090 
G01 X-1.0425 Y0.6174 
G01 X-1.0448 Y0.6197 
G01 X-1.0450 Y0.6199 
G01 X-1.0464 Y0.6232 
G01 X-1.0464 Y0.6268 
G01 X-1.0459 Y0.6281 
G01 X-1.0450 Y0.6301 
G01 X-1.0425 Y0.6326 
G01 X-1.0341 Y0.6410 
G01 X-1.0250 Y0.6631 
G01 X-1.0250 Y0.6869 
G01 X-1.0341 Y0.7090 
G01 X-1.0510 Y0.7259 
G01 X-1.0731 Y0.7350 
G01 X-1.1769 Y0.7350 
G01 X-1.1872 Y0.7307 
G01 X-1.1886 Y0.7302 
G01 X-1.1906 Y0.7294 
G01 X-1.1941 Y0.7294 
G01 X-1.1951 Y0.7297 
G01 X-1.1974 Y0.7307 
G01 X-1.2000 Y0.7333 
G01 X-1.2008 Y0.7352 
G01 X-1.2013 Y0.7366 
G01 X-1.2013 Y0.7401 
G01 X-1.2010 Y0.7411 
G01 X-1.2000 Y0.7435 
G01 X-1.1974 Y0.7460 
G01 X-1.1886 Y0.7549 
G01 X-1.1598 Y0.7836 
G01 X-1.1565 Y0.7850 
G01 X-1.0170 Y0.7850 
G01 X-1.0023 Y0.7911 
G01 X-0.9886 Y0.8049 
G01 X-0.9598 Y0.8336 
G01 X-0.9565 Y0.8350 
G01 X-0.8618 Y0.8350 
G01 X-0.8585 Y0.8336 
G01 X-0.8560 Y0.8311 
G01 X-0.8490 Y0.8241 
G01 X-0.8486 Y0.8240 
G01 X-0.8470 Y0.8233 
G01 X-0.8458 Y0.8221 
G01 X-0.8445 Y0.8208 
G01 X-0.8439 Y0.8195 
G01 X-0.8431 Y0.8175 
G01 X-0.8431 Y0.8157 
G01 X-0.8431 Y0.8139 
G01 X-0.8437 Y0.8124 
G01 X-0.8445 Y0.8106 
G01 X-0.8457 Y0.8093 
G01 X-0.8470 Y0.8081 
G01 X-0.8501 Y0.8050 
G01 X-0.8543 Y0.7991 
G01 X-0.8576 Y0.7927 
G01 X-0.8588 Y0.7890 
G01 X-0.8567 Y0.7890 
G01 X-0.8558 Y0.7919 
G01 X-0.8526 Y0.7981 
G01 X-0.8486 Y0.8037 
G01 X-0.8437 Y0.8086 
G01 X-0.8381 Y0.8126 
G01 X-0.8319 Y0.8158 
G01 X-0.8253 Y0.8179 
G01 X-0.8185 Y0.8190 
G01 X-0.7315 Y0.8190 
G01 X-0.7247 Y0.8179 
G01 X-0.7181 Y0.8158 
G01 X-0.7119 Y0.8126 
G01 X-0.7063 Y0.8086 
G01 X-0.7014 Y0.8037 
G01 X-0.6974 Y0.7981 
G01 X-0.6942 Y0.7919 
G01 X-0.6933 Y0.7890 
G01 X-0.6912 Y0.7890 
G01 X-0.6924 Y0.7927 
G01 X-0.6957 Y0.7991 
G01 X-0.6999 Y0.8050 
G01 X-0.7030 Y0.8081 
G01 X-0.7042 Y0.8093 
G01 X-0.7055 Y0.8106 
G01 X-0.7063 Y0.8123 
G01 X-0.7069 Y0.8139 
G01 X-0.7069 Y0.8157 
G01 X-0.7069 Y0.8175 
G01 X-0.7061 Y0.8193 
G01 X-0.7055 Y0.8208 
G01 X-0.7043 Y0.8220 
G01 X-0.7030 Y0.8233 
G01 X-0.7014 Y0.8240 
G01 X-0.7010 Y0.8241 
G01 X-0.6915 Y0.8336 
G01 X-0.6882 Y0.8350 
G01 X-0.5670 Y0.8350 
G01 X-0.5523 Y0.8411 
G01 X-0.5386 Y0.8549 
G01 X-0.3911 Y1.0023 
G01 X-0.3850 Y1.0170 
G01 X-0.3850 Y1.2565 
G01 X-0.3836 Y1.2598 
G01 X-0.3811 Y1.2623 
G01 X-0.3598 Y1.2836 
G01 X-0.3565 Y1.2850 
G01 X-0.2718 Y1.2850 
G01 X-0.2685 Y1.2836 
G01 X-0.2660 Y1.2811 
G01 X-0.2590 Y1.2741 
G01 X-0.2586 Y1.2740 
G01 X-0.2570 Y1.2733 
G01 X-0.2558 Y1.2721 
G01 X-0.2545 Y1.2708 
G01 X-0.2539 Y1.2695 
G01 X-0.2531 Y1.2675 
G01 X-0.2531 Y1.2657 
G01 X-0.2531 Y1.2639 
G01 X-0.2537 Y1.2624 
G01 X-0.2545 Y1.2606 
G01 X-0.2557 Y1.2593 
G01 X-0.2570 Y1.2581 
G01 X-0.2601 Y1.2550 
G01 X-0.2643 Y1.2491 
G01 X-0.2676 Y1.2427 
G01 X-0.2688 Y1.2390 
G01 X-0.2667 Y1.2390 
G01 X-0.2658 Y1.2419 
G01 X-0.2626 Y1.2481 
G01 X-0.2586 Y1.2537 
G01 X-0.2537 Y1.2586 
G01 X-0.2481 Y1.2626 
G01 X-0.2419 Y1.2658 
G01 X-0.2353 Y1.2679 
G01 X-0.2285 Y1.2690 
G01 X-0.2215 Y1.2690 
G01 X-0.2147 Y1.2679 
G01 X-0.2081 Y1.2658 
G01 X-0.2019 Y1.2626 
G01 X-0.1963 Y1.2586 
G01 X-0.1914 Y1.2537 
G01 X-0.1874 Y1.2481 
G01 X-0.1842 Y1.2419 
G01 X-0.1833 Y1.2390 
G01 X-0.1812 Y1.2390 
G01 X-0.1824 Y1.2427 
G01 X-0.1857 Y1.2491 
G01 X-0.1899 Y1.2550 
G01 X-0.1930 Y1.2581 
G01 X-0.1942 Y1.2593 
G01 X-0.1955 Y1.2606 
G01 X-0.1963 Y1.2623 
G01 X-0.1969 Y1.2639 
G01 X-0.1969 Y1.2657 
G01 X-0.1969 Y1.2675 
G01 X-0.1961 Y1.2693 
G01 X-0.1955 Y1.2708 
G01 X-0.1943 Y1.2720 
G01 X-0.1930 Y1.2733 
G01 X-0.1914 Y1.2740 
G01 X-0.1910 Y1.2741 
G01 X-0.1741 Y1.2910 
G01 X-0.1650 Y1.3131 
G01 X-0.1650 Y1.3369 
G01 X-0.1741 Y1.3590 
G01 X-0.1850 Y1.3699 
G01 X-0.1858 Y1.3718 
G01 X-0.1864 Y1.3732 
G01 X-0.1864 Y1.3768 
G01 X-0.1850 Y1.3801 
G01 X-0.1825 Y1.3826 
G01 X-0.1741 Y1.3910 
G01 X-0.1650 Y1.4131 
G01 X-0.1650 Y1.4369 
G01 X-0.1741 Y1.4590 
G01 X-0.1850 Y1.4699 
G01 X-0.1858 Y1.4718 
G01 X-0.1864 Y1.4732 
G01 X-0.1864 Y1.4768 
G01 X-0.1850 Y1.4801 
G01 X-0.1825 Y1.4826 
G01 X-0.1741 Y1.4910 
G01 X-0.1650 Y1.5131 
G01 X-0.1650 Y1.5369 
G01 X-0.1741 Y1.5590 
G01 X-0.1910 Y1.5759 
G01 X-0.2131 Y1.5850 
G01 X-0.2369 Y1.5850 
G01 X-0.2590 Y1.5759 
G01 X-0.2759 Y1.5590 
G01 X-0.2850 Y1.5369 
G01 X-0.2850 Y1.5131 
G01 X-0.2759 Y1.4910 
G01 X-0.2675 Y1.4826 
G01 X-0.2652 Y1.4803 
G01 X-0.2650 Y1.4801 
G01 X-0.2636 Y1.4768 
G01 X-0.2636 Y1.4732 
G01 X-0.2641 Y1.4719 
G01 X-0.2650 Y1.4699 
G01 X-0.2675 Y1.4674 
G01 X-0.2759 Y1.4590 
G01 X-0.2850 Y1.4369 
G01 X-0.2850 Y1.4131 
G01 X-0.2759 Y1.3910 
G01 X-0.2675 Y1.3826 
G01 X-0.2652 Y1.3803 
G01 X-0.2650 Y1.3801 
G01 X-0.2636 Y1.3768 
G01 X-0.2636 Y1.3732 
G01 X-0.2641 Y1.3719 
G01 X-0.2650 Y1.3699 
G01 X-0.2675 Y1.3674 
G01 X-0.2685 Y1.3664 
G01 X-0.2718 Y1.3650 
G01 X-0.3830 Y1.3650 
G01 X-0.3977 Y1.3589 
G01 X-0.4477 Y1.3089 
G01 X-0.4589 Y1.2977 
G01 X-0.4650 Y1.2830 
G01 X-0.4650 Y1.0435 
G01 X-0.4664 Y1.0402 
G01 X-0.4689 Y1.0377 
G01 X-0.5902 Y0.9164 
G01 X-0.5935 Y0.9150 
G01 X-0.6882 Y0.9150 
G01 X-0.6915 Y0.9164 
G01 X-0.6940 Y0.9189 
G01 X-0.6950 Y0.9199 
G01 X-0.6958 Y0.9218 
G01 X-0.6964 Y0.9232 
G01 X-0.6964 Y0.9268 
G01 X-0.6950 Y0.9301 
G01 X-0.6925 Y0.9326 
G01 X-0.6841 Y0.9410 
G01 X-0.6750 Y0.9631 
G01 X-0.6750 Y0.9869 
G01 X-0.6841 Y1.0090 
G01 X-0.7010 Y1.0259 
G01 X-0.7014 Y1.0260 
G01 X-0.7030 Y1.0267 
G01 X-0.7042 Y1.0279 
G01 X-0.7055 Y1.0292 
G01 X-0.7061 Y1.0305 
G01 X-0.7069 Y1.0325 
G01 X-0.7069 Y1.0343 
G01 X-0.7069 Y1.0361 
G01 X-0.7063 Y1.0376 
G01 X-0.7055 Y1.0394 
G01 X-0.7043 Y1.0407 
G01 X-0.7030 Y1.0419 
G01 X-0.6999 Y1.0450 
G01 X-0.6957 Y1.0509 
G01 X-0.6956 Y1.0510 
G01 X-0.6981 Y1.0510 
G01 X-0.7014 Y1.0463 
G01 X-0.7063 Y1.0414 
G01 X-0.7119 Y1.0374 
G01 X-0.7181 Y1.0342 
G01 X-0.7247 Y1.0321 
G01 X-0.7315 Y1.0310 
G01 X-0.8185 Y1.0310 
G01 X-0.8253 Y1.0321 
G01 X-0.8319 Y1.0342 
G01 X-0.8381 Y1.0374 
G01 X-0.8437 Y1.0414 
G01 X-0.8486 Y1.0463 
G01 X-0.8526 Y1.0519 
G01 X-0.8558 Y1.0581 
G01 X-0.8567 Y1.0610 
G01 X-0.8588 Y1.0610 
G01 X-0.8576 Y1.0573 
G01 X-0.8543 Y1.0509 
G01 X-0.8501 Y1.0450 
G01 X-0.8470 Y1.0419 
G01 X-0.8458 Y1.0407 
G01 X-0.8445 Y1.0394 
G01 X-0.8437 Y1.0377 
G01 X-0.8431 Y1.0361 
G01 X-0.8431 Y1.0343 
G01 X-0.8431 Y1.0325 
G01 X-0.8439 Y1.0307 
G01 X-0.8445 Y1.0292 
G01 X-0.8457 Y1.0280 
G01 X-0.8470 Y1.0267 
G01 X-0.8486 Y1.0260 
G01 X-0.8490 Y1.0259 
G01 X-0.8560 Y1.0189 
G01 X-0.8583 Y1.0166 
G01 X-0.8585 Y1.0164 
G01 X-0.8618 Y1.0150 
G01 X-1.0656 Y1.0150 
G01 X-1.0674 Y1.0150 
G01 X-1.0692 Y1.0150 
G01 X-1.0710 Y1.0157 
G01 X-1.0725 Y1.0164 
G01 X-1.0742 Y1.0180 
G01 X-1.0751 Y1.0189 
G01 X-1.0758 Y1.0208 
G01 X-1.0764 Y1.0222 
G01 X-1.0764 Y1.0240 
G01 X-1.0764 Y1.0258 
G01 X-1.0757 Y1.0275 
G01 X-1.0751 Y1.0291 
G01 X-1.0743 Y1.0299 
G01 X-1.0712 Y1.0372 
G01 X-1.0712 Y1.0422 
G01 X-1.0714 Y1.0429 
G01 X-1.0712 Y1.0440 
G01 X-1.0712 Y1.0450 
G01 X-1.0709 Y1.0457 
G01 X-1.0708 Y1.0464 
G01 X-1.0703 Y1.0474 
G01 X-1.0699 Y1.0483 
G01 X-1.0693 Y1.0489 
G01 X-1.0689 Y1.0495 
G01 X-1.0681 Y1.0501 
G01 X-1.0673 Y1.0509 
G01 X-1.0666 Y1.0512 
G01 X-1.0660 Y1.0516 
G01 X-1.0650 Y1.0518 
G01 X-1.0640 Y1.0522 
G01 X-1.0633 Y1.0522 
G01 X-1.0625 Y1.0524 
G01 X-1.0615 Y1.0522 
G01 X-1.0604 Y1.0522 
G01 X-1.0597 Y1.0520 
G01 X-1.0590 Y1.0518 
G01 X-1.0581 Y1.0513 
G01 X-1.0571 Y1.0509 
G01 X-1.0566 Y1.0503 
G01 X-1.0560 Y1.0500 
G01 X-1.0553 Y1.0491 
G01 X-1.0546 Y1.0483 
G01 X-1.0509 Y1.0447 
G01 X-1.0458 Y1.0410 
G01 X-1.0403 Y1.0381 
G01 X-1.0359 Y1.0367 
G01 X-1.0359 Y1.0386 
G01 X-1.0360 Y1.0387 
G01 X-1.0429 Y1.0415 
G01 X-1.0491 Y1.0457 
G01 X-1.0543 Y1.0509 
G01 X-1.0585 Y1.0571 
G01 X-1.0613 Y1.0640 
G01 X-1.0628 Y1.0713 
G01 X-1.0628 Y1.0787 
G01 X-1.0613 Y1.0860 
G01 X-1.0585 Y1.0929 
G01 X-1.0543 Y1.0991 
G01 X-1.0491 Y1.1043 
G01 X-1.0429 Y1.1085 
G01 X-1.0360 Y1.1113 
G01 X-1.0359 Y1.1114 
G01 X-1.0359 Y1.1133 
G01 X-1.0403 Y1.1119 
G01 X-1.0458 Y1.1090 
G01 X-1.0509 Y1.1053 
G01 X-1.0546 Y1.1017 
G01 X-1.0553 Y1.1009 
G01 X-1.0560 Y1.1000 
G01 X-1.0566 Y1.0997 
G01 X-1.0571 Y1.0991 
G01 X-1.0581 Y1.0987 
G01 X-1.0590 Y1.0982 
G01 X-1.0597 Y1.0980 
G01 X-1.0604 Y1.0978 
G01 X-1.0615 Y1.0978 
G01 X-1.0625 Y1.0976 
G01 X-1.0633 Y1.0978 
G01 X-1.0640 Y1.0978 
G01 X-1.0650 Y1.0982 
G01 X-1.0660 Y1.0984 
G01 X-1.0666 Y1.0988 
G01 X-1.0673 Y1.0991 
G01 X-1.0681 Y1.0999 
G01 X-1.0689 Y1.1005 
G01 X-1.0693 Y1.1011 
G01 X-1.0699 Y1.1017 
G01 X-1.0703 Y1.1026 
G01 X-1.0708 Y1.1036 
G01 X-1.0709 Y1.1043 
G01 X-1.0712 Y1.1050 
G01 X-1.0712 Y1.1060 
G01 X-1.0714 Y1.1071 
G01 X-1.0712 Y1.1078 
G01 X-1.0712 Y1.1128 
G01 X-1.0743 Y1.1201 
G01 X-1.0799 Y1.1257 
G01 X-1.0872 Y1.1288 
G01 X-1.1628 Y1.1288 
G01 X-1.1701 Y1.1257 
G01 X-1.1757 Y1.1201 
G01 X-1.1761 Y1.1192 
G01 X-1.1774 Y1.1179 
G01 X-1.1787 Y1.1166 
G01 X-1.1802 Y1.1160 
G01 X-1.1820 Y1.1153 
G01 X-1.1837 Y1.1153 
G01 X-1.1855 Y1.1153 
G01 X-1.1877 Y1.1161 
G01 X-1.1889 Y1.1166 
G01 X-1.1900 Y1.1178 
G01 X-1.1914 Y1.1192 
G01 X-1.1938 Y1.1216 
G01 X-1.2141 Y1.1300 
G01 X-1.2359 Y1.1300 
G01 X-1.2458 Y1.1259 
G01 X-1.2469 Y1.1253 
G01 X-1.2475 Y1.1252 
G01 X-1.2480 Y1.1250 
G01 X-1.2492 Y1.1250 
G01 X-1.2504 Y1.1248 
G01 X-1.2510 Y1.1250 
G01 X-1.2516 Y1.1250 
G01 X-1.2527 Y1.1255 
G01 X-1.2539 Y1.1258 
G01 X-1.2544 Y1.1261 
G01 X-1.2549 Y1.1264 
G01 X-1.2558 Y1.1272 
G01 X-1.2567 Y1.1279 
G01 X-1.2570 Y1.1285 
G01 X-1.2574 Y1.1289 
G01 X-1.2579 Y1.1300 
G01 X-1.2585 Y1.1310 
G01 X-1.2586 Y1.1316 
G01 X-1.2588 Y1.1322 
G01 X-1.2588 Y1.1334 
G01 X-1.2590 Y1.1346 
G01 X-1.2588 Y1.1352 
G01 X-1.2588 Y1.1358 
G01 X-1.2584 Y1.1369 
G01 X-1.2580 Y1.1382 
G01 X-1.2580 Y1.1630 
G01 X-1.2600 Y1.1630 
G01 X-1.2600 Y1.1382 
G01 X-1.2606 Y1.1367 
G01 X-1.2617 Y1.1356 
G01 X-1.2632 Y1.1350 
G01 X-1.3368 Y1.1350 
G01 X-1.3383 Y1.1356 
G01 X-1.3394 Y1.1367 
G01 X-1.3400 Y1.1382 
G01 X-1.3400 Y1.1460 
G01 X-1.3420 Y1.1460 
G01 X-1.3420 Y1.1382 
G01 X-1.3416 Y1.1367 
G01 X-1.3408 Y1.1353 
G01 X-1.3397 Y1.1342 
G01 X-1.3379 Y1.1332 
G01 X-1.3368 Y1.1327 
G01 X-1.3363 Y1.1323 
G01 X-1.3358 Y1.1320 
G01 X-1.3351 Y1.1310 
G01 X-1.3342 Y1.1302 
G01 X-1.3340 Y1.1296 
G01 X-1.3336 Y1.1291 
G01 X-1.3333 Y1.1280 
G01 X-1.3329 Y1.1269 
G01 X-1.3329 Y1.1262 
G01 X-1.3327 Y1.1257 
G01 X-1.3329 Y1.1245 
G01 X-1.3329 Y1.1233 
G01 X-1.3331 Y1.1227 
G01 X-1.3332 Y1.1221 
G01 X-1.3338 Y1.1211 
G01 X-1.3342 Y1.1200 
G01 X-1.3347 Y1.1195 
G01 X-1.3350 Y1.1190 
G01 X-1.3359 Y1.1183 
G01 X-1.3475 Y1.1067 
G01 X-1.3489 Y1.1032 
G01 X-1.3494 Y1.1021 
G01 X-1.3503 Y1.0999 
G01 X-1.3528 Y1.0974 
G01 X-1.3561 Y1.0960 
G01 X-1.3597 Y1.0960 
G01 X-1.3610 Y1.0966 
G01 X-1.3630 Y1.0974 
G01 X-1.3655 Y1.0999 
G01 X-1.3826 Y1.1170 
G01 X-1.3880 Y1.1170 
G01 X-1.3880 Y1.1158 
G01 X-1.3876 Y1.1150 
G01 X-1.3834 Y1.1150 
G01 X-1.3600 Y1.0916 
G01 X-1.3600 Y1.0584 
G01 X-1.3790 Y1.0394 
G01 X-1.3799 Y1.0357 
G01 X-1.3655 Y1.0501 
G01 X-1.3631 Y1.0526 
G01 X-1.3611 Y1.0534 
G01 X-1.3597 Y1.0540 
G01 X-1.3561 Y1.0540 
G01 X-1.3528 Y1.0526 
G01 X-1.3503 Y1.0501 
G01 X-1.3494 Y1.0480 
G01 X-1.3489 Y1.0468 
G01 X-1.3475 Y1.0433 
G01 X-1.3317 Y1.0275 
G01 X-1.3111 Y1.0190 
G01 X-1.2889 Y1.0190 
G01 X-1.2683 Y1.0275 
G01 X-1.2672 Y1.0286 
G01 X-1.2639 Y1.0300 
G01 X-1.2597 Y1.0300 
G01 X-1.2564 Y1.0286 
G01 X-1.2562 Y1.0284 
G01 X-1.2359 Y1.0200 
G01 X-1.2141 Y1.0200 
G01 X-1.1938 Y1.0284 
G01 X-1.1914 Y1.0308 
G01 X-1.1900 Y1.0322 
G01 X-1.1889 Y1.0334 
G01 X-1.1877 Y1.0339 
G01 X-1.1855 Y1.0347 
G01 X-1.1838 Y1.0347 
G01 X-1.1820 Y1.0347 
G01 X-1.1802 Y1.0340 
G01 X-1.1787 Y1.0334 
G01 X-1.1774 Y1.0321 
G01 X-1.1761 Y1.0308 
G01 X-1.1757 Y1.0299 
G01 X-1.1701 Y1.0243 
G01 X-1.1692 Y1.0239 
G01 X-1.1666 Y1.0213 
G01 X-1.1656 Y1.0189 
G01 X-1.1653 Y1.0180 
G01 X-1.1653 Y1.0163 
G01 X-1.1653 Y1.0145 
G01 X-1.1656 Y1.0136 
G01 X-1.1666 Y1.0111 
G01 X-1.1692 Y1.0086 
G01 X-1.1716 Y1.0062 
G01 X-1.1800 Y0.9859 
G01 X-1.1800 Y0.9641 
G01 X-1.1716 Y0.9438 
G01 X-1.1562 Y0.9284 
G01 X-1.1359 Y0.9200 
G01 X-1.1141 Y0.9200 
G01 X-1.0938 Y0.9284 
G01 X-1.0886 Y0.9336 
G01 X-1.0853 Y0.9350 
G01 X-0.8618 Y0.9350 
G01 X-0.8585 Y0.9336 
G01 X-0.8560 Y0.9311 
G01 X-0.8550 Y0.9301 
G01 X-0.8536 Y0.9268 
G01 X-0.8536 Y0.9232 
G01 X-0.8550 Y0.9199 
G01 X-0.8575 Y0.9174 
G01 X-0.8585 Y0.9164 
G01 X-0.8618 Y0.9150 
G01 X-0.9830 Y0.9150 
G01 X-0.9977 Y0.9089 
G01 X-1.0402 Y0.8664 
G01 X-1.0435 Y0.8650 
G01 X-1.1830 Y0.8650 
G01 X-1.1977 Y0.8589 
G01 X-1.2402 Y0.8164 
G01 X-1.2435 Y0.8150 
G01 X-1.2571 Y0.8150 
G01 X-1.2589 Y0.8150 
G01 X-1.2603 Y0.8156 
G01 X-1.2622 Y0.8164 
G01 X-1.2634 Y0.8176 
G01 X-1.2641 Y0.8183 
G01 X-1.2650 Y0.8190 
G01 X-1.2653 Y0.8195 
G01 X-1.2658 Y0.8200 
G01 X-1.2662 Y0.8211 
G01 X-1.2668 Y0.8221 
G01 X-1.2669 Y0.8227 
G01 X-1.2671 Y0.8233 
G01 X-1.2671 Y0.8245 
G01 X-1.2673 Y0.8257 
G01 X-1.2671 Y0.8262 
G01 X-1.2671 Y0.8269 
G01 X-1.2667 Y0.8280 
G01 X-1.2664 Y0.8291 
G01 X-1.2660 Y0.8296 
G01 X-1.2658 Y0.8302 
G01 X-1.2649 Y0.8310 
G01 X-1.2642 Y0.8320 
G01 X-1.2637 Y0.8323 
G01 X-1.2632 Y0.8327 
G01 X-1.2621 Y0.8332 
G01 X-1.2603 Y0.8342 
G01 X-1.2592 Y0.8353 
G01 X-1.2584 Y0.8367 
G01 X-1.2580 Y0.8382 
G01 X-1.2580 Y0.8630 
G01 X-1.2600 Y0.8630 
G01 X-1.2600 Y0.8382 
G01 X-1.2606 Y0.8367 
G01 X-1.2617 Y0.8356 
G01 X-1.2632 Y0.8350 
G01 X-1.3368 Y0.8350 
G01 X-1.3383 Y0.8356 
G01 X-1.3394 Y0.8367 
G01 X-1.3400 Y0.8382 
G01 X-1.3400 Y0.8460 
G01 X-1.3420 Y0.8460 
G01 X-1.3420 Y0.8382 
G01 X-1.3416 Y0.8367 
G01 X-1.3408 Y0.8353 
G01 X-1.3397 Y0.8342 
G01 X-1.3379 Y0.8332 
G01 X-1.3368 Y0.8327 
G01 X-1.3363 Y0.8323 
G01 X-1.3358 Y0.8320 
G01 X-1.3351 Y0.8310 
G01 X-1.3342 Y0.8302 
G01 X-1.3340 Y0.8296 
G01 X-1.3336 Y0.8291 
G01 X-1.3333 Y0.8280 
G01 X-1.3329 Y0.8269 
G01 X-1.3329 Y0.8262 
G01 X-1.3327 Y0.8257 
G01 X-1.3329 Y0.8245 
G01 X-1.3329 Y0.8233 
G01 X-1.3331 Y0.8227 
G01 X-1.3332 Y0.8221 
G01 X-1.3338 Y0.8211 
G01 X-1.3342 Y0.8200 
G01 X-1.3347 Y0.8195 
G01 X-1.3350 Y0.8190 
G01 X-1.3359 Y0.8183 
G01 X-1.3366 Y0.8175 
G01 X-1.3378 Y0.8164 
G01 X-1.3397 Y0.8156 
G01 X-1.3411 Y0.8150 
G01 X-1.3429 Y0.8150 
G01 X-1.3603 Y0.8150 
G01 X-1.3636 Y0.8164 
G01 X-1.3661 Y0.8189 
G01 X-1.3772 Y0.8300 
G01 X-1.4210 Y0.8300 
G01 X-1.4210 Y0.8092 
G01 X-1.4162 Y0.8140 
G01 X-1.3838 Y0.8140 
G01 X-1.3688 Y0.7990 
G01 X-1.3321 Y0.7990 
G01 X-1.3311 Y0.8005 
G00 Z0.1000 
G00 X-1.1640 Y0.9712 
G01 Z-0.0040 F10.00 
G01 X-1.1640 Y0.9788 F10.00 
G01 X-1.1625 Y0.9864 
G01 X-1.1596 Y0.9935 
G01 X-1.1553 Y0.9999 
G01 X-1.1499 Y1.0053 
G01 X-1.1435 Y1.0096 
G01 X-1.1364 Y1.0125 
G01 X-1.1288 Y1.0140 
G01 X-1.1212 Y1.0140 
G01 X-1.1136 Y1.0125 
G01 X-1.1065 Y1.0096 
G01 X-1.1001 Y1.0053 
G01 X-1.0947 Y0.9999 
G01 X-1.0941 Y0.9990 
G01 X-0.8519 Y0.9990 
G01 X-0.8486 Y1.0037 
G01 X-0.8437 Y1.0086 
G01 X-0.8381 Y1.0126 
G01 X-0.8319 Y1.0158 
G01 X-0.8253 Y1.0179 
G01 X-0.8185 Y1.0190 
G01 X-0.7315 Y1.0190 
G01 X-0.7247 Y1.0179 
G01 X-0.7181 Y1.0158 
G01 X-0.7119 Y1.0126 
G01 X-0.7063 Y1.0086 
G01 X-0.7014 Y1.0037 
G01 X-0.6974 Y0.9981 
G01 X-0.6942 Y0.9919 
G01 X-0.6921 Y0.9853 
G01 X-0.6910 Y0.9785 
G01 X-0.6910 Y0.9715 
G01 X-0.6921 Y0.9647 
G01 X-0.6942 Y0.9581 
G01 X-0.6974 Y0.9519 
G01 X-0.7014 Y0.9463 
G01 X-0.7063 Y0.9414 
G01 X-0.7119 Y0.9374 
G01 X-0.7181 Y0.9342 
G01 X-0.7247 Y0.9321 
G01 X-0.7315 Y0.9310 
G01 X-0.8185 Y0.9310 
G01 X-0.8253 Y0.9321 
G01 X-0.8319 Y0.9342 
G01 X-0.8381 Y0.9374 
G01 X-0.8437 Y0.9414 
G01 X-0.8486 Y0.9463 
G01 X-0.8519 Y0.9510 
G01 X-1.0941 Y0.9510 
G01 X-1.0947 Y0.9501 
G01 X-1.1001 Y0.9447 
G01 X-1.1065 Y0.9404 
G01 X-1.1136 Y0.9375 
G01 X-1.1212 Y0.9360 
G01 X-1.1288 Y0.9360 
G01 X-1.1364 Y0.9375 
G01 X-1.1435 Y0.9404 
G01 X-1.1499 Y0.9447 
G01 X-1.1553 Y0.9501 
G01 X-1.1596 Y0.9565 
G01 X-1.1625 Y0.9636 
G01 X-1.1640 Y0.9712 
G00 Z0.1000 
G00 X-1.0815 Y0.5310 
G01 Z-0.0040 F10.00 
G01 X-1.1685 Y0.5310 F10.00 
G01 X-1.1753 Y0.5321 
G01 X-1.1819 Y0.5342 
G01 X-1.1881 Y0.5374 
G01 X-1.1937 Y0.5414 
G01 X-1.1986 Y0.5463 
G01 X-1.2019 Y0.5510 
G01 X-1.2679 Y0.5510 
G01 X-1.2689 Y0.5495 
G01 X-1.2745 Y0.5439 
G01 X-1.2811 Y0.5396 
G01 X-1.2883 Y0.5365 
G01 X-1.2961 Y0.5350 
G01 X-1.3039 Y0.5350 
G01 X-1.3117 Y0.5365 
G01 X-1.3189 Y0.5396 
G01 X-1.3255 Y0.5439 
G01 X-1.3311 Y0.5495 
G01 X-1.3354 Y0.5561 
G01 X-1.3385 Y0.5633 
G01 X-1.3400 Y0.5711 
G01 X-1.3400 Y0.5789 
G01 X-1.3385 Y0.5867 
G01 X-1.3354 Y0.5939 
G01 X-1.3311 Y0.6005 
G01 X-1.3255 Y0.6061 
G01 X-1.3189 Y0.6104 
G01 X-1.3117 Y0.6135 
G01 X-1.3039 Y0.6150 
G01 X-1.2961 Y0.6150 
G01 X-1.2883 Y0.6135 
G01 X-1.2811 Y0.6104 
G01 X-1.2745 Y0.6061 
G01 X-1.2689 Y0.6005 
G01 X-1.2679 Y0.5990 
G01 X-1.2019 Y0.5990 
G01 X-1.1986 Y0.6037 
G01 X-1.1937 Y0.6086 
G01 X-1.1881 Y0.6126 
G01 X-1.1819 Y0.6158 
G01 X-1.1753 Y0.6179 
G01 X-1.1685 Y0.6190 
G01 X-1.0815 Y0.6190 
G01 X-1.0747 Y0.6179 
G01 X-1.0681 Y0.6158 
G01 X-1.0619 Y0.6126 
G01 X-1.0563 Y0.6086 
G01 X-1.0514 Y0.6037 
G01 X-1.0474 Y0.5981 
G01 X-1.0442 Y0.5919 
G01 X-1.0421 Y0.5853 
G01 X-1.0410 Y0.5785 
G01 X-1.0410 Y0.5715 
G01 X-1.0421 Y0.5647 
G01 X-1.0442 Y0.5581 
G01 X-1.0474 Y0.5519 
G01 X-1.0514 Y0.5463 
G01 X-1.0563 Y0.5414 
G01 X-1.0619 Y0.5374 
G01 X-1.0681 Y0.5342 
G01 X-1.0747 Y0.5321 
G01 X-1.0815 Y0.5310 
G00 Z0.1000 
G00 X-1.0815 Y0.3310 
G01 Z-0.0040 F10.00 
G01 X-1.1685 Y0.3310 F10.00 
G01 X-1.1753 Y0.3321 
G01 X-1.1819 Y0.3342 
G01 X-1.1881 Y0.3374 
G01 X-1.1937 Y0.3414 
G01 X-1.1986 Y0.3463 
G01 X-1.2019 Y0.3510 
G01 X-1.2679 Y0.3510 
G01 X-1.2689 Y0.3495 
G01 X-1.2745 Y0.3439 
G01 X-1.2811 Y0.3396 
G01 X-1.2883 Y0.3365 
G01 X-1.2961 Y0.3350 
G01 X-1.3039 Y0.3350 
G01 X-1.3117 Y0.3365 
G01 X-1.3189 Y0.3396 
G01 X-1.3255 Y0.3439 
G01 X-1.3311 Y0.3495 
G01 X-1.3354 Y0.3561 
G01 X-1.3385 Y0.3633 
G01 X-1.3400 Y0.3711 
G01 X-1.3400 Y0.3789 
G01 X-1.3385 Y0.3867 
G01 X-1.3354 Y0.3939 
G01 X-1.3311 Y0.4005 
G01 X-1.3255 Y0.4061 
G01 X-1.3189 Y0.4104 
G01 X-1.3117 Y0.4135 
G01 X-1.3039 Y0.4150 
G01 X-1.2961 Y0.4150 
G01 X-1.2883 Y0.4135 
G01 X-1.2811 Y0.4104 
G01 X-1.2745 Y0.4061 
G01 X-1.2689 Y0.4005 
G01 X-1.2679 Y0.3990 
G01 X-1.2019 Y0.3990 
G01 X-1.1986 Y0.4037 
G01 X-1.1937 Y0.4086 
G01 X-1.1881 Y0.4126 
G01 X-1.1819 Y0.4158 
G01 X-1.1753 Y0.4179 
G01 X-1.1685 Y0.4190 
G01 X-1.0815 Y0.4190 
G01 X-1.0747 Y0.4179 
G01 X-1.0681 Y0.4158 
G01 X-1.0619 Y0.4126 
G01 X-1.0563 Y0.4086 
G01 X-1.0514 Y0.4037 
G01 X-1.0474 Y0.3981 
G01 X-1.0442 Y0.3919 
G01 X-1.0421 Y0.3853 
G01 X-1.0410 Y0.3785 
G01 X-1.0410 Y0.3715 
G01 X-1.0421 Y0.3647 
G01 X-1.0442 Y0.3581 
G01 X-1.0474 Y0.3519 
G01 X-1.0514 Y0.3463 
G01 X-1.0563 Y0.3414 
G01 X-1.0619 Y0.3374 
G01 X-1.0681 Y0.3342 
G01 X-1.0747 Y0.3321 
G01 X-1.0815 Y0.3310 
G00 Z0.1000 
G00 X-0.2690 Y1.4215 
G01 Z-0.0040 F10.00 
G01 X-0.2690 Y1.4285 F10.00 
G01 X-0.2679 Y1.4353 
G01 X-0.2658 Y1.4419 
G01 X-0.2626 Y1.4481 
G01 X-0.2586 Y1.4537 
G01 X-0.2537 Y1.4586 
G01 X-0.2481 Y1.4626 
G01 X-0.2419 Y1.4658 
G01 X-0.2353 Y1.4679 
G01 X-0.2285 Y1.4690 
G01 X-0.2215 Y1.4690 
G01 X-0.2147 Y1.4679 
G01 X-0.2081 Y1.4658 
G01 X-0.2019 Y1.4626 
G01 X-0.1963 Y1.4586 
G01 X-0.1914 Y1.4537 
G01 X-0.1874 Y1.4481 
G01 X-0.1842 Y1.4419 
G01 X-0.1821 Y1.4353 
G01 X-0.1810 Y1.4285 
G01 X-0.1810 Y1.4215 
G01 X-0.1821 Y1.4147 
G01 X-0.1842 Y1.4081 
G01 X-0.1874 Y1.4019 
G01 X-0.1914 Y1.3963 
G01 X-0.1963 Y1.3914 
G01 X-0.2019 Y1.3874 
G01 X-0.2081 Y1.3842 
G01 X-0.2147 Y1.3821 
G01 X-0.2215 Y1.3810 
G01 X-0.2285 Y1.3810 
G01 X-0.2353 Y1.3821 
G01 X-0.2419 Y1.3842 
G01 X-0.2481 Y1.3874 
G01 X-0.2537 Y1.3914 
G01 X-0.2586 Y1.3963 
G01 X-0.2626 Y1.4019 
G01 X-0.2658 Y1.4081 
G01 X-0.2679 Y1.4147 
G01 X-0.2690 Y1.4215 
G00 Z0.1000 
G00 X-0.2690 Y1.5215 
G01 Z-0.0040 F10.00 
G01 X-0.2690 Y1.5285 F10.00 
G01 X-0.2679 Y1.5353 
G01 X-0.2658 Y1.5419 
G01 X-0.2626 Y1.5481 
G01 X-0.2586 Y1.5537 
G01 X-0.2537 Y1.5586 
G01 X-0.2481 Y1.5626 
G01 X-0.2419 Y1.5658 
G01 X-0.2353 Y1.5679 
G01 X-0.2285 Y1.5690 
G01 X-0.2215 Y1.5690 
G01 X-0.2147 Y1.5679 
G01 X-0.2081 Y1.5658 
G01 X-0.2019 Y1.5626 
G01 X-0.1963 Y1.5586 
G01 X-0.1914 Y1.5537 
G01 X-0.1874 Y1.5481 
G01 X-0.1842 Y1.5419 
G01 X-0.1821 Y1.5353 
G01 X-0.1810 Y1.5285 
G01 X-0.1810 Y1.5215 
G01 X-0.1821 Y1.5147 
G01 X-0.1842 Y1.5081 
G01 X-0.1874 Y1.5019 
G01 X-0.1914 Y1.4963 
G01 X-0.1963 Y1.4914 
G01 X-0.2019 Y1.4874 
G01 X-0.2081 Y1.4842 
G01 X-0.2147 Y1.4821 
G01 X-0.2215 Y1.4810 
G01 X-0.2285 Y1.4810 
G01 X-0.2353 Y1.4821 
G01 X-0.2419 Y1.4842 
G01 X-0.2481 Y1.4874 
G01 X-0.2537 Y1.4914 
G01 X-0.2586 Y1.4963 
G01 X-0.2626 Y1.5019 
G01 X-0.2658 Y1.5081 
G01 X-0.2679 Y1.5147 
G01 X-0.2690 Y1.5215 
G00 Z0.1000 
G00 X-1.3400 Y1.0711 
G01 Z-0.0040 F10.00 
G01 X-1.3400 Y1.0789 F10.00 
G01 X-1.3385 Y1.0867 
G01 X-1.3354 Y1.0939 
G01 X-1.3311 Y1.1005 
G01 X-1.3255 Y1.1061 
G01 X-1.3189 Y1.1104 
G01 X-1.3117 Y1.1135 
G01 X-1.3039 Y1.1150 
G01 X-1.2961 Y1.1150 
G01 X-1.2883 Y1.1135 
G01 X-1.2811 Y1.1104 
G01 X-1.2745 Y1.1061 
G01 X-1.2724 Y1.1040 
G01 X-1.2512 Y1.1040 
G01 X-1.2499 Y1.1053 
G01 X-1.2435 Y1.1096 
G01 X-1.2364 Y1.1125 
G01 X-1.2288 Y1.1140 
G01 X-1.2212 Y1.1140 
G01 X-1.2136 Y1.1125 
G01 X-1.2065 Y1.1096 
G01 X-1.2001 Y1.1053 
G01 X-1.1947 Y1.0999 
G01 X-1.1941 Y1.0990 
G01 X-1.1628 Y1.0990 
G01 X-1.1628 Y1.1096 
G01 X-1.1622 Y1.1110 
G01 X-1.1610 Y1.1122 
G01 X-1.1596 Y1.1128 
G01 X-1.0904 Y1.1128 
G01 X-1.0890 Y1.1122 
G01 X-1.0878 Y1.1110 
G01 X-1.0872 Y1.1096 
G01 X-1.0872 Y1.0404 
G01 X-1.0878 Y1.0390 
G01 X-1.0890 Y1.0378 
G01 X-1.0904 Y1.0372 
G01 X-1.1596 Y1.0372 
G01 X-1.1610 Y1.0378 
G01 X-1.1622 Y1.0390 
G01 X-1.1628 Y1.0404 
G01 X-1.1628 Y1.0510 
G01 X-1.1941 Y1.0510 
G01 X-1.1947 Y1.0501 
G01 X-1.2001 Y1.0447 
G01 X-1.2065 Y1.0404 
G01 X-1.2136 Y1.0375 
G01 X-1.2212 Y1.0360 
G01 X-1.2288 Y1.0360 
G01 X-1.2364 Y1.0375 
G01 X-1.2435 Y1.0404 
G01 X-1.2499 Y1.0447 
G01 X-1.2512 Y1.0460 
G01 X-1.2724 Y1.0460 
G01 X-1.2745 Y1.0439 
G01 X-1.2811 Y1.0396 
G01 X-1.2883 Y1.0365 
G01 X-1.2961 Y1.0350 
G01 X-1.3039 Y1.0350 
G01 X-1.3117 Y1.0365 
G01 X-1.3189 Y1.0396 
G01 X-1.3255 Y1.0439 
G01 X-1.3311 Y1.0495 
G01 X-1.3354 Y1.0561 
G01 X-1.3385 Y1.0633 
G01 X-1.3400 Y1.0711 
G00 Z0.1000 
G00 X-1.3400 Y0.4711 
G01 Z-0.0040 F10.00 
G01 X-1.3400 Y0.4789 F10.00 
G01 X-1.3385 Y0.4867 
G01 X-1.3354 Y0.4939 
G01 X-1.3311 Y0.5005 
G01 X-1.3255 Y0.5061 
G01 X-1.3189 Y0.5104 
G01 X-1.3117 Y0.5135 
G01 X-1.3039 Y0.5150 
G01 X-1.2961 Y0.5150 
G01 X-1.2883 Y0.5135 
G01 X-1.2811 Y0.5104 
G01 X-1.2745 Y0.5061 
G01 X-1.2689 Y0.5005 
G01 X-1.2679 Y0.4990 
G01 X-1.2019 Y0.4990 
G01 X-1.1986 Y0.5037 
G01 X-1.1937 Y0.5086 
G01 X-1.1881 Y0.5126 
G01 X-1.1819 Y0.5158 
G01 X-1.1753 Y0.5179 
G01 X-1.1685 Y0.5190 
G01 X-1.0815 Y0.5190 
G01 X-1.0747 Y0.5179 
G01 X-1.0681 Y0.5158 
G01 X-1.0619 Y0.5126 
G01 X-1.0563 Y0.5086 
G01 X-1.0514 Y0.5037 
G01 X-1.0474 Y0.4981 
G01 X-1.0442 Y0.4919 
G01 X-1.0421 Y0.4853 
G01 X-1.0410 Y0.4785 
G01 X-1.0410 Y0.4715 
G01 X-1.0421 Y0.4647 
G01 X-1.0442 Y0.4581 
G01 X-1.0474 Y0.4519 
G01 X-1.0514 Y0.4463 
G01 X-1.0563 Y0.4414 
G01 X-1.0619 Y0.4374 
G01 X-1.0681 Y0.4342 
G01 X-1.0747 Y0.4321 
G01 X-1.0815 Y0.4310 
G01 X-1.1685 Y0.4310 
G01 X-1.1753 Y0.4321 
G01 X-1.1819 Y0.4342 
G01 X-1.1881 Y0.4374 
G01 X-1.1937 Y0.4414 
G01 X-1.1986 Y0.4463 
G01 X-1.2019 Y0.4510 
G01 X-1.2679 Y0.4510 
G01 X-1.2689 Y0.4495 
G01 X-1.2745 Y0.4439 
G01 X-1.2811 Y0.4396 
G01 X-1.2883 Y0.4365 
G01 X-1.2961 Y0.4350 
G01 X-1.3039 Y0.4350 
G01 X-1.3117 Y0.4365 
G01 X-1.3189 Y0.4396 
G01 X-1.3255 Y0.4439 
G01 X-1.3311 Y0.4495 
G01 X-1.3354 Y0.4561 
G01 X-1.3385 Y0.4633 
G01 X-1.3400 Y0.4711 
G00 Z0.1000 
G00 X-1.3400 Y0.6711 
G01 Z-0.0040 F10.00 
G01 X-1.3400 Y0.6789 F10.00 
G01 X-1.3385 Y0.6867 
G01 X-1.3354 Y0.6939 
G01 X-1.3311 Y0.7005 
G01 X-1.3255 Y0.7061 
G01 X-1.3189 Y0.7104 
G01 X-1.3117 Y0.7135 
G01 X-1.3039 Y0.7150 
G01 X-1.2961 Y0.7150 
G01 X-1.2883 Y0.7135 
G01 X-1.2811 Y0.7104 
G01 X-1.2745 Y0.7061 
G01 X-1.2689 Y0.7005 
G01 X-1.2679 Y0.6990 
G01 X-1.2019 Y0.6990 
G01 X-1.1986 Y0.7037 
G01 X-1.1937 Y0.7086 
G01 X-1.1881 Y0.7126 
G01 X-1.1819 Y0.7158 
G01 X-1.1753 Y0.7179 
G01 X-1.1685 Y0.7190 
G01 X-1.0815 Y0.7190 
G01 X-1.0747 Y0.7179 
G01 X-1.0681 Y0.7158 
G01 X-1.0619 Y0.7126 
G01 X-1.0563 Y0.7086 
G01 X-1.0514 Y0.7037 
G01 X-1.0474 Y0.6981 
G01 X-1.0442 Y0.6919 
G01 X-1.0421 Y0.6853 
G01 X-1.0410 Y0.6785 
G01 X-1.0410 Y0.6715 
G01 X-1.0421 Y0.6647 
G01 X-1.0442 Y0.6581 
G01 X-1.0474 Y0.6519 
G01 X-1.0514 Y0.6463 
G01 X-1.0563 Y0.6414 
G01 X-1.0619 Y0.6374 
G01 X-1.0681 Y0.6342 
G01 X-1.0747 Y0.6321 
G01 X-1.0815 Y0.6310 
G01 X-1.1685 Y0.6310 
G01 X-1.1753 Y0.6321 
G01 X-1.1819 Y0.6342 
G01 X-1.1881 Y0.6374 
G01 X-1.1937 Y0.6414 
G01 X-1.1986 Y0.6463 
G01 X-1.2019 Y0.6510 
G01 X-1.2679 Y0.6510 
G01 X-1.2689 Y0.6495 
G01 X-1.2745 Y0.6439 
G01 X-1.2811 Y0.6396 
G01 X-1.2883 Y0.6365 
G01 X-1.2961 Y0.6350 
G01 X-1.3039 Y0.6350 
G01 X-1.3117 Y0.6365 
G01 X-1.3189 Y0.6396 
G01 X-1.3255 Y0.6439 
G01 X-1.3311 Y0.6495 
G01 X-1.3354 Y0.6561 
G01 X-1.3385 Y0.6633 
G01 X-1.3400 Y0.6711 
G00 Z0.1000 
G00 X-1.3368 Y1.8170 
G01 Z-0.0040 F10.00 
G01 X-1.3383 Y1.8166 F10.00 
G01 X-1.3397 Y1.8158 
G01 X-1.3408 Y1.8147 
G01 X-1.3416 Y1.8133 
G01 X-1.3420 Y1.8118 
G01 X-1.3420 Y1.8040 
G01 X-1.3400 Y1.8040 
G01 X-1.3400 Y1.8118 
G01 X-1.3394 Y1.8133 
G01 X-1.3383 Y1.8144 
G01 X-1.3368 Y1.8150 
G01 X-1.3120 Y1.8150 
G01 X-1.3120 Y1.8170 
G01 X-1.3368 Y1.8170 
G00 Z0.1000 
G00 X-1.2600 Y1.8118 
G01 Z-0.0040 F10.00 
G01 X-1.2600 Y1.7870 F10.00 
G01 X-1.2580 Y1.7870 
G01 X-1.2580 Y1.8118 
G01 X-1.2584 Y1.8133 
G01 X-1.2592 Y1.8147 
G01 X-1.2603 Y1.8158 
G01 X-1.2617 Y1.8166 
G01 X-1.2632 Y1.8170 
G01 X-1.2880 Y1.8170 
G01 X-1.2880 Y1.8150 
G01 X-1.2632 Y1.8150 
G01 X-1.2617 Y1.8144 
G01 X-1.2606 Y1.8133 
G01 X-1.2600 Y1.8118 
G00 Z0.1000 
G00 X-0.9881 Y1.0903 
G01 Z-0.0040 F10.00 
G01 X-0.9910 Y1.0958 F10.00 
G01 X-0.9947 Y1.1009 
G01 X-0.9991 Y1.1053 
G01 X-1.0042 Y1.1090 
G01 X-1.0097 Y1.1119 
G01 X-1.0141 Y1.1133 
G01 X-1.0141 Y1.1114 
G01 X-1.0140 Y1.1113 
G01 X-1.0071 Y1.1085 
G01 X-1.0009 Y1.1043 
G01 X-0.9957 Y1.0991 
G01 X-0.9915 Y1.0929 
G01 X-0.9887 Y1.0860 
G01 X-0.9886 Y1.0859 
G01 X-0.9867 Y1.0859 
G01 X-0.9881 Y1.0903 
G00 Z0.1000 
G00 X-0.6957 Y1.0991 
G01 Z-0.0040 F10.00 
G01 X-0.6999 Y1.1050 F10.00 
G01 X-0.7030 Y1.1081 
G01 X-0.7042 Y1.1093 
G01 X-0.7055 Y1.1106 
G01 X-0.7063 Y1.1123 
G01 X-0.7069 Y1.1139 
G01 X-0.7069 Y1.1157 
G01 X-0.7069 Y1.1175 
G01 X-0.7061 Y1.1193 
G01 X-0.7055 Y1.1208 
G01 X-0.7043 Y1.1220 
G01 X-0.7030 Y1.1233 
G01 X-0.7014 Y1.1240 
G01 X-0.7010 Y1.1241 
G01 X-0.6841 Y1.1410 
G01 X-0.6750 Y1.1631 
G01 X-0.6750 Y1.1869 
G01 X-0.6841 Y1.2090 
G01 X-0.7010 Y1.2259 
G01 X-0.7231 Y1.2350 
G01 X-0.7316 Y1.2350 
G01 X-0.7349 Y1.2364 
G01 X-0.7375 Y1.2389 
G01 X-0.7388 Y1.2422 
G01 X-0.7411 Y1.2477 
G01 X-0.7549 Y1.2614 
G01 X-0.8836 Y1.3902 
G01 X-0.8850 Y1.3935 
G01 X-0.8850 Y1.6830 
G01 X-0.8911 Y1.6977 
G01 X-0.9026 Y1.7091 
G01 X-0.9146 Y1.7212 
G01 X-0.9169 Y1.7235 
G01 X-0.9171 Y1.7237 
G01 X-0.9185 Y1.7270 
G01 X-0.9185 Y1.7306 
G01 X-0.9179 Y1.7319 
G01 X-0.9171 Y1.7339 
G01 X-0.9157 Y1.7353 
G01 X-0.9050 Y1.7611 
G01 X-0.9050 Y1.7889 
G01 X-0.9157 Y1.8147 
G01 X-0.9353 Y1.8343 
G01 X-0.9611 Y1.8450 
G01 X-0.9865 Y1.8450 
G01 X-0.9898 Y1.8464 
G01 X-0.9923 Y1.8489 
G01 X-1.1523 Y2.0089 
G01 X-1.1670 Y2.0150 
G01 X-1.1890 Y2.0150 
G01 X-1.1923 Y2.0164 
G01 X-1.1948 Y2.0189 
G01 X-1.2015 Y2.0256 
G01 X-1.2039 Y2.0266 
G01 X-1.2064 Y2.0291 
G01 X-1.2072 Y2.0310 
G01 X-1.2078 Y2.0324 
G01 X-1.2078 Y2.0360 
G01 X-1.2074 Y2.0369 
G01 X-1.2064 Y2.0393 
G01 X-1.2039 Y2.0418 
G01 X-1.2005 Y2.0452 
G01 X-1.1963 Y2.0510 
G01 X-1.1988 Y2.0510 
G01 X-1.2020 Y2.0465 
G01 X-1.2069 Y2.0417 
G01 X-1.2124 Y2.0376 
G01 X-1.2185 Y2.0345 
G01 X-1.2251 Y2.0324 
G01 X-1.2319 Y2.0313 
G01 X-1.3181 Y2.0313 
G01 X-1.3249 Y2.0324 
G01 X-1.3315 Y2.0345 
G01 X-1.3376 Y2.0376 
G01 X-1.3431 Y2.0417 
G01 X-1.3480 Y2.0465 
G01 X-1.3520 Y2.0521 
G01 X-1.3552 Y2.0582 
G01 X-1.3561 Y2.0612 
G01 X-1.3582 Y2.0612 
G01 X-1.3570 Y2.0575 
G01 X-1.3538 Y2.0511 
G01 X-1.3495 Y2.0452 
G01 X-1.3461 Y2.0418 
G01 X-1.3436 Y2.0393 
G01 X-1.3426 Y2.0370 
G01 X-1.3422 Y2.0360 
G01 X-1.3422 Y2.0324 
G01 X-1.3428 Y2.0311 
G01 X-1.3436 Y2.0291 
G01 X-1.3461 Y2.0266 
G01 X-1.3485 Y2.0256 
G01 X-1.3653 Y2.0088 
G01 X-1.3744 Y1.9869 
G01 X-1.3744 Y1.9631 
G01 X-1.3653 Y1.9412 
G01 X-1.3485 Y1.9244 
G01 X-1.3266 Y1.9153 
G01 X-1.2234 Y1.9153 
G01 X-1.2015 Y1.9244 
G01 X-1.1963 Y1.9296 
G01 X-1.1930 Y1.9309 
G01 X-1.1894 Y1.9309 
G01 X-1.1861 Y1.9296 
G01 X-1.1836 Y1.9270 
G01 X-1.0464 Y1.7898 
G01 X-1.0450 Y1.7865 
G01 X-1.0450 Y1.7611 
G01 X-1.0343 Y1.7353 
G01 X-1.0143 Y1.7153 
G01 X-1.0133 Y1.7128 
G01 X-1.0129 Y1.7120 
G01 X-1.0089 Y1.7023 
G01 X-0.9664 Y1.6598 
G01 X-0.9650 Y1.6565 
G01 X-0.9650 Y1.3670 
G01 X-0.9589 Y1.3523 
G01 X-0.8481 Y1.2415 
G01 X-0.8468 Y1.2402 
G01 X-0.8455 Y1.2390 
G01 X-0.8448 Y1.2371 
G01 X-0.8442 Y1.2357 
G01 X-0.8442 Y1.2339 
G01 X-0.8442 Y1.2321 
G01 X-0.8448 Y1.2306 
G01 X-0.8455 Y1.2288 
G01 X-0.8468 Y1.2275 
G01 X-0.8481 Y1.2262 
G01 X-0.8490 Y1.2259 
G01 X-0.8659 Y1.2090 
G01 X-0.8750 Y1.1869 
G01 X-0.8750 Y1.1631 
G01 X-0.8659 Y1.1410 
G01 X-0.8490 Y1.1241 
G01 X-0.8486 Y1.1240 
G01 X-0.8470 Y1.1233 
G01 X-0.8458 Y1.1221 
G01 X-0.8445 Y1.1208 
G01 X-0.8439 Y1.1195 
G01 X-0.8431 Y1.1175 
G01 X-0.8431 Y1.1157 
G01 X-0.8431 Y1.1139 
G01 X-0.8437 Y1.1124 
G01 X-0.8445 Y1.1106 
G01 X-0.8457 Y1.1093 
G01 X-0.8470 Y1.1081 
G01 X-0.8501 Y1.1050 
G01 X-0.8543 Y1.0991 
G01 X-0.8576 Y1.0927 
G01 X-0.8588 Y1.0890 
G01 X-0.8567 Y1.0890 
G01 X-0.8558 Y1.0919 
G01 X-0.8526 Y1.0981 
G01 X-0.8486 Y1.1037 
G01 X-0.8437 Y1.1086 
G01 X-0.8381 Y1.1126 
G01 X-0.8319 Y1.1158 
G01 X-0.8253 Y1.1179 
G01 X-0.8185 Y1.1190 
G01 X-0.7315 Y1.1190 
G01 X-0.7247 Y1.1179 
G01 X-0.7181 Y1.1158 
G01 X-0.7119 Y1.1126 
G01 X-0.7063 Y1.1086 
G01 X-0.7014 Y1.1037 
G01 X-0.6981 Y1.0990 
G01 X-0.6956 Y1.0990 
G01 X-0.6957 Y1.0991 
G00 Z0.1000 
G00 X-1.2319 Y1.9313 
G01 Z-0.0040 F10.00 
G01 X-1.3181 Y1.9313 F10.00 
G01 X-1.3249 Y1.9324 
G01 X-1.3315 Y1.9345 
G01 X-1.3376 Y1.9376 
G01 X-1.3431 Y1.9417 
G01 X-1.3480 Y1.9465 
G01 X-1.3520 Y1.9521 
G01 X-1.3552 Y1.9582 
G01 X-1.3573 Y1.9648 
G01 X-1.3584 Y1.9716 
G01 X-1.3584 Y1.9784 
G01 X-1.3573 Y1.9852 
G01 X-1.3552 Y1.9918 
G01 X-1.3520 Y1.9979 
G01 X-1.3480 Y2.0035 
G01 X-1.3431 Y2.0083 
G01 X-1.3376 Y2.0124 
G01 X-1.3315 Y2.0155 
G01 X-1.3249 Y2.0176 
G01 X-1.3181 Y2.0187 
G01 X-1.2319 Y2.0187 
G01 X-1.2251 Y2.0176 
G01 X-1.2185 Y2.0155 
G01 X-1.2124 Y2.0124 
G01 X-1.2069 Y2.0083 
G01 X-1.2020 Y2.0035 
G01 X-1.1988 Y1.9990 
G01 X-1.1726 Y1.9990 
G01 X-1.1680 Y1.9981 
G01 X-1.1636 Y1.9963 
G01 X-1.1597 Y1.9936 
G01 X-0.9922 Y1.8262 
G01 X-0.9876 Y1.8277 
G01 X-0.9792 Y1.8290 
G01 X-0.9708 Y1.8290 
G01 X-0.9624 Y1.8277 
G01 X-0.9543 Y1.8250 
G01 X-0.9467 Y1.8212 
G01 X-0.9398 Y1.8162 
G01 X-0.9338 Y1.8102 
G01 X-0.9288 Y1.8033 
G01 X-0.9250 Y1.7957 
G01 X-0.9223 Y1.7876 
G01 X-0.9210 Y1.7792 
G01 X-0.9210 Y1.7708 
G01 X-0.9223 Y1.7624 
G01 X-0.9250 Y1.7543 
G01 X-0.9288 Y1.7467 
G01 X-0.9338 Y1.7398 
G01 X-0.9398 Y1.7338 
G01 X-0.9456 Y1.7296 
G01 X-0.9097 Y1.6936 
G01 X-0.9064 Y1.6903 
G01 X-0.9037 Y1.6864 
G01 X-0.9019 Y1.6820 
G01 X-0.9010 Y1.6774 
G01 X-0.9010 Y1.3849 
G01 X-0.7597 Y1.2436 
G01 X-0.7564 Y1.2403 
G01 X-0.7537 Y1.2364 
G01 X-0.7519 Y1.2320 
G01 X-0.7510 Y1.2274 
G01 X-0.7510 Y1.2190 
G01 X-0.7315 Y1.2190 
G01 X-0.7247 Y1.2179 
G01 X-0.7181 Y1.2158 
G01 X-0.7119 Y1.2126 
G01 X-0.7063 Y1.2086 
G01 X-0.7014 Y1.2037 
G01 X-0.6974 Y1.1981 
G01 X-0.6942 Y1.1919 
G01 X-0.6921 Y1.1853 
G01 X-0.6910 Y1.1785 
G01 X-0.6910 Y1.1715 
G01 X-0.6921 Y1.1647 
G01 X-0.6942 Y1.1581 
G01 X-0.6974 Y1.1519 
G01 X-0.7014 Y1.1463 
G01 X-0.7063 Y1.1414 
G01 X-0.7119 Y1.1374 
G01 X-0.7181 Y1.1342 
G01 X-0.7247 Y1.1321 
G01 X-0.7315 Y1.1310 
G01 X-0.8185 Y1.1310 
G01 X-0.8253 Y1.1321 
G01 X-0.8319 Y1.1342 
G01 X-0.8381 Y1.1374 
G01 X-0.8437 Y1.1414 
G01 X-0.8486 Y1.1463 
G01 X-0.8526 Y1.1519 
G01 X-0.8558 Y1.1581 
G01 X-0.8579 Y1.1647 
G01 X-0.8590 Y1.1715 
G01 X-0.8590 Y1.1785 
G01 X-0.8579 Y1.1853 
G01 X-0.8558 Y1.1919 
G01 X-0.8526 Y1.1981 
G01 X-0.8486 Y1.2037 
G01 X-0.8437 Y1.2086 
G01 X-0.8381 Y1.2126 
G01 X-0.8319 Y1.2158 
G01 X-0.8253 Y1.2179 
G01 X-0.8185 Y1.2190 
G01 X-0.8029 Y1.2190 
G01 X-0.9436 Y1.3597 
G01 X-0.9463 Y1.3636 
G01 X-0.9481 Y1.3680 
G01 X-0.9490 Y1.3726 
G01 X-0.9490 Y1.6651 
G01 X-0.9936 Y1.7097 
G01 X-0.9963 Y1.7136 
G01 X-0.9981 Y1.7180 
G01 X-0.9990 Y1.7226 
G01 X-0.9990 Y1.7266 
G01 X-1.0033 Y1.7288 
G01 X-1.0102 Y1.7338 
G01 X-1.0162 Y1.7398 
G01 X-1.0212 Y1.7467 
G01 X-1.0250 Y1.7543 
G01 X-1.0277 Y1.7624 
G01 X-1.0290 Y1.7708 
G01 X-1.0290 Y1.7792 
G01 X-1.0277 Y1.7876 
G01 X-1.0262 Y1.7922 
G01 X-1.1849 Y1.9510 
G01 X-1.1988 Y1.9510 
G01 X-1.2020 Y1.9465 
G01 X-1.2069 Y1.9417 
G01 X-1.2124 Y1.9376 
G01 X-1.2185 Y1.9345 
G01 X-1.2251 Y1.9324 
G01 X-1.2319 Y1.9313 
G00 Z0.1000 
G00 X-0.2391 Y1.1732 
G01 Z-0.0040 F10.00 
G01 X-0.2392 Y1.1725 F10.00 
G01 X-0.2397 Y1.1715 
G01 X-0.2400 Y1.1705 
G01 X-0.2405 Y1.1700 
G01 X-0.2408 Y1.1693 
G01 X-0.2416 Y1.1686 
G01 X-0.2423 Y1.1678 
G01 X-0.2430 Y1.1675 
G01 X-0.2435 Y1.1670 
G01 X-0.2446 Y1.1667 
G01 X-0.2491 Y1.1643 
G01 X-0.2550 Y1.1601 
G01 X-0.2601 Y1.1550 
G01 X-0.2643 Y1.1491 
G01 X-0.2676 Y1.1427 
G01 X-0.2688 Y1.1390 
G01 X-0.2667 Y1.1390 
G01 X-0.2658 Y1.1419 
G01 X-0.2626 Y1.1481 
G01 X-0.2586 Y1.1537 
G01 X-0.2537 Y1.1586 
G01 X-0.2481 Y1.1626 
G01 X-0.2419 Y1.1658 
G01 X-0.2390 Y1.1667 
G01 X-0.2390 Y1.1736 
G01 X-0.2391 Y1.1732 
G00 Z0.1000 
G00 X-0.2419 Y1.1842 
G01 Z-0.0040 F10.00 
G01 X-0.2481 Y1.1874 F10.00 
G01 X-0.2537 Y1.1914 
G01 X-0.2586 Y1.1963 
G01 X-0.2626 Y1.2019 
G01 X-0.2658 Y1.2081 
G01 X-0.2667 Y1.2110 
G01 X-0.2688 Y1.2110 
G01 X-0.2676 Y1.2073 
G01 X-0.2643 Y1.2009 
G01 X-0.2601 Y1.1950 
G01 X-0.2550 Y1.1899 
G01 X-0.2491 Y1.1857 
G01 X-0.2446 Y1.1833 
G01 X-0.2435 Y1.1830 
G01 X-0.2430 Y1.1825 
G01 X-0.2423 Y1.1822 
G01 X-0.2416 Y1.1814 
G01 X-0.2408 Y1.1807 
G01 X-0.2405 Y1.1800 
G01 X-0.2400 Y1.1795 
G01 X-0.2397 Y1.1785 
G01 X-0.2392 Y1.1775 
G01 X-0.2391 Y1.1768 
G01 X-0.2390 Y1.1764 
G01 X-0.2390 Y1.1833 
G01 X-0.2419 Y1.1842 
G00 Z0.1000 
G00 X-0.1842 Y1.2081 
G01 Z-0.0040 F10.00 
G01 X-0.1874 Y1.2019 F10.00 
G01 X-0.1914 Y1.1963 
G01 X-0.1963 Y1.1914 
G01 X-0.2019 Y1.1874 
G01 X-0.2081 Y1.1842 
G01 X-0.2110 Y1.1833 
G01 X-0.2110 Y1.1764 
G01 X-0.2109 Y1.1768 
G01 X-0.2108 Y1.1775 
G01 X-0.2103 Y1.1785 
G01 X-0.2100 Y1.1795 
G01 X-0.2095 Y1.1800 
G01 X-0.2092 Y1.1807 
G01 X-0.2084 Y1.1814 
G01 X-0.2077 Y1.1822 
G01 X-0.2070 Y1.1825 
G01 X-0.2065 Y1.1830 
G01 X-0.2054 Y1.1833 
G01 X-0.2009 Y1.1857 
G01 X-0.1950 Y1.1899 
G01 X-0.1899 Y1.1950 
G01 X-0.1857 Y1.2009 
G01 X-0.1824 Y1.2073 
G01 X-0.1812 Y1.2110 
G01 X-0.1833 Y1.2110 
G01 X-0.1842 Y1.2081 
G00 Z0.1000 
G00 X-0.2081 Y1.1658 
G01 Z-0.0040 F10.00 
G01 X-0.2019 Y1.1626 F10.00 
G01 X-0.1963 Y1.1586 
G01 X-0.1914 Y1.1537 
G01 X-0.1874 Y1.1481 
G01 X-0.1842 Y1.1419 
G01 X-0.1833 Y1.1390 
G01 X-0.1812 Y1.1390 
G01 X-0.1824 Y1.1427 
G01 X-0.1857 Y1.1491 
G01 X-0.1899 Y1.1550 
G01 X-0.1950 Y1.1601 
G01 X-0.2009 Y1.1643 
G01 X-0.2054 Y1.1667 
G01 X-0.2065 Y1.1670 
G01 X-0.2070 Y1.1675 
G01 X-0.2077 Y1.1678 
G01 X-0.2084 Y1.1686 
G01 X-0.2092 Y1.1693 
G01 X-0.2095 Y1.1700 
G01 X-0.2100 Y1.1705 
G01 X-0.2103 Y1.1715 
G01 X-0.2108 Y1.1725 
G01 X-0.2109 Y1.1732 
G01 X-0.2110 Y1.1736 
G01 X-0.2110 Y1.1667 
G01 X-0.2081 Y1.1658 
G00 Z0.1000 
G00 X-1.2005 Y2.1048 
G01 Z-0.0040 F10.00 
G01 X-1.2056 Y2.1098 F10.00 
G01 X-1.2114 Y2.1141 
G01 X-1.2178 Y2.1173 
G01 X-1.2246 Y2.1196 
G01 X-1.2317 Y2.1207 
G01 X-1.2612 Y2.1207 
G01 X-1.2612 Y2.1187 
G01 X-1.2319 Y2.1187 
G01 X-1.2251 Y2.1176 
G01 X-1.2185 Y2.1155 
G01 X-1.2124 Y2.1124 
G01 X-1.2069 Y2.1083 
G01 X-1.2020 Y2.1035 
G01 X-1.1988 Y2.0990 
G01 X-1.1963 Y2.0990 
G01 X-1.2005 Y2.1048 
G00 Z0.1000 
G00 X-1.3183 Y2.1207 
G01 Z-0.0040 F10.00 
G01 X-1.3254 Y2.1196 F10.00 
G01 X-1.3322 Y2.1173 
G01 X-1.3386 Y2.1141 
G01 X-1.3444 Y2.1098 
G01 X-1.3495 Y2.1048 
G01 X-1.3538 Y2.0989 
G01 X-1.3570 Y2.0925 
G01 X-1.3582 Y2.0888 
G01 X-1.3561 Y2.0888 
G01 X-1.3552 Y2.0918 
G01 X-1.3520 Y2.0979 
G01 X-1.3480 Y2.1035 
G01 X-1.3431 Y2.1083 
G01 X-1.3376 Y2.1124 
G01 X-1.3315 Y2.1155 
G01 X-1.3249 Y2.1176 
G01 X-1.3181 Y2.1187 
G01 X-1.2888 Y2.1187 
G01 X-1.2888 Y2.1207 
G01 X-1.3183 Y2.1207 
G00 Z0.1000 
G00 X-1.0097 Y1.0381 
G01 Z-0.0040 F10.00 
G01 X-1.0042 Y1.0410 F10.00 
G01 X-0.9991 Y1.0447 
G01 X-0.9947 Y1.0491 
G01 X-0.9910 Y1.0542 
G01 X-0.9881 Y1.0597 
G01 X-0.9867 Y1.0641 
G01 X-0.9886 Y1.0641 
G01 X-0.9887 Y1.0640 
G01 X-0.9915 Y1.0571 
G01 X-0.9957 Y1.0509 
G01 X-1.0009 Y1.0457 
G01 X-1.0071 Y1.0415 
G01 X-1.0140 Y1.0387 
G01 X-1.0141 Y1.0386 
G01 X-1.0141 Y1.0367 
G01 X-1.0097 Y1.0381 
G00 Z0.1000 
G00 X-1.2600 Y1.7382 
G01 Z-0.0040 F10.00 
G01 X-1.2606 Y1.7367 F10.00 
G01 X-1.2617 Y1.7356 
G01 X-1.2632 Y1.7350 
G01 X-1.3368 Y1.7350 
G01 X-1.3383 Y1.7356 
G01 X-1.3394 Y1.7367 
G01 X-1.3400 Y1.7382 
G01 X-1.3400 Y1.7460 
G01 X-1.3420 Y1.7460 
G01 X-1.3420 Y1.7382 
G01 X-1.3416 Y1.7369 
G01 X-1.3412 Y1.7358 
G01 X-1.3412 Y1.7352 
G01 X-1.3410 Y1.7346 
G01 X-1.3412 Y1.7334 
G01 X-1.3412 Y1.7322 
G01 X-1.3414 Y1.7316 
G01 X-1.3415 Y1.7310 
G01 X-1.3421 Y1.7300 
G01 X-1.3426 Y1.7289 
G01 X-1.3430 Y1.7285 
G01 X-1.3433 Y1.7279 
G01 X-1.3442 Y1.7272 
G01 X-1.3451 Y1.7264 
G01 X-1.3456 Y1.7261 
G01 X-1.3461 Y1.7258 
G01 X-1.3473 Y1.7255 
G01 X-1.3484 Y1.7250 
G01 X-1.3490 Y1.7250 
G01 X-1.3496 Y1.7248 
G01 X-1.3508 Y1.7250 
G01 X-1.3520 Y1.7250 
G01 X-1.3525 Y1.7252 
G01 X-1.3531 Y1.7253 
G01 X-1.3542 Y1.7259 
G01 X-1.3641 Y1.7300 
G01 X-1.3859 Y1.7300 
G01 X-1.4062 Y1.7216 
G01 X-1.4210 Y1.7068 
G01 X-1.4210 Y1.6432 
G01 X-1.4062 Y1.6284 
G01 X-1.3859 Y1.6200 
G01 X-1.3641 Y1.6200 
G01 X-1.3565 Y1.6231 
G01 X-1.3557 Y1.6235 
G01 X-1.3532 Y1.6245 
G01 X-1.3496 Y1.6245 
G01 X-1.3477 Y1.6237 
G01 X-1.3463 Y1.6231 
G01 X-1.3438 Y1.6206 
G01 X-1.3433 Y1.6192 
G01 X-1.3424 Y1.6173 
G01 X-1.3424 Y1.6137 
G01 X-1.3432 Y1.6118 
G01 X-1.3438 Y1.6104 
G01 X-1.3440 Y1.6102 
G01 X-1.3475 Y1.6067 
G01 X-1.3560 Y1.5861 
G01 X-1.3560 Y1.5639 
G01 X-1.3475 Y1.5433 
G01 X-1.3368 Y1.5326 
G01 X-1.3345 Y1.5303 
G01 X-1.3343 Y1.5301 
G01 X-1.3329 Y1.5268 
G01 X-1.3329 Y1.5232 
G01 X-1.3335 Y1.5219 
G01 X-1.3343 Y1.5199 
G01 X-1.3368 Y1.5174 
G01 X-1.3475 Y1.5067 
G01 X-1.3560 Y1.4861 
G01 X-1.3560 Y1.4639 
G01 X-1.3475 Y1.4433 
G01 X-1.3368 Y1.4326 
G01 X-1.3345 Y1.4303 
G01 X-1.3343 Y1.4301 
G01 X-1.3329 Y1.4268 
G01 X-1.3329 Y1.4232 
G01 X-1.3335 Y1.4219 
G01 X-1.3343 Y1.4199 
G01 X-1.3368 Y1.4174 
G01 X-1.3475 Y1.4067 
G01 X-1.3560 Y1.3861 
G01 X-1.3560 Y1.3639 
G01 X-1.3475 Y1.3433 
G01 X-1.3368 Y1.3326 
G01 X-1.3345 Y1.3303 
G01 X-1.3343 Y1.3301 
G01 X-1.3329 Y1.3268 
G01 X-1.3329 Y1.3232 
G01 X-1.3335 Y1.3219 
G01 X-1.3343 Y1.3199 
G01 X-1.3368 Y1.3174 
G01 X-1.3475 Y1.3067 
G01 X-1.3560 Y1.2861 
G01 X-1.3560 Y1.2639 
G01 X-1.3475 Y1.2433 
G01 X-1.3359 Y1.2317 
G01 X-1.3350 Y1.2310 
G01 X-1.3347 Y1.2305 
G01 X-1.3342 Y1.2300 
G01 X-1.3338 Y1.2289 
G01 X-1.3332 Y1.2279 
G01 X-1.3331 Y1.2273 
G01 X-1.3329 Y1.2267 
G01 X-1.3329 Y1.2255 
G01 X-1.3327 Y1.2243 
G01 X-1.3329 Y1.2238 
G01 X-1.3329 Y1.2231 
G01 X-1.3333 Y1.2220 
G01 X-1.3336 Y1.2209 
G01 X-1.3340 Y1.2204 
G01 X-1.3342 Y1.2198 
G01 X-1.3351 Y1.2190 
G01 X-1.3358 Y1.2180 
G01 X-1.3363 Y1.2177 
G01 X-1.3368 Y1.2173 
G01 X-1.3379 Y1.2168 
G01 X-1.3397 Y1.2158 
G01 X-1.3408 Y1.2147 
G01 X-1.3416 Y1.2133 
G01 X-1.3420 Y1.2118 
G01 X-1.3420 Y1.2040 
G01 X-1.3400 Y1.2040 
G01 X-1.3400 Y1.2118 
G01 X-1.3394 Y1.2133 
G01 X-1.3383 Y1.2144 
G01 X-1.3368 Y1.2150 
G01 X-1.2632 Y1.2150 
G01 X-1.2617 Y1.2144 
G01 X-1.2606 Y1.2133 
G01 X-1.2600 Y1.2118 
G01 X-1.2600 Y1.1870 
G01 X-1.2580 Y1.1870 
G01 X-1.2580 Y1.2118 
G01 X-1.2584 Y1.2133 
G01 X-1.2592 Y1.2147 
G01 X-1.2603 Y1.2158 
G01 X-1.2621 Y1.2168 
G01 X-1.2632 Y1.2173 
G01 X-1.2637 Y1.2177 
G01 X-1.2642 Y1.2180 
G01 X-1.2649 Y1.2190 
G01 X-1.2658 Y1.2198 
G01 X-1.2660 Y1.2204 
G01 X-1.2664 Y1.2209 
G01 X-1.2667 Y1.2220 
G01 X-1.2671 Y1.2231 
G01 X-1.2671 Y1.2238 
G01 X-1.2673 Y1.2243 
G01 X-1.2671 Y1.2255 
G01 X-1.2671 Y1.2267 
G01 X-1.2669 Y1.2273 
G01 X-1.2668 Y1.2279 
G01 X-1.2662 Y1.2289 
G01 X-1.2658 Y1.2300 
G01 X-1.2653 Y1.2305 
G01 X-1.2650 Y1.2310 
G01 X-1.2641 Y1.2317 
G01 X-1.2622 Y1.2336 
G01 X-1.2589 Y1.2350 
G01 X-1.2118 Y1.2350 
G01 X-1.2085 Y1.2336 
G01 X-1.2060 Y1.2311 
G01 X-1.1990 Y1.2241 
G01 X-1.1769 Y1.2150 
G01 X-1.0731 Y1.2150 
G01 X-1.0510 Y1.2241 
G01 X-1.0341 Y1.2410 
G01 X-1.0250 Y1.2631 
G01 X-1.0250 Y1.2869 
G01 X-1.0341 Y1.3090 
G01 X-1.0425 Y1.3174 
G01 X-1.0448 Y1.3197 
G01 X-1.0450 Y1.3199 
G01 X-1.0464 Y1.3232 
G01 X-1.0464 Y1.3268 
G01 X-1.0459 Y1.3281 
G01 X-1.0450 Y1.3301 
G01 X-1.0425 Y1.3326 
G01 X-1.0341 Y1.3410 
G01 X-1.0250 Y1.3631 
G01 X-1.0250 Y1.3869 
G01 X-1.0341 Y1.4090 
G01 X-1.0425 Y1.4174 
G01 X-1.0448 Y1.4197 
G01 X-1.0450 Y1.4199 
G01 X-1.0464 Y1.4232 
G01 X-1.0464 Y1.4268 
G01 X-1.0459 Y1.4281 
G01 X-1.0450 Y1.4301 
G01 X-1.0425 Y1.4326 
G01 X-1.0341 Y1.4410 
G01 X-1.0250 Y1.4631 
G01 X-1.0250 Y1.4869 
G01 X-1.0341 Y1.5090 
G01 X-1.0425 Y1.5174 
G01 X-1.0448 Y1.5197 
G01 X-1.0450 Y1.5199 
G01 X-1.0464 Y1.5232 
G01 X-1.0464 Y1.5268 
G01 X-1.0459 Y1.5281 
G01 X-1.0450 Y1.5301 
G01 X-1.0425 Y1.5326 
G01 X-1.0341 Y1.5410 
G01 X-1.0250 Y1.5631 
G01 X-1.0250 Y1.5869 
G01 X-1.0341 Y1.6090 
G01 X-1.0510 Y1.6259 
G01 X-1.0731 Y1.6350 
G01 X-1.1769 Y1.6350 
G01 X-1.1990 Y1.6259 
G01 X-1.2060 Y1.6189 
G01 X-1.2083 Y1.6166 
G01 X-1.2085 Y1.6164 
G01 X-1.2118 Y1.6150 
G01 X-1.2553 Y1.6150 
G01 X-1.2578 Y1.6150 
G01 X-1.2589 Y1.6150 
G01 X-1.2622 Y1.6164 
G01 X-1.2644 Y1.6186 
G01 X-1.2647 Y1.6189 
G01 X-1.2648 Y1.6190 
G01 X-1.2657 Y1.6199 
G01 X-1.2665 Y1.6217 
G01 X-1.2671 Y1.6232 
G01 X-1.2671 Y1.6250 
G01 X-1.2671 Y1.6268 
G01 X-1.2662 Y1.6290 
G01 X-1.2657 Y1.6301 
G01 X-1.2639 Y1.6319 
G01 X-1.2525 Y1.6433 
G01 X-1.2440 Y1.6639 
G01 X-1.2440 Y1.6861 
G01 X-1.2525 Y1.7067 
G01 X-1.2641 Y1.7183 
G01 X-1.2650 Y1.7190 
G01 X-1.2653 Y1.7195 
G01 X-1.2658 Y1.7200 
G01 X-1.2662 Y1.7211 
G01 X-1.2668 Y1.7221 
G01 X-1.2669 Y1.7227 
G01 X-1.2671 Y1.7233 
G01 X-1.2671 Y1.7245 
G01 X-1.2673 Y1.7257 
G01 X-1.2671 Y1.7262 
G01 X-1.2671 Y1.7269 
G01 X-1.2667 Y1.7280 
G01 X-1.2664 Y1.7291 
G01 X-1.2660 Y1.7296 
G01 X-1.2658 Y1.7302 
G01 X-1.2649 Y1.7310 
G01 X-1.2642 Y1.7320 
G01 X-1.2637 Y1.7323 
G01 X-1.2632 Y1.7327 
G01 X-1.2621 Y1.7332 
G01 X-1.2603 Y1.7342 
G01 X-1.2592 Y1.7353 
G01 X-1.2584 Y1.7367 
G01 X-1.2580 Y1.7382 
G01 X-1.2580 Y1.7630 
G01 X-1.2600 Y1.7630 
G01 X-1.2600 Y1.7382 
G00 Z0.1000 
G00 X-1.0815 Y1.5310 
G01 Z-0.0040 F10.00 
G01 X-1.1685 Y1.5310 F10.00 
G01 X-1.1753 Y1.5321 
G01 X-1.1819 Y1.5342 
G01 X-1.1881 Y1.5374 
G01 X-1.1937 Y1.5414 
G01 X-1.1986 Y1.5463 
G01 X-1.2019 Y1.5510 
G01 X-1.2679 Y1.5510 
G01 X-1.2689 Y1.5495 
G01 X-1.2745 Y1.5439 
G01 X-1.2811 Y1.5396 
G01 X-1.2883 Y1.5365 
G01 X-1.2961 Y1.5350 
G01 X-1.3039 Y1.5350 
G01 X-1.3117 Y1.5365 
G01 X-1.3189 Y1.5396 
G01 X-1.3255 Y1.5439 
G01 X-1.3311 Y1.5495 
G01 X-1.3354 Y1.5561 
G01 X-1.3385 Y1.5633 
G01 X-1.3400 Y1.5711 
G01 X-1.3400 Y1.5789 
G01 X-1.3385 Y1.5867 
G01 X-1.3354 Y1.5939 
G01 X-1.3311 Y1.6005 
G01 X-1.3255 Y1.6061 
G01 X-1.3189 Y1.6104 
G01 X-1.3117 Y1.6135 
G01 X-1.3039 Y1.6150 
G01 X-1.2961 Y1.6150 
G01 X-1.2883 Y1.6135 
G01 X-1.2811 Y1.6104 
G01 X-1.2745 Y1.6061 
G01 X-1.2689 Y1.6005 
G01 X-1.2679 Y1.5990 
G01 X-1.2019 Y1.5990 
G01 X-1.1986 Y1.6037 
G01 X-1.1937 Y1.6086 
G01 X-1.1881 Y1.6126 
G01 X-1.1819 Y1.6158 
G01 X-1.1753 Y1.6179 
G01 X-1.1685 Y1.6190 
G01 X-1.0815 Y1.6190 
G01 X-1.0747 Y1.6179 
G01 X-1.0681 Y1.6158 
G01 X-1.0619 Y1.6126 
G01 X-1.0563 Y1.6086 
G01 X-1.0514 Y1.6037 
G01 X-1.0474 Y1.5981 
G01 X-1.0442 Y1.5919 
G01 X-1.0421 Y1.5853 
G01 X-1.0410 Y1.5785 
G01 X-1.0410 Y1.5715 
G01 X-1.0421 Y1.5647 
G01 X-1.0442 Y1.5581 
G01 X-1.0474 Y1.5519 
G01 X-1.0514 Y1.5463 
G01 X-1.0563 Y1.5414 
G01 X-1.0619 Y1.5374 
G01 X-1.0681 Y1.5342 
G01 X-1.0747 Y1.5321 
G01 X-1.0815 Y1.5310 
G00 Z0.1000 
G00 X-1.0815 Y1.3310 
G01 Z-0.0040 F10.00 
G01 X-1.1685 Y1.3310 F10.00 
G01 X-1.1753 Y1.3321 
G01 X-1.1819 Y1.3342 
G01 X-1.1881 Y1.3374 
G01 X-1.1937 Y1.3414 
G01 X-1.1986 Y1.3463 
G01 X-1.2019 Y1.3510 
G01 X-1.2679 Y1.3510 
G01 X-1.2689 Y1.3495 
G01 X-1.2745 Y1.3439 
G01 X-1.2811 Y1.3396 
G01 X-1.2883 Y1.3365 
G01 X-1.2961 Y1.3350 
G01 X-1.3039 Y1.3350 
G01 X-1.3117 Y1.3365 
G01 X-1.3189 Y1.3396 
G01 X-1.3255 Y1.3439 
G01 X-1.3311 Y1.3495 
G01 X-1.3354 Y1.3561 
G01 X-1.3385 Y1.3633 
G01 X-1.3400 Y1.3711 
G01 X-1.3400 Y1.3789 
G01 X-1.3385 Y1.3867 
G01 X-1.3354 Y1.3939 
G01 X-1.3311 Y1.4005 
G01 X-1.3255 Y1.4061 
G01 X-1.3189 Y1.4104 
G01 X-1.3117 Y1.4135 
G01 X-1.3039 Y1.4150 
G01 X-1.2961 Y1.4150 
G01 X-1.2883 Y1.4135 
G01 X-1.2811 Y1.4104 
G01 X-1.2745 Y1.4061 
G01 X-1.2689 Y1.4005 
G01 X-1.2679 Y1.3990 
G01 X-1.2019 Y1.3990 
G01 X-1.1986 Y1.4037 
G01 X-1.1937 Y1.4086 
G01 X-1.1881 Y1.4126 
G01 X-1.1819 Y1.4158 
G01 X-1.1753 Y1.4179 
G01 X-1.1685 Y1.4190 
G01 X-1.0815 Y1.4190 
G01 X-1.0747 Y1.4179 
G01 X-1.0681 Y1.4158 
G01 X-1.0619 Y1.4126 
G01 X-1.0563 Y1.4086 
G01 X-1.0514 Y1.4037 
G01 X-1.0474 Y1.3981 
G01 X-1.0442 Y1.3919 
G01 X-1.0421 Y1.3853 
G01 X-1.0410 Y1.3785 
G01 X-1.0410 Y1.3715 
G01 X-1.0421 Y1.3647 
G01 X-1.0442 Y1.3581 
G01 X-1.0474 Y1.3519 
G01 X-1.0514 Y1.3463 
G01 X-1.0563 Y1.3414 
G01 X-1.0619 Y1.3374 
G01 X-1.0681 Y1.3342 
G01 X-1.0747 Y1.3321 
G01 X-1.0815 Y1.3310 
G00 Z0.1000 
G00 X-1.3400 Y1.2711 
G01 Z-0.0040 F10.00 
G01 X-1.3400 Y1.2789 F10.00 
G01 X-1.3385 Y1.2867 
G01 X-1.3354 Y1.2939 
G01 X-1.3311 Y1.3005 
G01 X-1.3255 Y1.3061 
G01 X-1.3189 Y1.3104 
G01 X-1.3117 Y1.3135 
G01 X-1.3039 Y1.3150 
G01 X-1.2961 Y1.3150 
G01 X-1.2883 Y1.3135 
G01 X-1.2811 Y1.3104 
G01 X-1.2745 Y1.3061 
G01 X-1.2689 Y1.3005 
G01 X-1.2679 Y1.2990 
G01 X-1.2019 Y1.2990 
G01 X-1.1986 Y1.3037 
G01 X-1.1937 Y1.3086 
G01 X-1.1881 Y1.3126 
G01 X-1.1819 Y1.3158 
G01 X-1.1753 Y1.3179 
G01 X-1.1685 Y1.3190 
G01 X-1.0815 Y1.3190 
G01 X-1.0747 Y1.3179 
G01 X-1.0681 Y1.3158 
G01 X-1.0619 Y1.3126 
G01 X-1.0563 Y1.3086 
G01 X-1.0514 Y1.3037 
G01 X-1.0474 Y1.2981 
G01 X-1.0442 Y1.2919 
G01 X-1.0421 Y1.2853 
G01 X-1.0410 Y1.2785 
G01 X-1.0410 Y1.2715 
G01 X-1.0421 Y1.2647 
G01 X-1.0442 Y1.2581 
G01 X-1.0474 Y1.2519 
G01 X-1.0514 Y1.2463 
G01 X-1.0563 Y1.2414 
G01 X-1.0619 Y1.2374 
G01 X-1.0681 Y1.2342 
G01 X-1.0747 Y1.2321 
G01 X-1.0815 Y1.2310 
G01 X-1.1685 Y1.2310 
G01 X-1.1753 Y1.2321 
G01 X-1.1819 Y1.2342 
G01 X-1.1881 Y1.2374 
G01 X-1.1937 Y1.2414 
G01 X-1.1986 Y1.2463 
G01 X-1.2019 Y1.2510 
G01 X-1.2679 Y1.2510 
G01 X-1.2689 Y1.2495 
G01 X-1.2745 Y1.2439 
G01 X-1.2811 Y1.2396 
G01 X-1.2883 Y1.2365 
G01 X-1.2961 Y1.2350 
G01 X-1.3039 Y1.2350 
G01 X-1.3117 Y1.2365 
G01 X-1.3189 Y1.2396 
G01 X-1.3255 Y1.2439 
G01 X-1.3311 Y1.2495 
G01 X-1.3354 Y1.2561 
G01 X-1.3385 Y1.2633 
G01 X-1.3400 Y1.2711 
G00 Z0.1000 
G00 X-1.3400 Y1.4711 
G01 Z-0.0040 F10.00 
G01 X-1.3400 Y1.4789 F10.00 
G01 X-1.3385 Y1.4867 
G01 X-1.3354 Y1.4939 
G01 X-1.3311 Y1.5005 
G01 X-1.3255 Y1.5061 
G01 X-1.3189 Y1.5104 
G01 X-1.3117 Y1.5135 
G01 X-1.3039 Y1.5150 
G01 X-1.2961 Y1.5150 
G01 X-1.2883 Y1.5135 
G01 X-1.2811 Y1.5104 
G01 X-1.2745 Y1.5061 
G01 X-1.2689 Y1.5005 
G01 X-1.2679 Y1.4990 
G01 X-1.2019 Y1.4990 
G01 X-1.1986 Y1.5037 
G01 X-1.1937 Y1.5086 
G01 X-1.1881 Y1.5126 
G01 X-1.1819 Y1.5158 
G01 X-1.1753 Y1.5179 
G01 X-1.1685 Y1.5190 
G01 X-1.0815 Y1.5190 
G01 X-1.0747 Y1.5179 
G01 X-1.0681 Y1.5158 
G01 X-1.0619 Y1.5126 
G01 X-1.0563 Y1.5086 
G01 X-1.0514 Y1.5037 
G01 X-1.0474 Y1.4981 
G01 X-1.0442 Y1.4919 
G01 X-1.0421 Y1.4853 
G01 X-1.0410 Y1.4785 
G01 X-1.0410 Y1.4715 
G01 X-1.0421 Y1.4647 
G01 X-1.0442 Y1.4581 
G01 X-1.0474 Y1.4519 
G01 X-1.0514 Y1.4463 
G01 X-1.0563 Y1.4414 
G01 X-1.0619 Y1.4374 
G01 X-1.0681 Y1.4342 
G01 X-1.0747 Y1.4321 
G01 X-1.0815 Y1.4310 
G01 X-1.1685 Y1.4310 
G01 X-1.1753 Y1.4321 
G01 X-1.1819 Y1.4342 
G01 X-1.1881 Y1.4374 
G01 X-1.1937 Y1.4414 
G01 X-1.1986 Y1.4463 
G01 X-1.2019 Y1.4510 
G01 X-1.2679 Y1.4510 
G01 X-1.2689 Y1.4495 
G01 X-1.2745 Y1.4439 
G01 X-1.2811 Y1.4396 
G01 X-1.2883 Y1.4365 
G01 X-1.2961 Y1.4350 
G01 X-1.3039 Y1.4350 
G01 X-1.3117 Y1.4365 
G01 X-1.3189 Y1.4396 
G01 X-1.3255 Y1.4439 
G01 X-1.3311 Y1.4495 
G01 X-1.3354 Y1.4561 
G01 X-1.3385 Y1.4633 
G01 X-1.3400 Y1.4711 
G00 Z0.1000 
G00 X-1.3311 Y1.7005 
G01 Z-0.0040 F10.00 
G01 X-1.3255 Y1.7061 F10.00 
G01 X-1.3189 Y1.7104 
G01 X-1.3117 Y1.7135 
G01 X-1.3039 Y1.7150 
G01 X-1.2961 Y1.7150 
G01 X-1.2883 Y1.7135 
G01 X-1.2811 Y1.7104 
G01 X-1.2745 Y1.7061 
G01 X-1.2689 Y1.7005 
G01 X-1.2646 Y1.6939 
G01 X-1.2615 Y1.6867 
G01 X-1.2600 Y1.6789 
G01 X-1.2600 Y1.6711 
G01 X-1.2615 Y1.6633 
G01 X-1.2646 Y1.6561 
G01 X-1.2689 Y1.6495 
G01 X-1.2745 Y1.6439 
G01 X-1.2811 Y1.6396 
G01 X-1.2883 Y1.6365 
G01 X-1.2961 Y1.6350 
G01 X-1.3039 Y1.6350 
G01 X-1.3117 Y1.6365 
G01 X-1.3189 Y1.6396 
G01 X-1.3255 Y1.6439 
G01 X-1.3311 Y1.6495 
G01 X-1.3321 Y1.6510 
G01 X-1.3441 Y1.6510 
G01 X-1.3447 Y1.6501 
G01 X-1.3501 Y1.6447 
G01 X-1.3565 Y1.6404 
G01 X-1.3636 Y1.6375 
G01 X-1.3712 Y1.6360 
G01 X-1.3788 Y1.6360 
G01 X-1.3864 Y1.6375 
G01 X-1.3935 Y1.6404 
G01 X-1.3999 Y1.6447 
G01 X-1.4053 Y1.6501 
G01 X-1.4096 Y1.6565 
G01 X-1.4125 Y1.6636 
G01 X-1.4140 Y1.6712 
G01 X-1.4140 Y1.6788 
G01 X-1.4125 Y1.6864 
G01 X-1.4096 Y1.6935 
G01 X-1.4053 Y1.6999 
G01 X-1.3999 Y1.7053 
G01 X-1.3935 Y1.7096 
G01 X-1.3864 Y1.7125 
G01 X-1.3788 Y1.7140 
G01 X-1.3712 Y1.7140 
G01 X-1.3636 Y1.7125 
G01 X-1.3565 Y1.7096 
G01 X-1.3501 Y1.7053 
G01 X-1.3447 Y1.6999 
G01 X-1.3441 Y1.6990 
G01 X-1.3321 Y1.6990 
G01 X-1.3311 Y1.7005 
G00 Z0.1000 
G00 X-1.8680 Y2.5675 
G01 Z-0.0040 F10.00 
G01 X-1.8712 Y2.5739 F10.00 
G01 X-1.8755 Y2.5798 
G01 X-1.8789 Y2.5832 
G01 X-1.8814 Y2.5857 
G01 X-1.8824 Y2.5880 
G01 X-1.8828 Y2.5890 
G01 X-1.8828 Y2.5926 
G01 X-1.8822 Y2.5939 
G01 X-1.8814 Y2.5959 
G01 X-1.8789 Y2.5984 
G01 X-1.8765 Y2.5994 
G01 X-1.8597 Y2.6162 
G01 X-1.8506 Y2.6381 
G01 X-1.8506 Y2.6619 
G01 X-1.8597 Y2.6838 
G01 X-1.8765 Y2.7006 
G01 X-1.8984 Y2.7097 
G01 X-2.0016 Y2.7097 
G01 X-2.0235 Y2.7006 
G01 X-2.0327 Y2.6914 
G01 X-2.0360 Y2.6900 
G01 X-2.1080 Y2.6900 
G01 X-2.1227 Y2.6839 
G01 X-2.1364 Y2.6701 
G01 X-2.2589 Y2.5477 
G01 X-2.2650 Y2.5330 
G01 X-2.2650 Y2.4411 
G01 X-2.2664 Y2.4378 
G01 X-2.2689 Y2.4353 
G01 X-2.2810 Y2.4232 
G01 X-2.2810 Y2.3768 
G01 X-2.2689 Y2.3647 
G01 X-2.2667 Y2.3625 
G01 X-2.2664 Y2.3622 
G01 X-2.2650 Y2.3589 
G01 X-2.2650 Y0.7670 
G01 X-2.2589 Y0.7523 
G01 X-2.2089 Y0.7023 
G01 X-2.1977 Y0.6911 
G01 X-2.1830 Y0.6850 
G01 X-2.1754 Y0.6850 
G01 X-2.1736 Y0.6850 
G01 X-2.1718 Y0.6850 
G01 X-2.1697 Y0.6841 
G01 X-2.1685 Y0.6836 
G01 X-2.1667 Y0.6819 
G01 X-2.1660 Y0.6811 
G01 X-2.1658 Y0.6810 
G01 X-2.1650 Y0.6801 
G01 X-2.1642 Y0.6783 
G01 X-2.1636 Y0.6768 
G01 X-2.1636 Y0.6750 
G01 X-2.1636 Y0.6732 
G01 X-2.1645 Y0.6710 
G01 X-2.1650 Y0.6699 
G01 X-2.1668 Y0.6681 
G01 X-2.1759 Y0.6590 
G01 X-2.1850 Y0.6369 
G01 X-2.1850 Y0.6131 
G01 X-2.1759 Y0.5910 
G01 X-2.1650 Y0.5801 
G01 X-2.1642 Y0.5782 
G01 X-2.1636 Y0.5768 
G01 X-2.1636 Y0.5732 
G01 X-2.1650 Y0.5699 
G01 X-2.1675 Y0.5674 
G01 X-2.1759 Y0.5590 
G01 X-2.1850 Y0.5369 
G01 X-2.1850 Y0.5131 
G01 X-2.1759 Y0.4910 
G01 X-2.1650 Y0.4801 
G01 X-2.1642 Y0.4782 
G01 X-2.1636 Y0.4768 
G01 X-2.1636 Y0.4732 
G01 X-2.1650 Y0.4699 
G01 X-2.1675 Y0.4674 
G01 X-2.1759 Y0.4590 
G01 X-2.1850 Y0.4369 
G01 X-2.1850 Y0.4131 
G01 X-2.1759 Y0.3910 
G01 X-2.1675 Y0.3826 
G01 X-2.1652 Y0.3803 
G01 X-2.1650 Y0.3801 
G01 X-2.1636 Y0.3768 
G01 X-2.1636 Y0.3732 
G01 X-2.1641 Y0.3719 
G01 X-2.1650 Y0.3699 
G01 X-2.1675 Y0.3674 
G01 X-2.1759 Y0.3590 
G01 X-2.1850 Y0.3369 
G01 X-2.1850 Y0.3131 
G01 X-2.1759 Y0.2910 
G01 X-2.1590 Y0.2741 
G01 X-2.1369 Y0.2650 
G01 X-2.1131 Y0.2650 
G01 X-2.0910 Y0.2741 
G01 X-2.0741 Y0.2910 
G01 X-2.0650 Y0.3131 
G01 X-2.0650 Y0.3369 
G01 X-2.0741 Y0.3590 
G01 X-2.0850 Y0.3699 
G01 X-2.0858 Y0.3718 
G01 X-2.0864 Y0.3732 
G01 X-2.0864 Y0.3768 
G01 X-2.0850 Y0.3801 
G01 X-2.0825 Y0.3826 
G01 X-2.0741 Y0.3910 
G01 X-2.0650 Y0.4131 
G01 X-2.0650 Y0.4369 
G01 X-2.0741 Y0.4590 
G01 X-2.0833 Y0.4681 
G01 X-2.0850 Y0.4699 
G01 X-2.0855 Y0.4711 
G01 X-2.0864 Y0.4732 
G01 X-2.0864 Y0.4750 
G01 X-2.0864 Y0.4768 
G01 X-2.0858 Y0.4784 
G01 X-2.0850 Y0.4801 
G01 X-2.0842 Y0.4810 
G01 X-2.0840 Y0.4811 
G01 X-2.0833 Y0.4818 
G01 X-2.0815 Y0.4836 
G01 X-2.0804 Y0.4841 
G01 X-2.0782 Y0.4850 
G01 X-2.0764 Y0.4850 
G01 X-2.0746 Y0.4850 
G01 X-2.0619 Y0.4850 
G01 X-2.0586 Y0.4836 
G01 X-2.0550 Y0.4801 
G01 X-2.0355 Y0.4720 
G01 X-2.0145 Y0.4720 
G01 X-1.9950 Y0.4801 
G01 X-1.9801 Y0.4950 
G01 X-1.9720 Y0.5145 
G01 X-1.9720 Y0.5355 
G01 X-1.9801 Y0.5550 
G01 X-1.9950 Y0.5699 
G01 X-2.0145 Y0.5780 
G01 X-2.0355 Y0.5780 
G01 X-2.0550 Y0.5699 
G01 X-2.0586 Y0.5664 
G01 X-2.0619 Y0.5650 
G01 X-2.0782 Y0.5650 
G01 X-2.0815 Y0.5664 
G01 X-2.0840 Y0.5689 
G01 X-2.0850 Y0.5699 
G01 X-2.0864 Y0.5732 
G01 X-2.0864 Y0.5768 
G01 X-2.0850 Y0.5801 
G01 X-2.0825 Y0.5826 
G01 X-2.0741 Y0.5910 
G01 X-2.0650 Y0.6131 
G01 X-2.0650 Y0.6369 
G01 X-2.0741 Y0.6590 
G01 X-2.0825 Y0.6674 
G01 X-2.0848 Y0.6697 
G01 X-2.0850 Y0.6699 
G01 X-2.0864 Y0.6732 
G01 X-2.0864 Y0.6768 
G01 X-2.0859 Y0.6781 
G01 X-2.0850 Y0.6801 
G01 X-2.0825 Y0.6826 
G01 X-2.0741 Y0.6910 
G01 X-2.0650 Y0.7131 
G01 X-2.0650 Y0.7369 
G01 X-2.0741 Y0.7590 
G01 X-2.0825 Y0.7674 
G01 X-2.0848 Y0.7697 
G01 X-2.0850 Y0.7699 
G01 X-2.0864 Y0.7732 
G01 X-2.0864 Y0.7768 
G01 X-2.0859 Y0.7781 
G01 X-2.0850 Y0.7801 
G01 X-2.0825 Y0.7826 
G01 X-2.0741 Y0.7910 
G01 X-2.0650 Y0.8131 
G01 X-2.0650 Y0.8369 
G01 X-2.0742 Y0.8592 
G01 X-2.0742 Y0.8628 
G01 X-2.0737 Y0.8641 
G01 X-2.0729 Y0.8661 
G01 X-2.0703 Y0.8686 
G01 X-2.0670 Y0.8700 
G01 X-2.0641 Y0.8700 
G01 X-2.0438 Y0.8784 
G01 X-2.0284 Y0.8938 
G01 X-2.0200 Y0.9141 
G01 X-2.0200 Y0.9359 
G01 X-2.0284 Y0.9562 
G01 X-2.0406 Y0.9684 
G01 X-2.0429 Y0.9706 
G01 X-2.0431 Y0.9709 
G01 X-2.0445 Y0.9742 
G01 X-2.0445 Y0.9778 
G01 X-2.0439 Y0.9791 
G01 X-2.0431 Y0.9811 
G01 X-2.0406 Y0.9836 
G01 X-2.0373 Y0.9850 
G01 X-2.0185 Y0.9850 
G01 X-2.0152 Y0.9836 
G01 X-2.0127 Y0.9811 
G01 X-1.8727 Y0.8411 
G01 X-1.8580 Y0.8350 
G01 X-1.8411 Y0.8350 
G01 X-1.8378 Y0.8336 
G01 X-1.8353 Y0.8311 
G01 X-1.8343 Y0.8301 
G01 X-1.8335 Y0.8282 
G01 X-1.8329 Y0.8268 
G01 X-1.8329 Y0.8232 
G01 X-1.8343 Y0.8199 
G01 X-1.8368 Y0.8174 
G01 X-1.8475 Y0.8067 
G01 X-1.8560 Y0.7861 
G01 X-1.8560 Y0.7639 
G01 X-1.8475 Y0.7433 
G01 X-1.8343 Y0.7301 
G01 X-1.8335 Y0.7282 
G01 X-1.8329 Y0.7268 
G01 X-1.8329 Y0.7232 
G01 X-1.8343 Y0.7199 
G01 X-1.8368 Y0.7174 
G01 X-1.8475 Y0.7067 
G01 X-1.8560 Y0.6861 
G01 X-1.8560 Y0.6639 
G01 X-1.8475 Y0.6433 
G01 X-1.8389 Y0.6347 
G01 X-1.8366 Y0.6324 
G01 X-1.8364 Y0.6322 
G01 X-1.8350 Y0.6289 
G01 X-1.8350 Y0.6211 
G01 X-1.8364 Y0.6178 
G01 X-1.8389 Y0.6153 
G01 X-1.8475 Y0.6067 
G01 X-1.8560 Y0.5861 
G01 X-1.8560 Y0.5639 
G01 X-1.8475 Y0.5433 
G01 X-1.8343 Y0.5301 
G01 X-1.8335 Y0.5282 
G01 X-1.8329 Y0.5268 
G01 X-1.8329 Y0.5232 
G01 X-1.8343 Y0.5199 
G01 X-1.8368 Y0.5174 
G01 X-1.8475 Y0.5067 
G01 X-1.8560 Y0.4861 
G01 X-1.8560 Y0.4639 
G01 X-1.8475 Y0.4433 
G01 X-1.8343 Y0.4301 
G01 X-1.8335 Y0.4282 
G01 X-1.8329 Y0.4268 
G01 X-1.8329 Y0.4232 
G01 X-1.8343 Y0.4199 
G01 X-1.8368 Y0.4174 
G01 X-1.8475 Y0.4067 
G01 X-1.8560 Y0.3861 
G01 X-1.8560 Y0.3639 
G01 X-1.8475 Y0.3433 
G01 X-1.8343 Y0.3301 
G01 X-1.8335 Y0.3282 
G01 X-1.8329 Y0.3268 
G01 X-1.8329 Y0.3232 
G01 X-1.8343 Y0.3199 
G01 X-1.8368 Y0.3174 
G01 X-1.8475 Y0.3067 
G01 X-1.8560 Y0.2861 
G01 X-1.8560 Y0.2639 
G01 X-1.8475 Y0.2433 
G01 X-1.8368 Y0.2326 
G01 X-1.8352 Y0.2310 
G01 X-1.8343 Y0.2301 
G01 X-1.8335 Y0.2283 
G01 X-1.8329 Y0.2268 
G01 X-1.8329 Y0.2250 
G01 X-1.8329 Y0.2232 
G01 X-1.8338 Y0.2211 
G01 X-1.8343 Y0.2199 
G01 X-1.8360 Y0.2181 
G01 X-1.8368 Y0.2174 
G01 X-1.8370 Y0.2172 
G01 X-1.8378 Y0.2164 
G01 X-1.8397 Y0.2156 
G01 X-1.8411 Y0.2150 
G01 X-1.8429 Y0.2150 
G01 X-1.8603 Y0.2150 
G01 X-1.8636 Y0.2164 
G01 X-1.8661 Y0.2189 
G01 X-1.8688 Y0.2216 
G01 X-1.8891 Y0.2300 
G01 X-1.9109 Y0.2300 
G01 X-1.9312 Y0.2216 
G01 X-1.9466 Y0.2062 
G01 X-1.9550 Y0.1859 
G01 X-1.9550 Y0.1641 
G01 X-1.9466 Y0.1438 
G01 X-1.9312 Y0.1284 
G01 X-1.9109 Y0.1200 
G01 X-1.8891 Y0.1200 
G01 X-1.8688 Y0.1284 
G01 X-1.8636 Y0.1336 
G01 X-1.8603 Y0.1350 
G01 X-1.8411 Y0.1350 
G01 X-1.8378 Y0.1336 
G01 X-1.8353 Y0.1311 
G01 X-1.8317 Y0.1275 
G01 X-1.8111 Y0.1190 
G01 X-1.7889 Y0.1190 
G01 X-1.7683 Y0.1275 
G01 X-1.7576 Y0.1382 
G01 X-1.7551 Y0.1407 
G01 X-1.7528 Y0.1417 
G01 X-1.7518 Y0.1421 
G01 X-1.7482 Y0.1421 
G01 X-1.7469 Y0.1415 
G01 X-1.7449 Y0.1407 
G01 X-1.7424 Y0.1382 
G01 X-1.7232 Y0.1190 
G01 X-1.6768 Y0.1190 
G01 X-1.6440 Y0.1518 
G01 X-1.6440 Y0.1982 
G01 X-1.6467 Y0.2009 
G01 X-1.6481 Y0.2042 
G01 X-1.6481 Y0.2078 
G01 X-1.6475 Y0.2091 
G01 X-1.6467 Y0.2111 
G01 X-1.6442 Y0.2136 
G01 X-1.6409 Y0.2150 
G01 X-1.6251 Y0.2150 
G01 X-1.6076 Y0.2326 
G01 X-1.6051 Y0.2350 
G01 X-1.6028 Y0.2360 
G01 X-1.6018 Y0.2364 
G01 X-1.5982 Y0.2364 
G01 X-1.5949 Y0.2350 
G01 X-1.5924 Y0.2325 
G01 X-1.5749 Y0.2150 
G01 X-1.5251 Y0.2150 
G01 X-1.4900 Y0.2501 
G01 X-1.4900 Y0.2999 
G01 X-1.5100 Y0.3199 
G01 X-1.5114 Y0.3232 
G01 X-1.5114 Y0.3268 
G01 X-1.5110 Y0.3277 
G01 X-1.5100 Y0.3301 
G01 X-1.5075 Y0.3326 
G01 X-1.4900 Y0.3501 
G01 X-1.4900 Y0.3999 
G01 X-1.5100 Y0.4199 
G01 X-1.5114 Y0.4232 
G01 X-1.5114 Y0.4268 
G01 X-1.5110 Y0.4277 
G01 X-1.5100 Y0.4301 
G01 X-1.5075 Y0.4326 
G01 X-1.4900 Y0.4501 
G01 X-1.4900 Y0.4999 
G01 X-1.5136 Y0.5235 
G01 X-1.5150 Y0.5268 
G01 X-1.5150 Y0.5803 
G01 X-1.5136 Y0.5836 
G01 X-1.5111 Y0.5861 
G01 X-1.4950 Y0.6022 
G01 X-1.4950 Y0.6478 
G01 X-1.5134 Y0.6662 
G01 X-1.5148 Y0.6695 
G01 X-1.5161 Y0.6727 
G01 X-1.5273 Y0.6839 
G01 X-1.5394 Y0.6889 
G01 X-1.5419 Y0.6914 
G01 X-1.5636 Y0.7131 
G01 X-1.5650 Y0.7164 
G01 X-1.5650 Y0.9086 
G01 X-1.5636 Y0.9119 
G01 X-1.5203 Y0.9552 
G01 X-1.5150 Y0.9680 
G01 X-1.5150 Y1.1232 
G01 X-1.5136 Y1.1265 
G01 X-1.5111 Y1.1290 
G01 X-1.4900 Y1.1501 
G01 X-1.4900 Y1.1999 
G01 X-1.5100 Y1.2199 
G01 X-1.5114 Y1.2232 
G01 X-1.5114 Y1.2268 
G01 X-1.5110 Y1.2277 
G01 X-1.5100 Y1.2301 
G01 X-1.5075 Y1.2326 
G01 X-1.4900 Y1.2501 
G01 X-1.4900 Y1.2999 
G01 X-1.5100 Y1.3199 
G01 X-1.5114 Y1.3232 
G01 X-1.5114 Y1.3268 
G01 X-1.5110 Y1.3277 
G01 X-1.5100 Y1.3301 
G01 X-1.5075 Y1.3326 
G01 X-1.4900 Y1.3501 
G01 X-1.4900 Y1.3999 
G01 X-1.5136 Y1.4235 
G01 X-1.5150 Y1.4268 
G01 X-1.5150 Y1.4803 
G01 X-1.5136 Y1.4836 
G01 X-1.5111 Y1.4861 
G01 X-1.5034 Y1.4938 
G01 X-1.4950 Y1.5141 
G01 X-1.4950 Y1.5359 
G01 X-1.5034 Y1.5562 
G01 X-1.5188 Y1.5716 
G01 X-1.5391 Y1.5800 
G01 X-1.5609 Y1.5800 
G01 X-1.5812 Y1.5716 
G01 X-1.5966 Y1.5562 
G01 X-1.6050 Y1.5359 
G01 X-1.6050 Y1.5141 
G01 X-1.5966 Y1.4938 
G01 X-1.5889 Y1.4861 
G01 X-1.5866 Y1.4838 
G01 X-1.5864 Y1.4836 
G01 X-1.5850 Y1.4803 
G01 X-1.5850 Y1.4268 
G01 X-1.5864 Y1.4235 
G01 X-1.5889 Y1.4210 
G01 X-1.5930 Y1.4169 
G01 X-1.5949 Y1.4150 
G01 X-1.5981 Y1.4136 
G01 X-1.6018 Y1.4136 
G01 X-1.6051 Y1.4150 
G01 X-1.6076 Y1.4175 
G01 X-1.6251 Y1.4350 
G01 X-1.6749 Y1.4350 
G01 X-1.6935 Y1.4164 
G01 X-1.6968 Y1.4150 
G01 X-1.7571 Y1.4150 
G01 X-1.7589 Y1.4150 
G01 X-1.7603 Y1.4156 
G01 X-1.7622 Y1.4164 
G01 X-1.7631 Y1.4173 
G01 X-1.7632 Y1.4174 
G01 X-1.7639 Y1.4181 
G01 X-1.7657 Y1.4199 
G01 X-1.7662 Y1.4210 
G01 X-1.7671 Y1.4232 
G01 X-1.7671 Y1.4250 
G01 X-1.7671 Y1.4268 
G01 X-1.7665 Y1.4282 
G01 X-1.7657 Y1.4301 
G01 X-1.7649 Y1.4309 
G01 X-1.7632 Y1.4326 
G01 X-1.7525 Y1.4433 
G01 X-1.7440 Y1.4639 
G01 X-1.7440 Y1.4861 
G01 X-1.7525 Y1.5067 
G01 X-1.7636 Y1.5178 
G01 X-1.7650 Y1.5211 
G01 X-1.7650 Y1.5289 
G01 X-1.7636 Y1.5322 
G01 X-1.7611 Y1.5347 
G01 X-1.7525 Y1.5433 
G01 X-1.7440 Y1.5639 
G01 X-1.7440 Y1.5861 
G01 X-1.7525 Y1.6067 
G01 X-1.7632 Y1.6174 
G01 X-1.7655 Y1.6197 
G01 X-1.7657 Y1.6199 
G01 X-1.7671 Y1.6232 
G01 X-1.7671 Y1.6268 
G01 X-1.7665 Y1.6281 
G01 X-1.7657 Y1.6301 
G01 X-1.7632 Y1.6326 
G01 X-1.7622 Y1.6336 
G01 X-1.7589 Y1.6350 
G01 X-1.7420 Y1.6350 
G01 X-1.7273 Y1.6411 
G01 X-1.6773 Y1.6911 
G01 X-1.6661 Y1.7023 
G01 X-1.6600 Y1.7170 
G01 X-1.6600 Y1.8330 
G01 X-1.6661 Y1.8477 
G01 X-1.7161 Y1.8977 
G01 X-1.7194 Y1.9010 
G01 X-1.8806 Y1.9010 
G01 X-2.0227 Y1.7589 
G01 X-2.0339 Y1.7477 
G01 X-2.0400 Y1.7330 
G01 X-2.0400 Y1.5435 
G01 X-2.0414 Y1.5402 
G01 X-2.0439 Y1.5377 
G01 X-2.0652 Y1.5164 
G01 X-2.0685 Y1.5150 
G01 X-2.0782 Y1.5150 
G01 X-2.0815 Y1.5164 
G01 X-2.0840 Y1.5189 
G01 X-2.0850 Y1.5199 
G01 X-2.0864 Y1.5232 
G01 X-2.0864 Y1.5268 
G01 X-2.0850 Y1.5301 
G01 X-2.0825 Y1.5326 
G01 X-2.0741 Y1.5410 
G01 X-2.0650 Y1.5631 
G01 X-2.0650 Y1.5869 
G01 X-2.0741 Y1.6090 
G01 X-2.0825 Y1.6174 
G01 X-2.0848 Y1.6197 
G01 X-2.0850 Y1.6199 
G01 X-2.0864 Y1.6232 
G01 X-2.0864 Y1.6268 
G01 X-2.0859 Y1.6281 
G01 X-2.0850 Y1.6301 
G01 X-2.0825 Y1.6326 
G01 X-2.0741 Y1.6410 
G01 X-2.0650 Y1.6631 
G01 X-2.0650 Y1.6869 
G01 X-2.0741 Y1.7090 
G01 X-2.0910 Y1.7259 
G01 X-2.0914 Y1.7260 
G01 X-2.0930 Y1.7267 
G01 X-2.0942 Y1.7279 
G01 X-2.0955 Y1.7292 
G01 X-2.0961 Y1.7305 
G01 X-2.0969 Y1.7325 
G01 X-2.0969 Y1.7343 
G01 X-2.0969 Y1.7361 
G01 X-2.0963 Y1.7376 
G01 X-2.0955 Y1.7394 
G01 X-2.0943 Y1.7407 
G01 X-2.0930 Y1.7419 
G01 X-2.0899 Y1.7450 
G01 X-2.0857 Y1.7509 
G01 X-2.0856 Y1.7510 
G01 X-2.0881 Y1.7510 
G01 X-2.0914 Y1.7463 
G01 X-2.0963 Y1.7414 
G01 X-2.1019 Y1.7374 
G01 X-2.1081 Y1.7342 
G01 X-2.1147 Y1.7321 
G01 X-2.1215 Y1.7310 
G01 X-2.1285 Y1.7310 
G01 X-2.1353 Y1.7321 
G01 X-2.1419 Y1.7342 
G01 X-2.1481 Y1.7374 
G01 X-2.1537 Y1.7414 
G01 X-2.1586 Y1.7463 
G01 X-2.1626 Y1.7519 
G01 X-2.1658 Y1.7581 
G01 X-2.1679 Y1.7647 
G01 X-2.1690 Y1.7715 
G01 X-2.1690 Y1.7785 
G01 X-2.1679 Y1.7853 
G01 X-2.1658 Y1.7919 
G01 X-2.1626 Y1.7981 
G01 X-2.1586 Y1.8037 
G01 X-2.1537 Y1.8086 
G01 X-2.1481 Y1.8126 
G01 X-2.1419 Y1.8158 
G01 X-2.1353 Y1.8179 
G01 X-2.1285 Y1.8190 
G01 X-2.1215 Y1.8190 
G01 X-2.1147 Y1.8179 
G01 X-2.1081 Y1.8158 
G01 X-2.1019 Y1.8126 
G01 X-2.0963 Y1.8086 
G01 X-2.0914 Y1.8037 
G01 X-2.0881 Y1.7990 
G01 X-2.0856 Y1.7990 
G01 X-2.0857 Y1.7991 
G01 X-2.0899 Y1.8050 
G01 X-2.0930 Y1.8081 
G01 X-2.0942 Y1.8093 
G01 X-2.0955 Y1.8106 
G01 X-2.0963 Y1.8123 
G01 X-2.0969 Y1.8139 
G01 X-2.0969 Y1.8157 
G01 X-2.0969 Y1.8175 
G01 X-2.0961 Y1.8193 
G01 X-2.0955 Y1.8208 
G01 X-2.0943 Y1.8220 
G01 X-2.0930 Y1.8233 
G01 X-2.0914 Y1.8240 
G01 X-2.0910 Y1.8241 
G01 X-2.0741 Y1.8410 
G01 X-2.0650 Y1.8631 
G01 X-2.0650 Y1.8869 
G01 X-2.0741 Y1.9090 
G01 X-2.0910 Y1.9259 
G01 X-2.1131 Y1.9350 
G01 X-2.1369 Y1.9350 
G01 X-2.1590 Y1.9259 
G01 X-2.1684 Y1.9165 
G01 X-2.1707 Y1.9142 
G01 X-2.1709 Y1.9140 
G01 X-2.1742 Y1.9126 
G01 X-2.1778 Y1.9126 
G01 X-2.1791 Y1.9131 
G01 X-2.1811 Y1.9140 
G01 X-2.1836 Y1.9165 
G01 X-2.1850 Y1.9198 
G01 X-2.1850 Y2.1262 
G01 X-2.1852 Y2.1268 
G01 X-2.1850 Y2.1280 
G01 X-2.1850 Y2.1292 
G01 X-2.1848 Y2.1298 
G01 X-2.1847 Y2.1304 
G01 X-2.1841 Y2.1314 
G01 X-2.1836 Y2.1325 
G01 X-2.1832 Y2.1330 
G01 X-2.1829 Y2.1335 
G01 X-2.1819 Y2.1342 
G01 X-2.1811 Y2.1351 
G01 X-2.1805 Y2.1353 
G01 X-2.1801 Y2.1357 
G01 X-2.1789 Y2.1360 
G01 X-2.1778 Y2.1364 
G01 X-2.1772 Y2.1364 
G01 X-2.1766 Y2.1366 
G01 X-2.1754 Y2.1364 
G01 X-2.1742 Y2.1364 
G01 X-2.1737 Y2.1362 
G01 X-2.1731 Y2.1361 
G01 X-2.1720 Y2.1355 
G01 X-2.1709 Y2.1351 
G01 X-2.1705 Y2.1346 
G01 X-2.1640 Y2.1309 
G01 X-2.1383 Y2.1240 
G01 X-2.1117 Y2.1240 
G01 X-2.0860 Y2.1309 
G01 X-2.0630 Y2.1442 
G01 X-2.0442 Y2.1630 
G01 X-2.0309 Y2.1860 
G01 X-2.0240 Y2.2117 
G01 X-2.0240 Y2.2383 
G01 X-2.0309 Y2.2640 
G01 X-2.0442 Y2.2870 
G01 X-2.0630 Y2.3058 
G01 X-2.0860 Y2.3191 
G01 X-2.1117 Y2.3260 
G01 X-2.1383 Y2.3260 
G01 X-2.1640 Y2.3191 
G01 X-2.1705 Y2.3154 
G01 X-2.1709 Y2.3149 
G01 X-2.1720 Y2.3145 
G01 X-2.1731 Y2.3139 
G01 X-2.1737 Y2.3138 
G01 X-2.1742 Y2.3136 
G01 X-2.1754 Y2.3136 
G01 X-2.1766 Y2.3134 
G01 X-2.1772 Y2.3136 
G01 X-2.1778 Y2.3136 
G01 X-2.1789 Y2.3140 
G01 X-2.1801 Y2.3143 
G01 X-2.1805 Y2.3147 
G01 X-2.1811 Y2.3149 
G01 X-2.1819 Y2.3158 
G01 X-2.1829 Y2.3165 
G01 X-2.1832 Y2.3170 
G01 X-2.1836 Y2.3175 
G01 X-2.1841 Y2.3186 
G01 X-2.1847 Y2.3196 
G01 X-2.1848 Y2.3202 
G01 X-2.1850 Y2.3208 
G01 X-2.1850 Y2.3220 
G01 X-2.1852 Y2.3232 
G01 X-2.1850 Y2.3238 
G01 X-2.1850 Y2.3589 
G01 X-2.1836 Y2.3622 
G01 X-2.1811 Y2.3647 
G01 X-2.1690 Y2.3768 
G01 X-2.1690 Y2.4232 
G01 X-2.1811 Y2.4353 
G01 X-2.1833 Y2.4375 
G01 X-2.1836 Y2.4378 
G01 X-2.1850 Y2.4411 
G01 X-2.1850 Y2.5065 
G01 X-2.1836 Y2.5098 
G01 X-2.1811 Y2.5123 
G01 X-2.0848 Y2.6086 
G01 X-2.0815 Y2.6100 
G01 X-2.0360 Y2.6100 
G01 X-2.0327 Y2.6086 
G01 X-2.0302 Y2.6061 
G01 X-2.0235 Y2.5994 
G01 X-2.0211 Y2.5984 
G01 X-2.0186 Y2.5959 
G01 X-2.0178 Y2.5940 
G01 X-2.0172 Y2.5926 
G01 X-2.0172 Y2.5890 
G01 X-2.0176 Y2.5881 
G01 X-2.0186 Y2.5857 
G01 X-2.0211 Y2.5832 
G01 X-2.0245 Y2.5798 
G01 X-2.0287 Y2.5740 
G01 X-2.0262 Y2.5740 
G01 X-2.0230 Y2.5785 
G01 X-2.0181 Y2.5833 
G01 X-2.0126 Y2.5874 
G01 X-2.0065 Y2.5905 
G01 X-1.9999 Y2.5926 
G01 X-1.9931 Y2.5937 
G01 X-1.9069 Y2.5937 
G01 X-1.9001 Y2.5926 
G01 X-1.8935 Y2.5905 
G01 X-1.8874 Y2.5874 
G01 X-1.8819 Y2.5833 
G01 X-1.8770 Y2.5785 
G01 X-1.8730 Y2.5729 
G01 X-1.8698 Y2.5668 
G01 X-1.8689 Y2.5638 
G01 X-1.8668 Y2.5638 
G01 X-1.8680 Y2.5675 
G00 Z0.1000 
G00 X-1.9069 Y2.6063 
G01 Z-0.0040 F10.00 
G01 X-1.9931 Y2.6063 F10.00 
G01 X-1.9999 Y2.6074 
G01 X-2.0065 Y2.6095 
G01 X-2.0126 Y2.6126 
G01 X-2.0181 Y2.6167 
G01 X-2.0230 Y2.6215 
G01 X-2.0262 Y2.6260 
G01 X-2.0901 Y2.6260 
G01 X-2.2010 Y2.5151 
G01 X-2.2010 Y2.4326 
G01 X-2.1850 Y2.4166 
G01 X-2.1850 Y2.3834 
G01 X-2.2010 Y2.3674 
G01 X-2.2010 Y0.7849 
G01 X-2.1651 Y0.7490 
G01 X-2.1619 Y0.7490 
G01 X-2.1586 Y0.7537 
G01 X-2.1537 Y0.7586 
G01 X-2.1481 Y0.7626 
G01 X-2.1419 Y0.7658 
G01 X-2.1353 Y0.7679 
G01 X-2.1285 Y0.7690 
G01 X-2.1215 Y0.7690 
G01 X-2.1147 Y0.7679 
G01 X-2.1081 Y0.7658 
G01 X-2.1019 Y0.7626 
G01 X-2.0963 Y0.7586 
G01 X-2.0914 Y0.7537 
G01 X-2.0874 Y0.7481 
G01 X-2.0842 Y0.7419 
G01 X-2.0821 Y0.7353 
G01 X-2.0810 Y0.7285 
G01 X-2.0810 Y0.7215 
G01 X-2.0821 Y0.7147 
G01 X-2.0842 Y0.7081 
G01 X-2.0874 Y0.7019 
G01 X-2.0914 Y0.6963 
G01 X-2.0963 Y0.6914 
G01 X-2.1019 Y0.6874 
G01 X-2.1081 Y0.6842 
G01 X-2.1147 Y0.6821 
G01 X-2.1215 Y0.6810 
G01 X-2.1285 Y0.6810 
G01 X-2.1353 Y0.6821 
G01 X-2.1419 Y0.6842 
G01 X-2.1481 Y0.6874 
G01 X-2.1537 Y0.6914 
G01 X-2.1586 Y0.6963 
G01 X-2.1619 Y0.7010 
G01 X-2.1774 Y0.7010 
G01 X-2.1820 Y0.7019 
G01 X-2.1864 Y0.7037 
G01 X-2.1903 Y0.7064 
G01 X-2.1936 Y0.7097 
G01 X-2.2436 Y0.7597 
G01 X-2.2463 Y0.7636 
G01 X-2.2481 Y0.7680 
G01 X-2.2490 Y0.7726 
G01 X-2.2490 Y2.3674 
G01 X-2.2650 Y2.3834 
G01 X-2.2650 Y2.4166 
G01 X-2.2490 Y2.4326 
G01 X-2.2490 Y2.5274 
G01 X-2.2481 Y2.5320 
G01 X-2.2463 Y2.5364 
G01 X-2.2436 Y2.5403 
G01 X-2.1186 Y2.6653 
G01 X-2.1153 Y2.6686 
G01 X-2.1114 Y2.6713 
G01 X-2.1070 Y2.6731 
G01 X-2.1024 Y2.6740 
G01 X-2.0262 Y2.6740 
G01 X-2.0230 Y2.6785 
G01 X-2.0181 Y2.6833 
G01 X-2.0126 Y2.6874 
G01 X-2.0065 Y2.6905 
G01 X-1.9999 Y2.6926 
G01 X-1.9931 Y2.6937 
G01 X-1.9069 Y2.6937 
G01 X-1.9001 Y2.6926 
G01 X-1.8935 Y2.6905 
G01 X-1.8874 Y2.6874 
G01 X-1.8819 Y2.6833 
G01 X-1.8770 Y2.6785 
G01 X-1.8730 Y2.6729 
G01 X-1.8698 Y2.6668 
G01 X-1.8677 Y2.6602 
G01 X-1.8666 Y2.6534 
G01 X-1.8666 Y2.6466 
G01 X-1.8677 Y2.6398 
G01 X-1.8698 Y2.6332 
G01 X-1.8730 Y2.6271 
G01 X-1.8770 Y2.6215 
G01 X-1.8819 Y2.6167 
G01 X-1.8874 Y2.6126 
G01 X-1.8935 Y2.6095 
G01 X-1.9001 Y2.6074 
G01 X-1.9069 Y2.6063 
G00 Z0.1000 
G00 X-2.1690 Y1.8715 
G01 Z-0.0040 F10.00 
G01 X-2.1690 Y1.8785 F10.00 
G01 X-2.1679 Y1.8853 
G01 X-2.1658 Y1.8919 
G01 X-2.1626 Y1.8981 
G01 X-2.1586 Y1.9037 
G01 X-2.1537 Y1.9086 
G01 X-2.1481 Y1.9126 
G01 X-2.1419 Y1.9158 
G01 X-2.1353 Y1.9179 
G01 X-2.1285 Y1.9190 
G01 X-2.1215 Y1.9190 
G01 X-2.1147 Y1.9179 
G01 X-2.1081 Y1.9158 
G01 X-2.1019 Y1.9126 
G01 X-2.0963 Y1.9086 
G01 X-2.0914 Y1.9037 
G01 X-2.0874 Y1.8981 
G01 X-2.0842 Y1.8919 
G01 X-2.0821 Y1.8853 
G01 X-2.0810 Y1.8785 
G01 X-2.0810 Y1.8715 
G01 X-2.0821 Y1.8647 
G01 X-2.0842 Y1.8581 
G01 X-2.0874 Y1.8519 
G01 X-2.0914 Y1.8463 
G01 X-2.0963 Y1.8414 
G01 X-2.1019 Y1.8374 
G01 X-2.1081 Y1.8342 
G01 X-2.1147 Y1.8321 
G01 X-2.1215 Y1.8310 
G01 X-2.1285 Y1.8310 
G01 X-2.1353 Y1.8321 
G01 X-2.1419 Y1.8342 
G01 X-2.1481 Y1.8374 
G01 X-2.1537 Y1.8414 
G01 X-2.1586 Y1.8463 
G01 X-2.1626 Y1.8519 
G01 X-2.1658 Y1.8581 
G01 X-2.1679 Y1.8647 
G01 X-2.1690 Y1.8715 
G00 Z0.1000 
G00 X-2.1690 Y1.6715 
G01 Z-0.0040 F10.00 
G01 X-2.1690 Y1.6785 F10.00 
G01 X-2.1679 Y1.6853 
G01 X-2.1658 Y1.6919 
G01 X-2.1626 Y1.6981 
G01 X-2.1586 Y1.7037 
G01 X-2.1537 Y1.7086 
G01 X-2.1481 Y1.7126 
G01 X-2.1419 Y1.7158 
G01 X-2.1353 Y1.7179 
G01 X-2.1285 Y1.7190 
G01 X-2.1215 Y1.7190 
G01 X-2.1147 Y1.7179 
G01 X-2.1081 Y1.7158 
G01 X-2.1019 Y1.7126 
G01 X-2.0963 Y1.7086 
G01 X-2.0914 Y1.7037 
G01 X-2.0874 Y1.6981 
G01 X-2.0842 Y1.6919 
G01 X-2.0821 Y1.6853 
G01 X-2.0810 Y1.6785 
G01 X-2.0810 Y1.6715 
G01 X-2.0821 Y1.6647 
G01 X-2.0842 Y1.6581 
G01 X-2.0874 Y1.6519 
G01 X-2.0914 Y1.6463 
G01 X-2.0963 Y1.6414 
G01 X-2.1019 Y1.6374 
G01 X-2.1081 Y1.6342 
G01 X-2.1147 Y1.6321 
G01 X-2.1215 Y1.6310 
G01 X-2.1285 Y1.6310 
G01 X-2.1353 Y1.6321 
G01 X-2.1419 Y1.6342 
G01 X-2.1481 Y1.6374 
G01 X-2.1537 Y1.6414 
G01 X-2.1586 Y1.6463 
G01 X-2.1626 Y1.6519 
G01 X-2.1658 Y1.6581 
G01 X-2.1679 Y1.6647 
G01 X-2.1690 Y1.6715 
G00 Z0.1000 
G00 X-2.1690 Y1.5715 
G01 Z-0.0040 F10.00 
G01 X-2.1690 Y1.5785 F10.00 
G01 X-2.1679 Y1.5853 
G01 X-2.1658 Y1.5919 
G01 X-2.1626 Y1.5981 
G01 X-2.1586 Y1.6037 
G01 X-2.1537 Y1.6086 
G01 X-2.1481 Y1.6126 
G01 X-2.1419 Y1.6158 
G01 X-2.1353 Y1.6179 
G01 X-2.1285 Y1.6190 
G01 X-2.1215 Y1.6190 
G01 X-2.1147 Y1.6179 
G01 X-2.1081 Y1.6158 
G01 X-2.1019 Y1.6126 
G01 X-2.0963 Y1.6086 
G01 X-2.0914 Y1.6037 
G01 X-2.0874 Y1.5981 
G01 X-2.0842 Y1.5919 
G01 X-2.0821 Y1.5853 
G01 X-2.0810 Y1.5785 
G01 X-2.0810 Y1.5715 
G01 X-2.0821 Y1.5647 
G01 X-2.0842 Y1.5581 
G01 X-2.0874 Y1.5519 
G01 X-2.0914 Y1.5463 
G01 X-2.0963 Y1.5414 
G01 X-2.1019 Y1.5374 
G01 X-2.1081 Y1.5342 
G01 X-2.1147 Y1.5321 
G01 X-2.1215 Y1.5310 
G01 X-2.1285 Y1.5310 
G01 X-2.1353 Y1.5321 
G01 X-2.1419 Y1.5342 
G01 X-2.1481 Y1.5374 
G01 X-2.1537 Y1.5414 
G01 X-2.1586 Y1.5463 
G01 X-2.1626 Y1.5519 
G01 X-2.1658 Y1.5581 
G01 X-2.1679 Y1.5647 
G01 X-2.1690 Y1.5715 
G00 Z0.1000 
G00 X-2.1690 Y1.3715 
G01 Z-0.0040 F10.00 
G01 X-2.1690 Y1.3785 F10.00 
G01 X-2.1679 Y1.3853 
G01 X-2.1658 Y1.3919 
G01 X-2.1626 Y1.3981 
G01 X-2.1586 Y1.4037 
G01 X-2.1537 Y1.4086 
G01 X-2.1481 Y1.4126 
G01 X-2.1419 Y1.4158 
G01 X-2.1353 Y1.4179 
G01 X-2.1285 Y1.4190 
G01 X-2.1215 Y1.4190 
G01 X-2.1147 Y1.4179 
G01 X-2.1081 Y1.4158 
G01 X-2.1019 Y1.4126 
G01 X-2.0963 Y1.4086 
G01 X-2.0914 Y1.4037 
G01 X-2.0881 Y1.3990 
G01 X-2.0099 Y1.3990 
G01 X-1.9240 Y1.4849 
G01 X-1.9240 Y1.7274 
G01 X-1.9231 Y1.7320 
G01 X-1.9213 Y1.7364 
G01 X-1.9186 Y1.7403 
G01 X-1.9153 Y1.7436 
G01 X-1.8653 Y1.7936 
G01 X-1.8614 Y1.7963 
G01 X-1.8570 Y1.7981 
G01 X-1.8524 Y1.7990 
G01 X-1.8321 Y1.7990 
G01 X-1.8311 Y1.8005 
G01 X-1.8255 Y1.8061 
G01 X-1.8189 Y1.8104 
G01 X-1.8117 Y1.8135 
G01 X-1.8039 Y1.8150 
G01 X-1.7961 Y1.8150 
G01 X-1.7883 Y1.8135 
G01 X-1.7811 Y1.8104 
G01 X-1.7745 Y1.8061 
G01 X-1.7689 Y1.8005 
G01 X-1.7646 Y1.7939 
G01 X-1.7615 Y1.7867 
G01 X-1.7600 Y1.7789 
G01 X-1.7600 Y1.7711 
G01 X-1.7615 Y1.7633 
G01 X-1.7646 Y1.7561 
G01 X-1.7689 Y1.7495 
G01 X-1.7745 Y1.7439 
G01 X-1.7811 Y1.7396 
G01 X-1.7883 Y1.7365 
G01 X-1.7961 Y1.7350 
G01 X-1.8039 Y1.7350 
G01 X-1.8117 Y1.7365 
G01 X-1.8189 Y1.7396 
G01 X-1.8255 Y1.7439 
G01 X-1.8311 Y1.7495 
G01 X-1.8321 Y1.7510 
G01 X-1.8401 Y1.7510 
G01 X-1.8760 Y1.7151 
G01 X-1.8760 Y1.4726 
G01 X-1.8769 Y1.4680 
G01 X-1.8787 Y1.4636 
G01 X-1.8814 Y1.4597 
G01 X-1.9814 Y1.3597 
G01 X-1.9847 Y1.3564 
G01 X-1.9886 Y1.3537 
G01 X-1.9930 Y1.3519 
G01 X-1.9976 Y1.3510 
G01 X-2.0881 Y1.3510 
G01 X-2.0914 Y1.3463 
G01 X-2.0963 Y1.3414 
G01 X-2.1019 Y1.3374 
G01 X-2.1081 Y1.3342 
G01 X-2.1147 Y1.3321 
G01 X-2.1215 Y1.3310 
G01 X-2.1285 Y1.3310 
G01 X-2.1353 Y1.3321 
G01 X-2.1419 Y1.3342 
G01 X-2.1481 Y1.3374 
G01 X-2.1537 Y1.3414 
G01 X-2.1586 Y1.3463 
G01 X-2.1626 Y1.3519 
G01 X-2.1658 Y1.3581 
G01 X-2.1679 Y1.3647 
G01 X-2.1690 Y1.3715 
G00 Z0.1000 
G00 X-2.1690 Y1.1715 
G01 Z-0.0040 F10.00 
G01 X-2.1690 Y1.1785 F10.00 
G01 X-2.1679 Y1.1853 
G01 X-2.1658 Y1.1919 
G01 X-2.1626 Y1.1981 
G01 X-2.1586 Y1.2037 
G01 X-2.1537 Y1.2086 
G01 X-2.1481 Y1.2126 
G01 X-2.1419 Y1.2158 
G01 X-2.1353 Y1.2179 
G01 X-2.1285 Y1.2190 
G01 X-2.1215 Y1.2190 
G01 X-2.1147 Y1.2179 
G01 X-2.1081 Y1.2158 
G01 X-2.1019 Y1.2126 
G01 X-2.0963 Y1.2086 
G01 X-2.0914 Y1.2037 
G01 X-2.0881 Y1.1990 
G01 X-2.0226 Y1.1990 
G01 X-2.0180 Y1.1981 
G01 X-2.0136 Y1.1963 
G01 X-2.0097 Y1.1936 
G01 X-2.0064 Y1.1903 
G01 X-1.8151 Y0.9990 
G01 X-1.7726 Y0.9990 
G01 X-1.7680 Y0.9981 
G01 X-1.7636 Y0.9963 
G01 X-1.7597 Y0.9936 
G01 X-1.7564 Y0.9903 
G01 X-1.6814 Y0.9153 
G01 X-1.6787 Y0.9114 
G01 X-1.6769 Y0.9070 
G01 X-1.6760 Y0.9024 
G01 X-1.6760 Y0.8226 
G01 X-1.6769 Y0.8180 
G01 X-1.6787 Y0.8136 
G01 X-1.6814 Y0.8097 
G01 X-1.6847 Y0.8064 
G01 X-1.7347 Y0.7564 
G01 X-1.7386 Y0.7537 
G01 X-1.7430 Y0.7519 
G01 X-1.7476 Y0.7510 
G01 X-1.7679 Y0.7510 
G01 X-1.7689 Y0.7495 
G01 X-1.7745 Y0.7439 
G01 X-1.7811 Y0.7396 
G01 X-1.7883 Y0.7365 
G01 X-1.7961 Y0.7350 
G01 X-1.8039 Y0.7350 
G01 X-1.8117 Y0.7365 
G01 X-1.8189 Y0.7396 
G01 X-1.8255 Y0.7439 
G01 X-1.8311 Y0.7495 
G01 X-1.8354 Y0.7561 
G01 X-1.8385 Y0.7633 
G01 X-1.8400 Y0.7711 
G01 X-1.8400 Y0.7789 
G01 X-1.8385 Y0.7867 
G01 X-1.8354 Y0.7939 
G01 X-1.8311 Y0.8005 
G01 X-1.8255 Y0.8061 
G01 X-1.8189 Y0.8104 
G01 X-1.8117 Y0.8135 
G01 X-1.8039 Y0.8150 
G01 X-1.7961 Y0.8150 
G01 X-1.7883 Y0.8135 
G01 X-1.7811 Y0.8104 
G01 X-1.7745 Y0.8061 
G01 X-1.7689 Y0.8005 
G01 X-1.7679 Y0.7990 
G01 X-1.7599 Y0.7990 
G01 X-1.7240 Y0.8349 
G01 X-1.7240 Y0.8901 
G01 X-1.7849 Y0.9510 
G01 X-1.8274 Y0.9510 
G01 X-1.8320 Y0.9519 
G01 X-1.8364 Y0.9537 
G01 X-1.8403 Y0.9564 
G01 X-2.0349 Y1.1510 
G01 X-2.0881 Y1.1510 
G01 X-2.0914 Y1.1463 
G01 X-2.0963 Y1.1414 
G01 X-2.1019 Y1.1374 
G01 X-2.1081 Y1.1342 
G01 X-2.1147 Y1.1321 
G01 X-2.1215 Y1.1310 
G01 X-2.1285 Y1.1310 
G01 X-2.1353 Y1.1321 
G01 X-2.1419 Y1.1342 
G01 X-2.1481 Y1.1374 
G01 X-2.1537 Y1.1414 
G01 X-2.1586 Y1.1463 
G01 X-2.1626 Y1.1519 
G01 X-2.1658 Y1.1581 
G01 X-2.1679 Y1.1647 
G01 X-2.1690 Y1.1715 
G00 Z0.1000 
G00 X-2.1690 Y0.9215 
G01 Z-0.0040 F10.00 
G01 X-2.1690 Y0.9285 F10.00 
G01 X-2.1679 Y0.9353 
G01 X-2.1658 Y0.9419 
G01 X-2.1626 Y0.9481 
G01 X-2.1586 Y0.9537 
G01 X-2.1537 Y0.9586 
G01 X-2.1481 Y0.9626 
G01 X-2.1419 Y0.9658 
G01 X-2.1353 Y0.9679 
G01 X-2.1285 Y0.9690 
G01 X-2.1215 Y0.9690 
G01 X-2.1147 Y0.9679 
G01 X-2.1081 Y0.9658 
G01 X-2.1019 Y0.9626 
G01 X-2.0963 Y0.9586 
G01 X-2.0958 Y0.9580 
G01 X-2.0935 Y0.9596 
G01 X-2.0864 Y0.9625 
G01 X-2.0788 Y0.9640 
G01 X-2.0712 Y0.9640 
G01 X-2.0636 Y0.9625 
G01 X-2.0565 Y0.9596 
G01 X-2.0501 Y0.9553 
G01 X-2.0447 Y0.9499 
G01 X-2.0404 Y0.9435 
G01 X-2.0375 Y0.9364 
G01 X-2.0360 Y0.9288 
G01 X-2.0360 Y0.9212 
G01 X-2.0375 Y0.9136 
G01 X-2.0404 Y0.9065 
G01 X-2.0447 Y0.9001 
G01 X-2.0501 Y0.8947 
G01 X-2.0565 Y0.8904 
G01 X-2.0636 Y0.8875 
G01 X-2.0712 Y0.8860 
G01 X-2.0788 Y0.8860 
G01 X-2.0864 Y0.8875 
G01 X-2.0935 Y0.8904 
G01 X-2.0958 Y0.8920 
G01 X-2.0963 Y0.8914 
G01 X-2.1019 Y0.8874 
G01 X-2.1081 Y0.8842 
G01 X-2.1147 Y0.8821 
G01 X-2.1215 Y0.8810 
G01 X-2.1285 Y0.8810 
G01 X-2.1353 Y0.8821 
G01 X-2.1419 Y0.8842 
G01 X-2.1481 Y0.8874 
G01 X-2.1537 Y0.8914 
G01 X-2.1586 Y0.8963 
G01 X-2.1626 Y0.9019 
G01 X-2.1658 Y0.9081 
G01 X-2.1679 Y0.9147 
G01 X-2.1690 Y0.9215 
G00 Z0.1000 
G00 X-2.1690 Y0.8215 
G01 Z-0.0040 F10.00 
G01 X-2.1690 Y0.8285 F10.00 
G01 X-2.1679 Y0.8353 
G01 X-2.1658 Y0.8419 
G01 X-2.1626 Y0.8481 
G01 X-2.1586 Y0.8537 
G01 X-2.1537 Y0.8586 
G01 X-2.1481 Y0.8626 
G01 X-2.1419 Y0.8658 
G01 X-2.1353 Y0.8679 
G01 X-2.1285 Y0.8690 
G01 X-2.1215 Y0.8690 
G01 X-2.1147 Y0.8679 
G01 X-2.1081 Y0.8658 
G01 X-2.1019 Y0.8626 
G01 X-2.0963 Y0.8586 
G01 X-2.0914 Y0.8537 
G01 X-2.0874 Y0.8481 
G01 X-2.0842 Y0.8419 
G01 X-2.0821 Y0.8353 
G01 X-2.0810 Y0.8285 
G01 X-2.0810 Y0.8215 
G01 X-2.0821 Y0.8147 
G01 X-2.0842 Y0.8081 
G01 X-2.0874 Y0.8019 
G01 X-2.0914 Y0.7963 
G01 X-2.0963 Y0.7914 
G01 X-2.1019 Y0.7874 
G01 X-2.1081 Y0.7842 
G01 X-2.1147 Y0.7821 
G01 X-2.1215 Y0.7810 
G01 X-2.1285 Y0.7810 
G01 X-2.1353 Y0.7821 
G01 X-2.1419 Y0.7842 
G01 X-2.1481 Y0.7874 
G01 X-2.1537 Y0.7914 
G01 X-2.1586 Y0.7963 
G01 X-2.1626 Y0.8019 
G01 X-2.1658 Y0.8081 
G01 X-2.1679 Y0.8147 
G01 X-2.1690 Y0.8215 
G00 Z0.1000 
G00 X-2.1690 Y0.6215 
G01 Z-0.0040 F10.00 
G01 X-2.1690 Y0.6285 F10.00 
G01 X-2.1679 Y0.6353 
G01 X-2.1658 Y0.6419 
G01 X-2.1626 Y0.6481 
G01 X-2.1586 Y0.6537 
G01 X-2.1537 Y0.6586 
G01 X-2.1481 Y0.6626 
G01 X-2.1419 Y0.6658 
G01 X-2.1353 Y0.6679 
G01 X-2.1285 Y0.6690 
G01 X-2.1215 Y0.6690 
G01 X-2.1147 Y0.6679 
G01 X-2.1081 Y0.6658 
G01 X-2.1019 Y0.6626 
G01 X-2.0963 Y0.6586 
G01 X-2.0914 Y0.6537 
G01 X-2.0874 Y0.6481 
G01 X-2.0842 Y0.6419 
G01 X-2.0821 Y0.6353 
G01 X-2.0810 Y0.6285 
G01 X-2.0810 Y0.6215 
G01 X-2.0821 Y0.6147 
G01 X-2.0842 Y0.6081 
G01 X-2.0874 Y0.6019 
G01 X-2.0914 Y0.5963 
G01 X-2.0963 Y0.5914 
G01 X-2.1019 Y0.5874 
G01 X-2.1081 Y0.5842 
G01 X-2.1147 Y0.5821 
G01 X-2.1215 Y0.5810 
G01 X-2.1285 Y0.5810 
G01 X-2.1353 Y0.5821 
G01 X-2.1419 Y0.5842 
G01 X-2.1481 Y0.5874 
G01 X-2.1537 Y0.5914 
G01 X-2.1586 Y0.5963 
G01 X-2.1626 Y0.6019 
G01 X-2.1658 Y0.6081 
G01 X-2.1679 Y0.6147 
G01 X-2.1690 Y0.6215 
G00 Z0.1000 
G00 X-2.1690 Y0.5215 
G01 Z-0.0040 F10.00 
G01 X-2.1690 Y0.5285 F10.00 
G01 X-2.1679 Y0.5353 
G01 X-2.1658 Y0.5419 
G01 X-2.1626 Y0.5481 
G01 X-2.1586 Y0.5537 
G01 X-2.1537 Y0.5586 
G01 X-2.1481 Y0.5626 
G01 X-2.1419 Y0.5658 
G01 X-2.1353 Y0.5679 
G01 X-2.1285 Y0.5690 
G01 X-2.1215 Y0.5690 
G01 X-2.1147 Y0.5679 
G01 X-2.1081 Y0.5658 
G01 X-2.1019 Y0.5626 
G01 X-2.0963 Y0.5586 
G01 X-2.0914 Y0.5537 
G01 X-2.0881 Y0.5490 
G01 X-2.0533 Y0.5490 
G01 X-2.0486 Y0.5537 
G01 X-2.0425 Y0.5578 
G01 X-2.0358 Y0.5606 
G01 X-2.0286 Y0.5620 
G01 X-2.0214 Y0.5620 
G01 X-2.0142 Y0.5606 
G01 X-2.0075 Y0.5578 
G01 X-2.0014 Y0.5537 
G01 X-1.9963 Y0.5486 
G01 X-1.9922 Y0.5425 
G01 X-1.9894 Y0.5358 
G01 X-1.9880 Y0.5286 
G01 X-1.9880 Y0.5214 
G01 X-1.9894 Y0.5142 
G01 X-1.9922 Y0.5075 
G01 X-1.9963 Y0.5014 
G01 X-2.0014 Y0.4963 
G01 X-2.0075 Y0.4922 
G01 X-2.0142 Y0.4894 
G01 X-2.0214 Y0.4880 
G01 X-2.0286 Y0.4880 
G01 X-2.0358 Y0.4894 
G01 X-2.0425 Y0.4922 
G01 X-2.0486 Y0.4963 
G01 X-2.0533 Y0.5010 
G01 X-2.0881 Y0.5010 
G01 X-2.0914 Y0.4963 
G01 X-2.0963 Y0.4914 
G01 X-2.1019 Y0.4874 
G01 X-2.1081 Y0.4842 
G01 X-2.1147 Y0.4821 
G01 X-2.1215 Y0.4810 
G01 X-2.1285 Y0.4810 
G01 X-2.1353 Y0.4821 
G01 X-2.1419 Y0.4842 
G01 X-2.1481 Y0.4874 
G01 X-2.1537 Y0.4914 
G01 X-2.1586 Y0.4963 
G01 X-2.1626 Y0.5019 
G01 X-2.1658 Y0.5081 
G01 X-2.1679 Y0.5147 
G01 X-2.1690 Y0.5215 
G00 Z0.1000 
G00 X-2.1690 Y0.4215 
G01 Z-0.0040 F10.00 
G01 X-2.1690 Y0.4285 F10.00 
G01 X-2.1679 Y0.4353 
G01 X-2.1658 Y0.4419 
G01 X-2.1626 Y0.4481 
G01 X-2.1586 Y0.4537 
G01 X-2.1537 Y0.4586 
G01 X-2.1481 Y0.4626 
G01 X-2.1419 Y0.4658 
G01 X-2.1353 Y0.4679 
G01 X-2.1285 Y0.4690 
G01 X-2.1215 Y0.4690 
G01 X-2.1147 Y0.4679 
G01 X-2.1081 Y0.4658 
