(.../pcb-gcode-3.6.0.4/pcb-gcode.ulp)
(Copyright 2005 - 2012 by John Johnson)
(See readme.txt for licensing terms.)
(This file generated from the board:)
(.../FoamBot Arduino Pololu servo r1.brd)
(Current profile is .../pcb-gcode-3.6.0.4/profiles/Pololu_PCB_mill.pp  )
(This file generated 12/22/2015 3:36:38 PM)
(Settings from pcb-machine.h)
(  Tool Size)
(0.0060 )
(Z Axis Settings)
(  High     Up        Down     Drill)
(0.1500 	0.1000 	-0.0040 	-0.0800 )
(spindle on time = 1.0000)
(milling depth = -0.0050)
(text depth = -0.0050)
(tool change at 0.0000 0.0000 0.1500 )
(feed rate xy = F10.00 )
(feed rate z  = F10.00 )
(Settings from pcb-defaults.h)
(isolate min = 0.0010)
(isolate max = 0.0080)
(isolate step = 0.0070)
(Generated bottom outlines, bottom drill, )
(Unit of measure: inch)
( Tool|       Size       |  Min Sub |  Max Sub |   Count )
( T01  3.302mm 0.1300in 0.0000in 0.0000in )
( T02  0.600mm 0.0236in 0.0000in 0.0000in )
( T03  0.700mm 0.0276in 0.0000in 0.0000in )
( T04  0.813mm 0.0320in 0.0000in 0.0000in )
( T05  1.000mm 0.0394in 0.0000in 0.0000in )
( T06  1.016mm 0.0400in 0.0000in 0.0000in )
( T07  1.397mm 0.0550in 0.0000in 0.0000in )
(Inch Mode)
G20
(Absolute Coordinates)
G90
M05
G00 Z0.1500 
G00 X0.0000 Y0.0000 
M06 T01  ; 0.1300 
G01 Z0.0000 F10.00 
M06 T01  ; 0.1300 
G00 Z0.1000 
M03 S1
G04 P1.000000
G00 Z0.100000
G00 X-2.1250 Y2.2250 
G01 Z-0.0800 F10.00 
G01 Z0.100000
(R0.1000  P0.100000)
(G00 Z0.100000)
G00 X-0.4250 Y0.2250 
G01 Z-0.080000
G01 Z0.100000
M05
G00 Z0.1500 
M06 T02  ; 0.0236 
G01 Z0.0000 F10.00 
M06 T02  ; 0.0236 
G00 Z0.1000 
M03 S1
G04 P1.000000
G00 Z0.100000
G00 X-1.3750 Y1.6750 
G01 Z-0.0800 F10.00 
G01 Z0.100000
(R0.1000  P0.100000)
(G00 Z0.100000)
G00 X-1.4000 Y0.7750 
G01 Z-0.080000
G01 Z0.100000
(G00 Z0.100000)
G00 X-1.5500 Y1.5250 
G01 Z-0.080000
G01 Z0.100000
(G00 Z0.100000)
G00 X-1.5500 Y0.6250 
G01 Z-0.080000
G01 Z0.100000
(G00 Z0.100000)
G00 X-1.9000 Y0.1750 
G01 Z-0.080000
G01 Z0.100000
(G00 Z0.100000)
G00 X-2.0250 Y0.5250 
G01 Z-0.080000
G01 Z0.100000
(G00 Z0.100000)
G00 X-2.0750 Y0.9250 
G01 Z-0.080000
G01 Z0.100000
(G00 Z0.100000)
G00 X-0.6750 Y1.5250 
G01 Z-0.080000
G01 Z0.100000
(G00 Z0.100000)
G00 X-1.1250 Y0.9750 
G01 Z-0.080000
G01 Z0.100000
(G00 Z0.100000)
G00 X-1.2250 Y0.1750 
G01 Z-0.080000
G01 Z0.100000
(G00 Z0.100000)
G00 X-1.2250 Y1.0750 
G01 Z-0.080000
G01 Z0.100000
M05
G00 Z0.1500 
M06 T03  ; 0.0276 
G01 Z0.0000 F10.00 
M06 T03  ; 0.0276 
G00 Z0.1000 
M03 S1
G04 P1.000000
G00 Z0.100000
G00 X-1.0250 Y0.1750 
G01 Z-0.0800 F10.00 
G01 Z0.100000
(R0.1000  P0.100000)
(G00 Z0.100000)
G00 X-1.0250 Y1.0750 
G01 Z-0.080000
G01 Z0.100000
(G00 Z0.100000)
G00 X-1.1250 Y0.1750 
G01 Z-0.080000
G01 Z0.100000
(G00 Z0.100000)
G00 X-1.1250 Y1.0750 
G01 Z-0.080000
G01 Z0.100000
M05
G00 Z0.1500 
M06 T04  ; 0.0320 
G01 Z0.0000 F10.00 
M06 T04  ; 0.0320 
G00 Z0.1000 
M03 S1
G04 P1.000000
G00 Z0.100000
G00 X-1.3000 Y1.2750 
G01 Z-0.0800 F10.00 
G01 Z0.100000
(R0.1000  P0.100000)
(G00 Z0.100000)
G00 X-1.3000 Y1.3750 
G01 Z-0.080000
G01 Z0.100000
(G00 Z0.100000)
G00 X-1.3000 Y1.4750 
G01 Z-0.080000
G01 Z0.100000
(G00 Z0.100000)
G00 X-1.3000 Y1.5750 
G01 Z-0.080000
G01 Z0.100000
(G00 Z0.100000)
G00 X-1.3000 Y1.6750 
G01 Z-0.080000
G01 Z0.100000
(G00 Z0.100000)
G00 X-1.3000 Y0.1750 
G01 Z-0.080000
G01 Z0.100000
(G00 Z0.100000)
G00 X-1.3000 Y1.7750 
G01 Z-0.080000
G01 Z0.100000
(G00 Z0.100000)
G00 X-1.3000 Y0.2750 
G01 Z-0.080000
G01 Z0.100000
(G00 Z0.100000)
G00 X-1.3000 Y0.3750 
G01 Z-0.080000
G01 Z0.100000
(G00 Z0.100000)
G00 X-1.3000 Y0.4750 
G01 Z-0.080000
G01 Z0.100000
(G00 Z0.100000)
G00 X-1.3000 Y0.5750 
G01 Z-0.080000
G01 Z0.100000
(G00 Z0.100000)
G00 X-1.3000 Y0.6750 
G01 Z-0.080000
G01 Z0.100000
(G00 Z0.100000)
G00 X-1.3000 Y0.7750 
G01 Z-0.080000
G01 Z0.100000
(G00 Z0.100000)
G00 X-1.3000 Y0.8750 
G01 Z-0.080000
G01 Z0.100000
(G00 Z0.100000)
G00 X-1.3000 Y1.0750 
G01 Z-0.080000
G01 Z0.100000
(G00 Z0.100000)
G00 X-1.3000 Y1.1750 
G01 Z-0.080000
G01 Z0.100000
(G00 Z0.100000)
G00 X-1.4000 Y0.1750 
G01 Z-0.080000
G01 Z0.100000
(G00 Z0.100000)
G00 X-1.4000 Y1.0750 
G01 Z-0.080000
G01 Z0.100000
(G00 Z0.100000)
G00 X-1.7000 Y0.1750 
G01 Z-0.080000
G01 Z0.100000
(G00 Z0.100000)
G00 X-1.7000 Y1.0750 
G01 Z-0.080000
G01 Z0.100000
(G00 Z0.100000)
G00 X-0.1750 Y2.2250 
G01 Z-0.080000
G01 Z0.100000
(G00 Z0.100000)
G00 X-0.1750 Y2.3250 
G01 Z-0.080000
G01 Z0.100000
(G00 Z0.100000)
G00 X-0.1750 Y2.5250 
G01 Z-0.080000
G01 Z0.100000
(G00 Z0.100000)
G00 X-0.1750 Y2.6250 
G01 Z-0.080000
G01 Z0.100000
(G00 Z0.100000)
G00 X-1.8000 Y1.2750 
G01 Z-0.080000
G01 Z0.100000
(G00 Z0.100000)
G00 X-1.8000 Y1.3750 
G01 Z-0.080000
G01 Z0.100000
(G00 Z0.100000)
G00 X-1.8000 Y1.4750 
G01 Z-0.080000
G01 Z0.100000
(G00 Z0.100000)
G00 X-1.8000 Y1.5750 
G01 Z-0.080000
G01 Z0.100000
(G00 Z0.100000)
G00 X-1.8000 Y1.6750 
G01 Z-0.080000
G01 Z0.100000
(G00 Z0.100000)
G00 X-1.8000 Y0.1750 
G01 Z-0.080000
G01 Z0.100000
(G00 Z0.100000)
G00 X-1.8000 Y1.7750 
G01 Z-0.080000
G01 Z0.100000
(G00 Z0.100000)
G00 X-1.8000 Y0.2750 
G01 Z-0.080000
G01 Z0.100000
(G00 Z0.100000)
G00 X-1.8000 Y0.3750 
G01 Z-0.080000
G01 Z0.100000
(G00 Z0.100000)
G00 X-1.8000 Y0.4750 
G01 Z-0.080000
G01 Z0.100000
(G00 Z0.100000)
G00 X-1.8000 Y0.5750 
G01 Z-0.080000
G01 Z0.100000
(G00 Z0.100000)
G00 X-1.8000 Y0.6750 
G01 Z-0.080000
G01 Z0.100000
(G00 Z0.100000)
G00 X-1.8000 Y0.7750 
G01 Z-0.080000
G01 Z0.100000
(G00 Z0.100000)
G00 X-1.8000 Y0.8750 
G01 Z-0.080000
G01 Z0.100000
(G00 Z0.100000)
G00 X-1.8000 Y1.0750 
G01 Z-0.080000
G01 Z0.100000
(G00 Z0.100000)
G00 X-1.8000 Y1.1750 
G01 Z-0.080000
G01 Z0.100000
(G00 Z0.100000)
G00 X-2.2250 Y2.4000 
G01 Z-0.080000
G01 Z0.100000
(G00 Z0.100000)
G00 X-2.2250 Y2.7000 
G01 Z-0.080000
G01 Z0.100000
(G00 Z0.100000)
G00 X-1.1000 Y2.2250 
G01 Z-0.080000
G01 Z0.100000
(G00 Z0.100000)
G00 X-1.1000 Y2.6250 
G01 Z-0.080000
G01 Z0.100000
M05
G00 Z0.1500 
M06 T05  ; 0.0394 
G01 Z0.0000 F10.00 
M06 T05  ; 0.0394 
G00 Z0.1000 
M03 S1
G04 P1.000000
G00 Z0.100000
G00 X-1.2750 Y1.9750 
G01 Z-0.0800 F10.00 
G01 Z0.100000
(R0.1000  P0.100000)
(G00 Z0.100000)
G00 X-1.2750 Y2.0750 
G01 Z-0.080000
G01 Z0.100000
(G00 Z0.100000)
G00 X-1.9500 Y2.4500 
G01 Z-0.080000
G01 Z0.100000
(G00 Z0.100000)
G00 X-1.9500 Y2.5500 
G01 Z-0.080000
G01 Z0.100000
(G00 Z0.100000)
G00 X-1.9500 Y2.6500 
G01 Z-0.080000
G01 Z0.100000
M05
G00 Z0.1500 
M06 T06  ; 0.0400 
G01 Z0.0000 F10.00 
M06 T06  ; 0.0400 
G00 Z0.1000 
M03 S1
G04 P1.000000
G00 Z0.100000
G00 X-1.5500 Y1.2750 
G01 Z-0.0800 F10.00 
G01 Z0.100000
(R0.1000  P0.100000)
(G00 Z0.100000)
G00 X-1.5500 Y1.3750 
G01 Z-0.080000
G01 Z0.100000
(G00 Z0.100000)
G00 X-1.5500 Y0.2750 
G01 Z-0.080000
G01 Z0.100000
(G00 Z0.100000)
G00 X-1.5500 Y0.3750 
G01 Z-0.080000
G01 Z0.100000
(G00 Z0.100000)
G00 X-1.5500 Y0.4750 
G01 Z-0.080000
G01 Z0.100000
(G00 Z0.100000)
G00 X-1.5500 Y1.1750 
G01 Z-0.080000
G01 Z0.100000
(G00 Z0.100000)
G00 X-1.6500 Y1.2750 
G01 Z-0.080000
G01 Z0.100000
(G00 Z0.100000)
G00 X-1.6500 Y1.3750 
G01 Z-0.080000
G01 Z0.100000
(G00 Z0.100000)
G00 X-1.6500 Y0.2750 
G01 Z-0.080000
G01 Z0.100000
(G00 Z0.100000)
G00 X-1.6500 Y0.3750 
G01 Z-0.080000
G01 Z0.100000
(G00 Z0.100000)
G00 X-1.6500 Y0.4750 
G01 Z-0.080000
G01 Z0.100000
(G00 Z0.100000)
G00 X-1.6500 Y1.1750 
G01 Z-0.080000
G01 Z0.100000
(G00 Z0.100000)
G00 X-2.1250 Y1.2750 
G01 Z-0.080000
G01 Z0.100000
(G00 Z0.100000)
G00 X-2.1250 Y1.3750 
G01 Z-0.080000
G01 Z0.100000
(G00 Z0.100000)
G00 X-2.1250 Y1.4750 
G01 Z-0.080000
G01 Z0.100000
(G00 Z0.100000)
G00 X-2.1250 Y1.5750 
G01 Z-0.080000
G01 Z0.100000
(G00 Z0.100000)
G00 X-2.1250 Y1.6750 
G01 Z-0.080000
G01 Z0.100000
(G00 Z0.100000)
G00 X-2.1250 Y1.7750 
G01 Z-0.080000
G01 Z0.100000
(G00 Z0.100000)
G00 X-2.1250 Y1.8750 
G01 Z-0.080000
G01 Z0.100000
(G00 Z0.100000)
G00 X-2.1250 Y0.3250 
G01 Z-0.080000
G01 Z0.100000
(G00 Z0.100000)
G00 X-2.1250 Y0.4250 
G01 Z-0.080000
G01 Z0.100000
(G00 Z0.100000)
G00 X-2.1250 Y0.5250 
G01 Z-0.080000
G01 Z0.100000
(G00 Z0.100000)
G00 X-2.1250 Y0.6250 
G01 Z-0.080000
G01 Z0.100000
(G00 Z0.100000)
G00 X-2.1250 Y0.7250 
G01 Z-0.080000
G01 Z0.100000
(G00 Z0.100000)
G00 X-2.1250 Y0.8250 
G01 Z-0.080000
G01 Z0.100000
(G00 Z0.100000)
G00 X-2.1250 Y0.9250 
G01 Z-0.080000
G01 Z0.100000
(G00 Z0.100000)
G00 X-2.1250 Y1.0250 
G01 Z-0.080000
G01 Z0.100000
(G00 Z0.100000)
G00 X-2.1250 Y1.1750 
G01 Z-0.080000
G01 Z0.100000
(G00 Z0.100000)
G00 X-0.2250 Y1.3250 
G01 Z-0.080000
G01 Z0.100000
(G00 Z0.100000)
G00 X-0.2250 Y1.4250 
G01 Z-0.080000
G01 Z0.100000
(G00 Z0.100000)
G00 X-0.2250 Y1.5250 
G01 Z-0.080000
G01 Z0.100000
(G00 Z0.100000)
G00 X-0.2250 Y0.3250 
G01 Z-0.080000
G01 Z0.100000
(G00 Z0.100000)
G00 X-0.2250 Y0.4250 
G01 Z-0.080000
G01 Z0.100000
(G00 Z0.100000)
G00 X-0.2250 Y0.5250 
G01 Z-0.080000
G01 Z0.100000
(G00 Z0.100000)
G00 X-0.2250 Y0.6250 
G01 Z-0.080000
G01 Z0.100000
(G00 Z0.100000)
G00 X-0.2250 Y0.7250 
G01 Z-0.080000
G01 Z0.100000
(G00 Z0.100000)
G00 X-0.2250 Y0.8250 
G01 Z-0.080000
G01 Z0.100000
(G00 Z0.100000)
G00 X-0.2250 Y1.0250 
G01 Z-0.080000
G01 Z0.100000
(G00 Z0.100000)
G00 X-0.2250 Y1.1250 
G01 Z-0.080000
G01 Z0.100000
(G00 Z0.100000)
G00 X-0.2250 Y1.2250 
G01 Z-0.080000
G01 Z0.100000
(G00 Z0.100000)
G00 X-0.2750 Y1.8500 
G01 Z-0.080000
G01 Z0.100000
(G00 Z0.100000)
G00 X-0.3250 Y2.3250 
G01 Z-0.080000
G01 Z0.100000
(G00 Z0.100000)
G00 X-0.3250 Y2.4250 
G01 Z-0.080000
G01 Z0.100000
(G00 Z0.100000)
G00 X-0.3250 Y2.5250 
G01 Z-0.080000
G01 Z0.100000
(G00 Z0.100000)
G00 X-0.5750 Y1.8500 
G01 Z-0.080000
G01 Z0.100000
(G00 Z0.100000)
G00 X-0.7750 Y0.7750 
G01 Z-0.080000
G01 Z0.100000
(G00 Z0.100000)
G00 X-0.7750 Y0.8750 
G01 Z-0.080000
G01 Z0.100000
(G00 Z0.100000)
G00 X-0.7750 Y0.9750 
G01 Z-0.080000
G01 Z0.100000
(G00 Z0.100000)
G00 X-0.7750 Y1.0750 
G01 Z-0.080000
G01 Z0.100000
(G00 Z0.100000)
G00 X-0.7750 Y1.1750 
G01 Z-0.080000
G01 Z0.100000
(G00 Z0.100000)
G00 X-0.9750 Y1.7750 
G01 Z-0.080000
G01 Z0.100000
(G00 Z0.100000)
G00 X-0.9750 Y1.9750 
G01 Z-0.080000
G01 Z0.100000
(G00 Z0.100000)
G00 X-1.1250 Y1.2750 
G01 Z-0.080000
G01 Z0.100000
(G00 Z0.100000)
G00 X-1.1250 Y1.3750 
G01 Z-0.080000
G01 Z0.100000
(G00 Z0.100000)
G00 X-1.1250 Y1.4750 
G01 Z-0.080000
G01 Z0.100000
(G00 Z0.100000)
G00 X-1.1250 Y1.5750 
G01 Z-0.080000
G01 Z0.100000
(G00 Z0.100000)
G00 X-1.1250 Y0.3750 
G01 Z-0.080000
G01 Z0.100000
(G00 Z0.100000)
G00 X-1.1250 Y0.4750 
G01 Z-0.080000
G01 Z0.100000
(G00 Z0.100000)
G00 X-1.1250 Y0.5750 
G01 Z-0.080000
G01 Z0.100000
(G00 Z0.100000)
G00 X-1.1250 Y0.6750 
G01 Z-0.080000
G01 Z0.100000
M05
G00 Z0.1500 
M06 T07  ; 0.0550 
G01 Z0.0000 F10.00 
M06 T07  ; 0.0550 
G00 Z0.1000 
M03 S1
G04 P1.000000
G00 Z0.100000
G00 X-0.6500 Y2.4000 
G01 Z-0.0800 F10.00 
G01 Z0.100000
(R0.1000  P0.100000)
(G00 Z0.100000)
G00 X-0.8500 Y2.4000 
G01 Z-0.080000
G01 Z0.100000
T01 
G00 Z0.1500 
M05
M02
